; HEADER_BLOCK_START
; generated by OrcaSlicer 2.2.0 on 2025-03-19 at 09:48:12
; total layer number: 50
; filament_density: 1.24,1.24,1.24,1.24,1.24
; filament_diameter: 1.75,1.75,1.75,1.75,1.75
; max_z_height: 10.00
; HEADER_BLOCK_END

; THUMBNAIL_BLOCK_START

;
; THUMBNAIL_BLOCK_END

; THUMBNAIL_BLOCK_START

;
; THUMBNAIL_BLOCK_END

; external perimeters extrusion width = 0.40mm
; perimeters extrusion width = 0.44mm
; infill extrusion width = 0.44mm
; solid infill extrusion width = 0.48mm
; top infill extrusion width = 0.38mm
; first layer extrusion width = 0.48mm

; EXECUTABLE_BLOCK_START
EXCLUDE_OBJECT_DEFINE NAME=singlechannel_tipremoval.stl_id_0_copy_0 CENTER=177,187 POLYGON=[[145.5,172],[188.5,162],[208.5,162],[208.5,212],[188.5,212],[145.5,202],[145.5,172]]
M73 P0 R36
;TYPE:Custom
TURN_OFF_HEATERS
TURN_OFF_ALL_FILAMENT_SENSORS
BT_DISABLE_ALL_BUFFERS
INITIALIZE_TOOL_USE_COUNT

; Heat the bed first
M140 S50
;M190 S50 ; wait for bed temp

CHECK_CORRECT_TOOL_LOADED TOOL=0

STORE_TOOLHEAD_POSITION X=165 Y=140

G0 Z10 F5000    ; Ensure nozzle is at 3mm over the bed

; Drop Off T0 
T_1


SET_PRINT_STATUS_START
G92 E0
_INITIALIZE_ALL_TOOLS
INITIALIZE_TOOL_USE_COUNT

; Set Temperatures for other tools apart from T0
 SET_TOOL_FOR_PRINT T=0 R=100 S=210 





;Pick up the initial extruder

T0 ;initial extruder
ENABLE_BUFFER BUFFER=TN0 ; Enable Buffer for Initial Toolhead
KTCC_INIT_PRINT_STATS
;TEMPADJUSTEXHAUST
;HYPERLAPSE ACTION=START
SET_FILAMENT_SENSOR SENSOR=encoder_t0 ENABLE=0
SET_FILAMENT_SENSOR SENSOR=encoder_t1 ENABLE=0
;END_START
G90
G21
M83 ; use relative distances for extrusion
; filament start gcode
T0
M106 S0
;LAYER_CHANGE
;Z:0.2
;HEIGHT:0.2
;BEFORE_LAYER_CHANGE
;0.2
G92 E0

;OFFSET_T0
SET_GCODE_OFFSET X=0 Y=-0 Z=-1.9 move=1
M117 SET FILAMENT SENSOR ON 
SET_FILAMENT_SENSOR SENSOR=encoder_t0 ENABLE=1

M117 LAYER 0.2
G1 E-.8 F1800
;AFTER_LAYER_CHANGE
;0.2
;AFTER_LAYER_CHANGE
;0.2

;OFFSET_T0
SET_GCODE_OFFSET X=0 Y=-0 Z=-1.9 move=1
M117 SET FILAMENT SENSOR ON 
SET_FILAMENT_SENSOR SENSOR=encoder_t0 ENABLE=1

;_SET_FAN_SPEED_CHANGING_LAYER
SET_VELOCITY_LIMIT ACCEL=500 ACCEL_TO_DECEL=250
; printing object singlechannel_tipremoval.stl id:0 copy 0
EXCLUDE_OBJECT_START NAME=singlechannel_tipremoval.stl_id_0_copy_0
G1 Z.6 F21000
G1 X189.59 Y201.873
G1 Z.6
G1 Z.2
G1 E.8 F1800
;Change extrusion role G-code

;OFFSET_T0
SET_GCODE_OFFSET X=0 Y=-0 Z=-1.9 move=1
M117 SET FILAMENT SENSOR ON 
SET_FILAMENT_SENSOR SENSOR=encoder_t0 ENABLE=1


;TYPE:Inner wall
;WIDTH:0.479999
G1 F3000
G1 X189.576 Y201.692 E.00647
G1 X189.437 Y201.382 E.01208
G1 X189.198 Y201.12 E.01266
G1 X188.884 Y200.948 E.01276
G1 X188.521 Y200.886 E.01308
G1 X146.614 Y200.886 E1.49259
G1 X146.614 Y199.88 E.03583
G1 X147.13 Y199.907 E.01838
G1 X147.535 Y199.876 E.01448
G1 X148.133 Y199.907 E.02133
G1 X148.574 Y199.879 E.01572
G1 X149.275 Y199.901 E.02498
G1 X150.038 Y199.777 E.02755
G1 X150.746 Y199.523 E.02676
G1 X151.271 Y199.228 E.02145
G1 X151.747 Y198.86 E.02145
G1 X152.165 Y198.426 E.02145
G1 X152.514 Y197.935 E.02145
G1 X152.784 Y197.41 E.02105
G1 X152.959 Y196.91 E.01885
G1 X153.079 Y196.321 E.0214
G1 X153.111 Y195.72 E.02145
G1 X153.055 Y195.12 E.02145
G1 X152.913 Y194.535 E.02145
G1 X152.691 Y193.987 E.02105
G1 X152.428 Y193.528 E.01885
G1 X152.06 Y193.053 E.02139
G1 X151.626 Y192.635 E.02145
G1 X151.094 Y192.265 E.02308
G1 X150.468 Y191.962 E.02479
G1 X149.924 Y191.808 E.02012
G1 X149.413 Y191.71 E.01853
G1 X148.016 Y191.689 E.04976
G1 X147.561 Y191.717 E.01625
G1 X147.016 Y191.689 E.01943
G1 X146.614 Y191.712 E.01434
G1 X146.614 Y185.391 E.22512
G1 X146.837 Y185.41 E.00795
G1 X147.488 Y185.381 E.02323
G1 X147.994 Y185.411 E.01803
G1 X148.511 Y185.38 E.01847
G1 X149.177 Y185.406 E.02374
G1 X149.829 Y185.32 E.02343
G1 X150.338 Y185.212 E.01854
G1 X151.112 Y184.9 E.02971
G1 X151.619 Y184.596 E.02103
G1 X152.145 Y184.173 E.02406
G1 X152.597 Y183.687 E.02365
G1 X152.931 Y183.213 E.02065
G1 X153.207 Y182.689 E.02109
G1 X153.438 Y182.056 E.024
G1 X153.573 Y181.395 E.02406
G1 X153.611 Y180.72 E.02406
G1 X153.55 Y180.047 E.02406
G1 X153.391 Y179.391 E.02406
G1 X153.144 Y178.774 E.02365
G1 X152.857 Y178.271 E.02063
G1 X152.502 Y177.799 E.02104
G1 X152.026 Y177.32 E.02406
G1 X151.445 Y176.893 E.02567
G1 X150.51 Y176.444 E.03693
G1 X149.656 Y176.237 E.03131
G1 X148.921 Y176.191 E.02622
G1 X148.602 Y176.208 E.01139
G1 X148.06 Y176.193 E.01929
G1 X147.55 Y176.214 E.01818
G1 X146.994 Y176.189 E.01985
G1 X146.614 Y176.209 E.01353
G1 X146.614 Y173.114 E.11021
G1 X188.521 Y173.114 E1.49259
G1 X188.779 Y173.083 E.00923
G1 X189.116 Y172.938 E.01306
G1 X189.389 Y172.686 E.01323
G1 X189.567 Y172.338 E.01396
G1 X189.614 Y172.021 E.01138
G1 X189.614 Y163.114 E.31725
G1 X207.386 Y163.114 E.63296
G1 X207.386 Y210.886 E1.70146
G1 X189.614 Y210.886 E.63296
G1 X189.614 Y202.19 E.30973
G1 X189.593 Y201.913 E.00988
G1 X189.177 Y201.945 F21000
G1 F3000
G1 X189.177 Y201.853 E.00329
G1 X189.041 Y201.578 E.01091
G1 X188.818 Y201.394 E.01031
G1 X188.521 Y201.323 E.01086
G1 X146.177 Y201.323 E1.50815
G1 X146.177 Y199.47 E.06601
G1 X146.521 Y199.437 E.0123
G1 X147.152 Y199.47 E.02252
G1 X147.521 Y199.437 E.01318
G1 X148.156 Y199.47 E.02264
G1 X148.601 Y199.443 E.01589
G1 X149.215 Y199.468 E.0219
G1 X149.899 Y199.363 E.02463
G1 X150.438 Y199.182 E.02027
G1 X150.929 Y198.929 E.01965
G1 X151.365 Y198.614 E.01918
G1 X151.751 Y198.238 E.01918
G1 X152.077 Y197.81 E.01917
G1 X152.338 Y197.339 E.01917
G1 X152.507 Y196.9 E.01674
G1 X152.629 Y196.384 E.01888
G1 X152.675 Y195.848 E.01917
G1 X152.643 Y195.311 E.01918
G1 X152.52 Y194.735 E.02097
G1 X152.325 Y194.23 E.01925
G1 X152.077 Y193.789 E.01805
G1 X151.751 Y193.362 E.01912
G1 X151.365 Y192.986 E.01918
G1 X150.904 Y192.659 E.02015
G1 X150.142 Y192.308 E.02988
G1 X149.399 Y192.147 E.02706
G1 X148.831 Y192.129 E.02026
G1 X148.486 Y192.162 E.01233
G1 X147.984 Y192.125 E.01792
G1 X147.493 Y192.162 E.01754
G1 X146.984 Y192.125 E.01818
G1 X146.519 Y192.16 E.0166
G1 X146.177 Y192.139 E.01222
G1 X146.177 Y184.966 E.25549
G1 X146.472 Y184.945 E.01053
G1 X146.873 Y184.974 E.01431
G1 X147.399 Y184.949 E.01878
G1 X147.967 Y184.975 E.02023
G1 X148.626 Y184.947 E.02351
G1 X149.33 Y184.961 E.02509
G1 X150.182 Y184.804 E.03083
G1 X150.894 Y184.522 E.02727
G1 X151.351 Y184.251 E.01892
G1 X151.83 Y183.871 E.02178
G1 X152.244 Y183.43 E.02154
G1 X152.548 Y183.003 E.01869
G1 X152.799 Y182.533 E.01897
G1 X153.011 Y181.961 E.02172
G1 X153.138 Y181.363 E.02178
G1 X153.175 Y180.752 E.02179
G1 X153.124 Y180.143 E.02178
G1 X152.983 Y179.547 E.02178
G1 X152.761 Y178.985 E.02154
G1 X152.504 Y178.528 E.01868
G1 X152.186 Y178.101 E.01893
G1 X151.758 Y177.665 E.02178
G1 X151.247 Y177.283 E.02274
G1 X150.397 Y176.866 E.03369
G1 X149.628 Y176.673 E.02823
G1 X148.034 Y176.629 E.05683
G1 X147.493 Y176.657 E.01928
G1 X146.967 Y176.625 E.01878
G1 X146.521 Y176.655 E.01591
G1 X146.177 Y176.634 E.01227
G1 X146.177 Y172.677 E.14093
G1 X188.62 Y172.677 E1.51166
G1 X188.923 Y172.539 E.01187
G1 X189.108 Y172.314 E.01036
G1 X189.177 Y172.021 E.01072
G1 X189.177 Y162.677 E.33281
G1 X207.823 Y162.677 E.6641
G1 X207.823 Y211.323 E1.73259
G1 X189.177 Y211.323 E.6641
G1 X189.177 Y201.985 E.33258
G1 X188.74 Y201.979 F21000
;Change extrusion role G-code

;OFFSET_T0
SET_GCODE_OFFSET X=0 Y=-0 Z=-1.9 move=1
M117 SET FILAMENT SENSOR ON 
SET_FILAMENT_SENSOR SENSOR=encoder_t0 ENABLE=1


;TYPE:Outer wall
G1 F3000
G1 X188.676 Y201.824 E.00598
G1 X188.521 Y201.76 E.00594
G1 X145.74 Y201.76 E1.52372
G1 X145.74 Y199.012 E.09789
G1 X146.179 Y199.034 E.01565
G1 X146.507 Y198.999 E.01176
G1 X147.175 Y199.034 E.02382
G1 X147.622 Y199.005 E.01597
G1 X148.628 Y199.007 E.03582
G1 X149.156 Y199.035 E.01883
G1 X149.76 Y198.949 E.02171
G1 X150.299 Y198.767 E.02027
G1 X150.722 Y198.544 E.01705
G1 X151.105 Y198.263 E.0169
G1 X151.442 Y197.929 E.0169
G1 X151.727 Y197.549 E.0169
G1 X151.953 Y197.132 E.0169
G1 X152.098 Y196.748 E.01462
G1 X152.202 Y196.289 E.01677
G1 X152.239 Y195.816 E.0169
G1 X152.207 Y195.343 E.0169
G1 X152.106 Y194.879 E.0169
G1 X151.938 Y194.435 E.0169
G1 X151.742 Y194.075 E.01462
G1 X151.463 Y193.695 E.01677
G1 X151.121 Y193.351 E.01729
G1 X150.714 Y193.052 E.01797
G1 X150.042 Y192.733 E.02648
G1 X149.386 Y192.584 E.02398
G1 X148.817 Y192.566 E.02026
G1 X148.495 Y192.601 E.01152
G1 X147.952 Y192.561 E.01939
G1 X147.498 Y192.601 E.01625
G1 X146.952 Y192.561 E.01948
G1 X146.435 Y192.597 E.01846
G1 X145.74 Y192.578 E.02477
G1 X145.74 Y184.522 E.28694
G1 X146.441 Y184.509 E.02496
G1 X146.909 Y184.539 E.0167
G1 X147.372 Y184.512 E.01655
G1 X147.94 Y184.539 E.02023
G1 X148.644 Y184.51 E.02509
G1 X149.258 Y184.53 E.02187
G1 X150.025 Y184.396 E.02775
G1 X150.644 Y184.158 E.02362
G1 X151.083 Y183.906 E.01802
G1 X151.514 Y183.568 E.0195
G1 X151.871 Y183.196 E.01837
G1 X152.15 Y182.815 E.01681
G1 X152.391 Y182.376 E.01784
G1 X152.584 Y181.866 E.01945
G1 X152.702 Y181.33 E.01951
G1 X152.739 Y180.784 E.01951
G1 X152.697 Y180.238 E.01951
G1 X152.575 Y179.704 E.01951
G1 X152.39 Y179.222 E.01837
G1 X152.165 Y178.808 E.01681
G1 X151.871 Y178.404 E.01779
G1 X151.49 Y178.01 E.0195
G1 X151.048 Y177.672 E.01982
G1 X150.284 Y177.288 E.03045
G1 X149.601 Y177.11 E.02515
G1 X148.007 Y177.065 E.0568
G1 X147.497 Y177.095 E.01817
G1 X146.94 Y177.061 E.0199
G1 X146.441 Y177.091 E.01782
G1 X145.74 Y177.078 E.02496
G1 X145.74 Y172.24 E.17232
G1 X188.521 Y172.24 E1.52372
G1 X188.674 Y172.178 E.00585
G1 X188.74 Y172.021 E.00606
G1 X188.74 Y162.24 E.34838
G1 X208.26 Y162.24 E.69523
G1 X208.26 Y211.76 E1.76372
G1 X188.74 Y211.76 E.69523
G1 X188.74 Y202.019 E.34696
G1 E-.56 F1800
;WIPE_START
G1 F3000
G1 X188.676 Y201.824 E-.04929
G1 X188.521 Y201.76 E-.04
G1 X187.893 Y201.76 E-.15071
;WIPE_END
G1 Z.6 F21000
G1 X197.171 Y205.398 Z.6
G1 Z.2
G1 E.8 F1800
;Change extrusion role G-code

;OFFSET_T0
SET_GCODE_OFFSET X=0 Y=-0 Z=-1.9 move=1
M117 SET FILAMENT SENSOR ON 
SET_FILAMENT_SENSOR SENSOR=encoder_t0 ENABLE=1


;TYPE:Inner wall
G1 F3000
G1 X197.095 Y205.188 E.00799
G1 X197.095 Y204.809 E.01348
G1 X197.436 Y202.874 E.06999
G1 X197.544 Y202.557 E.01191
G1 X197.746 Y202.285 E.01208
G1 X199.315 Y200.963 E.07307
G1 X199.623 Y200.781 E.01273
G1 X200.017 Y200.708 E.0143
G1 X201.983 Y200.708 E.06999
G1 X202.311 Y200.758 E.01184
G1 X202.685 Y200.963 E.01518
G1 X204.19 Y202.227 E.06999
G1 X204.425 Y202.502 E.01288
G1 X204.564 Y202.874 E.01415
G1 X204.905 Y204.81 E.07003
G1 X204.904 Y205.194 E.01369
G1 X204.775 Y205.545 E.01331
G1 X203.793 Y207.247 E.06999
G1 X203.479 Y207.592 E.01662
G1 X203.22 Y207.728 E.01039
G1 X201.374 Y208.4 E.06999
G1 X201 Y208.466 E.01352
G1 X200.626 Y208.4 E.01352
G1 X198.78 Y207.728 E.06999
G1 X198.535 Y207.602 E.00979
G1 X198.286 Y207.384 E.01178
M73 P1 R36
M73 P1 R36
G1 X197.225 Y205.545 E.07563
G1 X197.185 Y205.436 E.00414
G1 X197.574 Y205.238 F21000
G1 F3000
G1 X197.52 Y205.074 E.00615
G1 X197.525 Y204.885 E.00674
G1 X197.866 Y202.95 E.06999
G1 X197.97 Y202.694 E.00983
G1 X199.596 Y201.298 E.07632
G1 X199.898 Y201.145 E.01207
G1 X201.983 Y201.145 E.07424
G1 X202.323 Y201.23 E.01248
G1 X203.909 Y202.561 E.07378
G1 X204.05 Y202.726 E.00773
G1 X204.134 Y202.95 E.00849
G1 X204.475 Y204.886 E.07001
G1 X204.474 Y205.116 E.00821
G1 X204.397 Y205.327 E.00798
G1 X203.414 Y207.029 E.06999
G1 X203.192 Y207.273 E.01176
G1 X201.224 Y207.989 E.07458
G1 X201 Y208.028 E.00811
G1 X200.776 Y207.989 E.00811
G1 X198.929 Y207.317 E.06999
G1 X198.64 Y207.122 E.01243
G1 X197.603 Y205.327 E.07384
G1 X197.586 Y205.276 E.0019
G1 X197.98 Y205.1 F21000
;Change extrusion role G-code

;OFFSET_T0
SET_GCODE_OFFSET X=0 Y=-0 Z=-1.9 move=1
M117 SET FILAMENT SENSOR ON 
SET_FILAMENT_SENSOR SENSOR=encoder_t0 ENABLE=1


;TYPE:Outer wall
G1 F3000
G1 X197.956 Y204.961 E.00504
G1 X198.297 Y203.026 E.06999
G1 X198.372 Y202.896 E.00532
G1 X199.877 Y201.633 E.06999
G1 X200.017 Y201.582 E.00532
G1 X201.983 Y201.582 E.06999
G1 X202.123 Y201.633 E.00532
G1 X203.628 Y202.896 E.06999
G1 X203.703 Y203.026 E.00532
G1 X204.044 Y204.961 E.07
G1 X204.018 Y205.108 E.00532
G1 X203.036 Y206.81 E.06999
G1 X202.921 Y206.906 E.00532
G1 X201.075 Y207.578 E.06999
G1 X200.925 Y207.578 E.00532
G1 X199.079 Y206.906 E.06999
G1 X198.964 Y206.81 E.00532
G1 X197.998 Y205.136 E.06885
G1 E-.56 F1800
;WIPE_START
G1 F3000
G1 X197.956 Y204.961 E-.0432
G1 X198.098 Y204.153 E-.1968
;WIPE_END
G1 Z.6 F21000
G1 X197.464 Y167.779 Z.6
G1 Z.2
G1 E.8 F1800
;Change extrusion role G-code

;OFFSET_T0
SET_GCODE_OFFSET X=0 Y=-0 Z=-1.9 move=1
M117 SET FILAMENT SENSOR ON 
SET_FILAMENT_SENSOR SENSOR=encoder_t0 ENABLE=1


;TYPE:Inner wall
G1 F3000
G1 X197.503 Y167.644 E.00503
G1 X197.622 Y167.43 E.00872
G1 X197.81 Y167.227 E.00985
G1 X199.315 Y165.963 E.06999
G1 X199.632 Y165.778 E.0131
G1 X200.017 Y165.708 E.01394
G1 X201.983 Y165.708 E.06999
G1 X202.368 Y165.778 E.01394
G1 X202.685 Y165.963 E.0131
G1 X204.19 Y167.227 E.06999
G1 X204.425 Y167.502 E.01288
G1 X204.564 Y167.874 E.01415
G1 X204.905 Y169.81 E.07003
G1 X204.904 Y170.194 E.01369
G1 X204.775 Y170.545 E.01331
G1 X203.793 Y172.247 E.06999
G1 X203.622 Y172.47 E.01002
G1 X203.366 Y172.675 E.01167
G1 X201.374 Y173.4 E.07551
G1 X200.987 Y173.465 E.01398
G1 X200.626 Y173.4 E.01305
G1 X198.776 Y172.726 E.07013
G1 X198.441 Y172.529 E.01385
G1 X198.207 Y172.247 E.01305
G1 X197.225 Y170.545 E.06999
G1 X197.095 Y170.188 E.01355
G1 X197.095 Y169.809 E.01348
G1 X197.436 Y167.874 E.06999
G1 X197.452 Y167.818 E.00208
G1 X197.906 Y167.856 F21000
G1 F3000
G1 X197.996 Y167.641 E.00831
G1 X199.596 Y166.298 E.0744
G1 X199.925 Y166.145 E.01294
G1 X201.983 Y166.145 E.07327
G1 X202.214 Y166.187 E.00836
G1 X202.404 Y166.298 E.00786
G1 X203.909 Y167.561 E.06999
G1 X204.05 Y167.726 E.00773
G1 X204.134 Y167.95 E.00849
G1 X204.475 Y169.886 E.07001
G1 X204.474 Y170.116 E.00821
G1 X204.397 Y170.327 E.00798
G1 X203.414 Y172.029 E.06999
G1 X203.17 Y172.281 E.0125
G1 X201.224 Y172.989 E.07376
G1 X200.887 Y173.029 E.01209
G1 X198.929 Y172.317 E.07421
G1 X198.693 Y172.168 E.00995
G1 X197.603 Y170.327 E.0762
G1 X197.52 Y170.079 E.00932
G1 X197.525 Y169.885 E.0069
G1 X197.866 Y167.95 E.06999
G1 X197.89 Y167.893 E.00219
G1 X198.301 Y168.019 F21000
;Change extrusion role G-code

;OFFSET_T0
SET_GCODE_OFFSET X=0 Y=-0 Z=-1.9 move=1
M117 SET FILAMENT SENSOR ON 
SET_FILAMENT_SENSOR SENSOR=encoder_t0 ENABLE=1


;TYPE:Outer wall
G1 F3000
G1 X198.372 Y167.896 E.00504
G1 X199.877 Y166.633 E.06999
G1 X200.017 Y166.582 E.00532
G1 X201.983 Y166.582 E.06999
G1 X202.123 Y166.633 E.00532
G1 X203.628 Y167.896 E.06999
G1 X203.703 Y168.026 E.00532
G1 X204.044 Y169.961 E.07
G1 X204.018 Y170.108 E.00532
G1 X203.036 Y171.81 E.06999
G1 X202.921 Y171.906 E.00532
G1 X201.075 Y172.578 E.06999
G1 X200.925 Y172.578 E.00532
G1 X199.078 Y171.906 E.07002
G1 X198.964 Y171.81 E.0053
G1 X197.982 Y170.108 E.06999
G1 X197.956 Y169.961 E.00532
G1 X198.291 Y168.057 E.06885
G1 E-.56 F1800
;WIPE_START
G1 F3000
G1 X198.372 Y167.896 E-.0432
G1 X199 Y167.369 E-.1968
;WIPE_END
G1 Z.6 F21000
G1 X206.367 Y163.245 Z.6
G1 Z.2
G1 E.8 F1800
;Change extrusion role G-code

;OFFSET_T0
SET_GCODE_OFFSET X=0 Y=-0 Z=-1.9 move=1
M117 SET FILAMENT SENSOR ON 
SET_FILAMENT_SENSOR SENSOR=encoder_t0 ENABLE=1


;TYPE:Bottom surface
;WIDTH:0.48198
G1 F6300
G1 X207.058 Y163.936 E.03497
G1 X207.058 Y164.557 E.02222
G1 X205.943 Y163.442 E.05643
G1 X205.322 Y163.442 E.02222
G1 X207.058 Y165.178 E.08785
G1 X207.058 Y165.799 E.02222
G1 X204.701 Y163.442 E.11927
G1 X204.08 Y163.442 E.02222
G1 X207.058 Y166.42 E.15068
G1 X207.058 Y167.041 E.02222
G1 X203.459 Y163.442 E.1821
G1 X202.838 Y163.442 E.02222
G1 X207.058 Y167.662 E.21352
G1 X207.058 Y168.283 E.02222
G1 X202.217 Y163.442 E.24493
G1 X201.596 Y163.442 E.02222
G1 X207.058 Y168.904 E.27635
G1 X207.058 Y169.525 E.02222
G1 X200.975 Y163.442 E.30777
G1 X200.354 Y163.442 E.02222
G1 X202.359 Y165.447 E.10143
G1 X202.483 Y165.469 E.00451
G1 X202.889 Y165.706 E.01681
G1 X204.408 Y166.981 E.07096
G1 X204.708 Y167.333 E.01654
G1 X204.885 Y167.807 E.01811
G1 X204.921 Y168.008 E.00731
G1 X207.058 Y170.146 E.10815
G1 X207.058 Y170.767 E.02222
G1 X205.054 Y168.762 E.10142
