; HEADER_BLOCK_START
; generated by OrcaSlicer 2.2.0 on 2025-02-22 at 13:12:15
; total layer number: 4
; filament_density: 1.24,1.24,1.24,1.24,1.24
; filament_diameter: 1.75,1.75,1.75,1.75,1.75
; max_z_height: 0.80
; HEADER_BLOCK_END

; THUMBNAIL_BLOCK_START

;
; THUMBNAIL_BLOCK_END

; THUMBNAIL_BLOCK_START

;
; THUMBNAIL_BLOCK_END

; external perimeters extrusion width = 0.40mm
; perimeters extrusion width = 0.44mm
; infill extrusion width = 0.44mm
; solid infill extrusion width = 0.48mm
; top infill extrusion width = 0.38mm
; support material extrusion width = 0.38mm
; first layer extrusion width = 0.48mm

; external perimeters extrusion width = 0.40mm
; perimeters extrusion width = 0.44mm
; infill extrusion width = 0.44mm
; solid infill extrusion width = 0.48mm
; top infill extrusion width = 0.38mm
; support material extrusion width = 0.38mm
; first layer extrusion width = 0.48mm

; EXECUTABLE_BLOCK_START
EXCLUDE_OBJECT_DEFINE NAME=Offset_X_Y_dual_extruder_1_id_0_copy_0 CENTER=177,187 POLYGON=[[143.9,153.9],[152.7,153.9],[202.1,153.9],[210.1,153.9],[210.1,172.3],[162.3,220.1],[143.9,220.1],[143.9,153.9]]
M73 P0 R6
;TYPE:Custom
TURN_OFF_HEATERS
TURN_OFF_ALL_FILAMENT_SENSORS
BT_DISABLE_ALL_BUFFERS
INITIALIZE_TOOL_USE_COUNT

; Heat the bed first
M140 S60
M190 S60 ; wait for bed temp

CHECK_CORRECT_TOOL_LOADED TOOL=0

STORE_TOOLHEAD_POSITION X=165 Y=140

G0 Z10 F5000    ; Ensure nozzle is at 3mm over the bed

; Drop Off T0 
T_1


SET_PRINT_STATUS_START
G92 E0
_INITIALIZE_ALL_TOOLS
INITIALIZE_TOOL_USE_COUNT

; Set Temperatures for other tools apart from T0
 SET_TOOL_FOR_PRINT T=0 R=0 S=220 
 SET_TOOL_FOR_PRINT T=1 R=0 S=220  




;Pick up the initial extruder

T0 ;initial extruder
ENABLE_BUFFER BUFFER=TN0 ; Enable Buffer for Initial Toolhead
KTCC_INIT_PRINT_STATS
TEMPADJUSTEXHAUST
;HYPERLAPSE ACTION=START
SET_FILAMENT_SENSOR SENSOR=encoder_t0 ENABLE=0
SET_FILAMENT_SENSOR SENSOR=encoder_t1 ENABLE=0
;END_START
G90
G21
M83 ; use relative distances for extrusion
; TESTING
T0



OFFSET_T0
M117 SET FILAMENT SENSOR ON 
SET_FILAMENT_SENSOR SENSOR=encoder_t0 ENABLE=0
;_FORCE_RESUME_FAN_SPEED
; filament start gcode
M109 S220 T0 ; set nozzle temperature and wait for it to be reached
G1 Z.2 F21000
M106 S0
;LAYER_CHANGE
;Z:0.2
;HEIGHT:0.2
;BEFORE_LAYER_CHANGE
;0.2
G92 E0

OFFSET_T0

M117 LAYER 0.2
;AFTER_LAYER_CHANGE
;0.2
;AFTER_LAYER_CHANGE
;0.2

OFFSET_T0

;_SET_FAN_SPEED_CHANGING_LAYER
SET_VELOCITY_LIMIT ACCEL=500 ACCEL_TO_DECEL=250
G1 E-.8 F1800
G1 Z.6 F21000
G1 X224.5 Y250.5
G1 Z.6
G1 Z.2
G1 E.8 F1800
;HEIGHT:0.2
;TYPE:Prime tower
;WIDTH:0.5
G1  X224.500 Y256.750  E0.2375 F3000
G1  X165.500  E2.2424
G1  Y250.500  E0.2375
M73 P1 R6
M73 P1 R6
G1  X224.500  E2.2424
G1  Y256.750 
G1  X223.500 
;--------------------
; CP EMPTY GRID START
; layer #1
G1  Y256.250  E0.0190
G1  X166.000  E2.1854
G1  Y255.725  E0.0200
G1  X224.000  E2.2044
G1  Y255.200  E0.0200
M73 P2 R6
M73 P2 R6
G1  X166.000  E2.2044
G1  Y254.675  E0.0200
G1  X224.000  E2.2044
G1  Y254.150  E0.0200
G1  X166.000  E2.2044
G1  Y253.625  E0.0200
M73 P3 R6
M73 P3 R6
G1  X224.000  E2.2044
G1  Y253.100  E0.0200
G1  X166.000  E2.2044
G1  Y252.575  E0.0200
G1  X224.000  E2.2044
G1  Y252.050  E0.0200
M73 P4 R6
M73 P4 R6
G1  X166.000  E2.2044
G1  Y251.525  E0.0200
G1  X224.000  E2.2044
G1  Y251.000  E0.0200
G1  X166.000  E2.2044
G1  Y250.500  E0.0190
M73 P5 R6
; CP EMPTY GRID END
;------------------






M73 P5 R6
G1  X165.000 Y250.000  
G1  X225.000  E2.2804
G1  Y257.250  E0.2755
G1  X165.000  E2.2804
G1  Y250.000  E0.2755
G1  X164.543 Y249.543  
G1  X225.457  E2.3151
G1  Y257.707  E0.3103
M73 P6 R6
M73 P6 R6
G1  X164.543  E2.3151
G1  Y249.543  E0.3103
G1  X164.086 Y249.086  
G1  X225.914  E2.3499
G1  Y258.164  E0.3450
G1  X164.086  E2.3499
M73 P7 R6
M73 P7 R6
G1  Y249.086  E0.3450
G1  X163.629 Y248.629  
G1  X226.371  E2.3846
G1  Y258.621  E0.3798
G1  X163.629  E2.3846
G1  Y248.629  E0.3798
M73 P8 R6
M73 P8 R6
G1  X163.172 Y248.172  
G1  X226.828  E2.4194
G1  Y259.078  E0.4145
G1  X163.172  E2.4194
G1  Y248.172  E0.4145
G1  X162.715 Y247.715  
M73 P9 R6
M73 P9 R6
G1  X227.285  E2.4541
G1  Y259.535  E0.4493
G1  X162.715  E2.4541
G1  Y247.715  E0.4493
G1  X162.258 Y247.258  
G1  X227.742  E2.4888
G1  Y259.992  E0.4840
M73 P10 R6
M73 P10 R6
G1  X162.258  E2.4888
G1  Y247.258  E0.4840
G1  X161.800 Y246.800  
M73 P10 R5
M73 P10 R5
G1  X228.200  E2.5236
G1  Y260.450  E0.5188
M73 P11 R5
M73 P11 R5
G1  X161.800  E2.5236
G1  Y246.800  E0.5188

; printing object Offset_X_Y_dual_extruder_1 id:0 copy 0
G1 E-.56 F1800
;WIPE_START
G1 F3600
G1 X161.8 Y247.8 E-.24
;WIPE_END
EXCLUDE_OBJECT_START NAME=Offset_X_Y_dual_extruder_1_id_0_copy_0
G1 Z.6 F21000
G1 X161.211 Y172.127 Z.6
G1 Z.2
G1 E.8 F1800
;Change extrusion role G-code

OFFSET_T0


;TYPE:Inner wall
;WIDTH:0.479999
;HEIGHT:0.2
G1 F3000
G1 X161.186 Y172.279 E.00547
G1 X161.186 Y218.986 E1.66355
G1 X145.014 Y218.986 E.57598
M73 P12 R5
M73 P12 R5
G1 X145.014 Y155.014 E2.27844
G1 X208.986 Y155.014 E2.27844
G1 X208.986 Y171.186 E.57598
G1 X162.279 Y171.186 E1.66355
G1 X162.011 Y171.219 E.0096
M73 P13 R5
M73 P13 R5
G1 X161.694 Y171.355 E.01229
G1 X161.402 Y171.626 E.01418
G1 X161.244 Y171.926 E.01208
G1 X161.218 Y172.087 E.00582
G1 X161.641 Y172.193 F21000
G1 F3000
G1 X161.623 Y172.279 E.00311
G1 X161.623 Y219.423 E1.67911
G1 X144.577 Y219.423 E.60711
G1 X144.577 Y154.577 E2.30958
G1 X209.423 Y154.577 E2.30958
G1 X209.423 Y171.623 E.60711
M73 P14 R5
M73 P14 R5
G1 X162.156 Y171.623 E1.68347
G1 X161.849 Y171.783 E.01233
G1 X161.677 Y172.018 E.01039
G1 X161.649 Y172.154 E.00494
G1 X162.06 Y172.279 F21000
;Change extrusion role G-code

OFFSET_T0


;TYPE:Outer wall
G1 F3000
G1 X162.06 Y219.86 E1.69468
G1 X144.14 Y219.86 E.63825
G1 X144.14 Y154.14 E2.34071
G1 X209.86 Y154.14 E2.34071
M73 P15 R5
M73 P15 R5
G1 X209.86 Y172.06 E.63825
G1 X162.279 Y172.06 E1.69468
G1 X162.124 Y172.124 E.00596
M73 P16 R5
M73 P16 R5
G1 X162.075 Y172.242 E.00453
G1 E-.56 F1800
;WIPE_START
G1 F3000
G1 X162.075 Y173.242 E-.24
;WIPE_END
G1 Z.6 F21000
G1 X207.97 Y155.145 Z.6
G1 Z.2
G1 E.8 F1800
;Change extrusion role G-code

OFFSET_T0


;TYPE:Bottom surface
;WIDTH:0.480592
G1 F6300
G1 X208.658 Y155.833 E.03471
G1 X208.658 Y156.452 E.02208
G1 X207.548 Y155.342 E.05601
G1 X206.929 Y155.342 E.02208
G1 X208.658 Y157.071 E.08722
G1 X208.658 Y157.69 E.02208
G1 X206.31 Y155.342 E.11844
G1 X205.691 Y155.342 E.02208
G1 X208.658 Y158.309 E.14966
G1 X208.658 Y158.928 E.02208
G1 X205.072 Y155.342 E.18088
G1 X204.453 Y155.342 E.02208
G1 X208.658 Y159.547 E.2121
G1 X208.658 Y160.166 E.02208
G1 X203.834 Y155.342 E.24332
G1 X203.215 Y155.342 E.02208
G1 X208.658 Y160.785 E.27454
G1 X208.658 Y161.404 E.02208
G1 X202.596 Y155.342 E.30576
G1 X201.977 Y155.342 E.02208
G1 X208.658 Y162.023 E.33698
G1 X208.658 Y162.642 E.02208
G1 X201.358 Y155.342 E.36819
G1 X200.739 Y155.342 E.02208
G1 X208.658 Y163.261 E.39941
G1 X208.658 Y163.88 E.02208
G1 X200.12 Y155.342 E.43063
G1 X199.501 Y155.342 E.02208
M73 P17 R5
M73 P17 R5
G1 X208.658 Y164.499 E.46185
G1 X208.658 Y165.118 E.02208
G1 X198.882 Y155.342 E.49307
G1 X198.263 Y155.342 E.02208
G1 X208.658 Y165.737 E.52429
G1 X208.658 Y166.356 E.02208
G1 X197.644 Y155.342 E.55551
G1 X197.025 Y155.342 E.02208
G1 X208.658 Y166.975 E.58673
G1 X208.658 Y167.594 E.02208
G1 X196.406 Y155.342 E.61795
G1 X195.787 Y155.342 E.02208
G1 X208.658 Y168.213 E.64916
G1 X208.658 Y168.832 E.02208
G1 X195.168 Y155.342 E.68038
G1 X194.549 Y155.342 E.02208
G1 X208.658 Y169.451 E.7116
G1 X208.658 Y170.07 E.02208
G1 X193.93 Y155.342 E.74282
G1 X193.312 Y155.342 E.02208
G1 X208.658 Y170.688 E.77404
G1 X208.658 Y170.858 E.00605
M73 P18 R5
M73 P18 R5
G1 X208.209 Y170.858 E.01603
G1 X192.693 Y155.342 E.78259
G1 X192.074 Y155.342 E.02208
G1 X207.59 Y170.858 E.78259
G1 X206.971 Y170.858 E.02208
G1 X191.455 Y155.342 E.78259
G1 X190.836 Y155.342 E.02208
G1 X206.352 Y170.858 E.78259
G1 X205.733 Y170.858 E.02208
G1 X190.217 Y155.342 E.78259
G1 X189.598 Y155.342 E.02208
G1 X205.114 Y170.858 E.78259
G1 X204.495 Y170.858 E.02208
G1 X188.979 Y155.342 E.78259
G1 X188.36 Y155.342 E.02208
G1 X203.876 Y170.858 E.78259
G1 X203.257 Y170.858 E.02208
G1 X187.741 Y155.342 E.78259
G1 X187.122 Y155.342 E.02208
M73 P19 R5
M73 P19 R5
G1 X202.638 Y170.858 E.78259
G1 X202.019 Y170.858 E.02208
G1 X186.503 Y155.342 E.78259
G1 X185.884 Y155.342 E.02208
G1 X201.4 Y170.858 E.78259
G1 X200.781 Y170.858 E.02208
G1 X185.265 Y155.342 E.78259
G1 X184.646 Y155.342 E.02208
G1 X200.162 Y170.858 E.78259
G1 X199.543 Y170.858 E.02208
G1 X184.027 Y155.342 E.78259
G1 X183.408 Y155.342 E.02208
G1 X198.924 Y170.858 E.78259
G1 X198.305 Y170.858 E.02208
G1 X182.789 Y155.342 E.78259
G1 X182.17 Y155.342 E.02208
G1 X197.686 Y170.858 E.78259
G1 X197.067 Y170.858 E.02208
G1 X181.551 Y155.342 E.78259
G1 X180.932 Y155.342 E.02208
M73 P20 R5
M73 P20 R5
G1 X196.448 Y170.858 E.78259
G1 X195.829 Y170.858 E.02208
G1 X180.313 Y155.342 E.78259
G1 X179.694 Y155.342 E.02208
G1 X195.21 Y170.858 E.78259
G1 X194.591 Y170.858 E.02208
G1 X179.075 Y155.342 E.78259
G1 X178.456 Y155.342 E.02208
G1 X193.973 Y170.858 E.78259
G1 X193.354 Y170.858 E.02208
G1 X177.837 Y155.342 E.78259
G1 X177.219 Y155.342 E.02208
G1 X192.735 Y170.858 E.78259
G1 X192.116 Y170.858 E.02208
G1 X176.6 Y155.342 E.78259
G1 X175.981 Y155.342 E.02208
G1 X191.497 Y170.858 E.78259
G1 X190.878 Y170.858 E.02208
M73 P21 R5
M73 P21 R5
G1 X175.362 Y155.342 E.78259
G1 X174.743 Y155.342 E.02208
G1 X190.259 Y170.858 E.78259
G1 X189.64 Y170.858 E.02208
G1 X174.124 Y155.342 E.78259
G1 X173.505 Y155.342 E.02208
G1 X189.021 Y170.858 E.78259
G1 X188.402 Y170.858 E.02208
G1 X172.886 Y155.342 E.78259
G1 X172.267 Y155.342 E.02208
G1 X187.783 Y170.858 E.78259
G1 X187.164 Y170.858 E.02208
G1 X171.648 Y155.342 E.78259
G1 X171.029 Y155.342 E.02208
G1 X186.545 Y170.858 E.78259
G1 X185.926 Y170.858 E.02208
G1 X170.41 Y155.342 E.78259
G1 X169.791 Y155.342 E.02208
M73 P22 R5
M73 P22 R5
G1 X185.307 Y170.858 E.78259
G1 X184.688 Y170.858 E.02208
G1 X169.172 Y155.342 E.78259
G1 X168.553 Y155.342 E.02208
G1 X184.069 Y170.858 E.78259
G1 X183.45 Y170.858 E.02208
G1 X167.934 Y155.342 E.78259
G1 X167.315 Y155.342 E.02208
G1 X182.831 Y170.858 E.78259
G1 X182.212 Y170.858 E.02208
G1 X166.696 Y155.342 E.78259
G1 X166.077 Y155.342 E.02208
G1 X181.593 Y170.858 E.78259
G1 X180.974 Y170.858 E.02208
G1 X165.458 Y155.342 E.78259
G1 X164.839 Y155.342 E.02208
G1 X180.355 Y170.858 E.78259
G1 X179.736 Y170.858 E.02208
G1 X164.22 Y155.342 E.78259
G1 X163.601 Y155.342 E.02208
M73 P23 R5
M73 P23 R5
G1 X179.117 Y170.858 E.78259
G1 X178.498 Y170.858 E.02208
G1 X162.982 Y155.342 E.78259
G1 X162.363 Y155.342 E.02208
G1 X177.88 Y170.858 E.78259
G1 X177.261 Y170.858 E.02208
G1 X161.744 Y155.342 E.78259
G1 X161.126 Y155.342 E.02208
G1 X176.642 Y170.858 E.78259
G1 X176.023 Y170.858 E.02208
G1 X160.507 Y155.342 E.78259
G1 X159.888 Y155.342 E.02208
G1 X175.404 Y170.858 E.78259
G1 X174.785 Y170.858 E.02208
G1 X159.269 Y155.342 E.78259
G1 X158.65 Y155.342 E.02208
G1 X174.166 Y170.858 E.78259
G1 X173.547 Y170.858 E.02208
M73 P24 R5
M73 P24 R5
G1 X158.031 Y155.342 E.78259
G1 X157.412 Y155.342 E.02208
G1 X172.928 Y170.858 E.78259
G1 X172.309 Y170.858 E.02208
G1 X156.793 Y155.342 E.78259
G1 X156.174 Y155.342 E.02208
G1 X171.69 Y170.858 E.78259
G1 X171.071 Y170.858 E.02208
G1 X155.555 Y155.342 E.78259
G1 X154.936 Y155.342 E.02208
G1 X170.452 Y170.858 E.78259
G1 X169.833 Y170.858 E.02208
G1 X154.317 Y155.342 E.78259
G1 X153.698 Y155.342 E.02208
G1 X169.214 Y170.858 E.78259
G1 X168.595 Y170.858 E.02208
G1 X153.079 Y155.342 E.78259
G1 X152.46 Y155.342 E.02208
G1 X167.976 Y170.858 E.78259
G1 X167.357 Y170.858 E.02208
M73 P25 R5
M73 P25 R5
G1 X151.841 Y155.342 E.78259
G1 X151.222 Y155.342 E.02208
G1 X166.738 Y170.858 E.78259
G1 X166.119 Y170.858 E.02208
G1 X150.603 Y155.342 E.78259
G1 X149.984 Y155.342 E.02208
G1 X165.5 Y170.858 E.78259
G1 X164.881 Y170.858 E.02208
G1 X149.365 Y155.342 E.78259
G1 X148.746 Y155.342 E.02208
M73 P25 R4
M73 P25 R4
G1 X164.262 Y170.858 E.78259
G1 X163.643 Y170.858 E.02208
G1 X148.127 Y155.342 E.78259
G1 X147.508 Y155.342 E.02208
G1 X163.024 Y170.858 E.78259
G1 X162.405 Y170.858 E.02208
G1 X146.889 Y155.342 E.78259
G1 X146.27 Y155.342 E.02208
M73 P26 R4
M73 P26 R4
G1 X161.854 Y170.925 E.78598
G1 X161.614 Y171.023 E.00925
G1 X161.441 Y171.132 E.00727
G1 X145.651 Y155.342 E.7964
G1 X145.342 Y155.342 E.01104
G1 X145.342 Y155.651 E.01104
G1 X161.137 Y171.446 E.79666
G1 X161.022 Y171.614 E.00722
G1 X160.929 Y171.857 E.00931
G1 X145.342 Y156.27 E.78616
G1 X145.342 Y156.889 E.02208
G1 X160.858 Y172.405 E.78259
G1 X160.858 Y173.024 E.02208
G1 X145.342 Y157.508 E.78259
G1 X145.342 Y158.127 E.02208
G1 X160.858 Y173.643 E.78259
G1 X160.858 Y174.262 E.02208
G1 X145.342 Y158.746 E.78259
G1 X145.342 Y159.365 E.02208
G1 X160.858 Y174.881 E.78259
G1 X160.858 Y175.5 E.02208
M73 P27 R4
M73 P27 R4
G1 X145.342 Y159.984 E.78259
G1 X145.342 Y160.603 E.02208
G1 X160.858 Y176.119 E.78259
G1 X160.858 Y176.738 E.02208
G1 X145.342 Y161.222 E.78259
G1 X145.342 Y161.841 E.02208
G1 X160.858 Y177.357 E.78259
G1 X160.858 Y177.976 E.02208
G1 X145.342 Y162.46 E.78259
G1 X145.342 Y163.079 E.02208
G1 X160.858 Y178.595 E.78259
G1 X160.858 Y179.214 E.02208
G1 X145.342 Y163.698 E.78259
G1 X145.342 Y164.317 E.02208
G1 X160.858 Y179.833 E.78259
G1 X160.858 Y180.452 E.02208
G1 X145.342 Y164.936 E.78259
G1 X145.342 Y165.555 E.02208
G1 X160.858 Y181.071 E.78259
G1 X160.858 Y181.69 E.02208
M73 P28 R4
M73 P28 R4
G1 X145.342 Y166.174 E.78259
G1 X145.342 Y166.793 E.02208
G1 X160.858 Y182.309 E.78259
G1 X160.858 Y182.928 E.02208
G1 X145.342 Y167.412 E.78259
G1 X145.342 Y168.031 E.02208
G1 X160.858 Y183.547 E.78259
G1 X160.858 Y184.166 E.02208
G1 X145.342 Y168.65 E.78259
G1 X145.342 Y169.269 E.02208
G1 X160.858 Y184.785 E.78259
G1 X160.858 Y185.404 E.02208
G1 X145.342 Y169.888 E.78259
G1 X145.342 Y170.507 E.02208
G1 X160.858 Y186.023 E.78259
G1 X160.858 Y186.642 E.02208
G1 X145.342 Y171.125 E.78259
G1 X145.342 Y171.744 E.02208
M73 P29 R4
M73 P29 R4
G1 X160.858 Y187.26 E.78259
G1 X160.858 Y187.879 E.02208
G1 X145.342 Y172.363 E.78259
G1 X145.342 Y172.982 E.02208
G1 X160.858 Y188.498 E.78259
G1 X160.858 Y189.117 E.02208
G1 X145.342 Y173.601 E.78259
G1 X145.342 Y174.22 E.02208
G1 X160.858 Y189.736 E.78259
G1 X160.858 Y190.355 E.02208
G1 X145.342 Y174.839 E.78259
G1 X145.342 Y175.458 E.02208
G1 X160.858 Y190.974 E.78259
G1 X160.858 Y191.593 E.02208
G1 X145.342 Y176.077 E.78259
G1 X145.342 Y176.696 E.02208
G1 X160.858 Y192.212 E.78259
G1 X160.858 Y192.831 E.02208
M73 P30 R4
M73 P30 R4
G1 X145.342 Y177.315 E.78259
G1 X145.342 Y177.934 E.02208
G1 X160.858 Y193.45 E.78259
G1 X160.858 Y194.069 E.02208
G1 X145.342 Y178.553 E.78259
G1 X145.342 Y179.172 E.02208
G1 X160.858 Y194.688 E.78259
G1 X160.858 Y195.307 E.02208
G1 X145.342 Y179.791 E.78259
G1 X145.342 Y180.41 E.02208
G1 X160.858 Y195.926 E.78259
G1 X160.858 Y196.545 E.02208
G1 X145.342 Y181.029 E.78259
G1 X145.342 Y181.648 E.02208
G1 X160.858 Y197.164 E.78259
G1 X160.858 Y197.783 E.02208
G1 X145.342 Y182.267 E.78259
G1 X145.342 Y182.886 E.02208
G1 X160.858 Y198.402 E.78259
G1 X160.858 Y199.021 E.02208
M73 P31 R4
M73 P31 R4
G1 X145.342 Y183.505 E.78259
G1 X145.342 Y184.124 E.02208
G1 X160.858 Y199.64 E.78259
G1 X160.858 Y200.259 E.02208
G1 X145.342 Y184.743 E.78259
G1 X145.342 Y185.362 E.02208
G1 X160.858 Y200.878 E.78259
G1 X160.858 Y201.497 E.02208
G1 X145.342 Y185.981 E.78259
G1 X145.342 Y186.6 E.02208
G1 X160.858 Y202.116 E.78259
G1 X160.858 Y202.735 E.02208
G1 X145.342 Y187.218 E.78259
G1 X145.342 Y187.837 E.02208
G1 X160.858 Y203.353 E.78259
G1 X160.858 Y203.972 E.02208
G1 X145.342 Y188.456 E.78259
G1 X145.342 Y189.075 E.02208
M73 P32 R4
M73 P32 R4
G1 X160.858 Y204.591 E.78259
G1 X160.858 Y205.21 E.02208
G1 X145.342 Y189.694 E.78259
G1 X145.342 Y190.313 E.02208
G1 X160.858 Y205.829 E.78259
G1 X160.858 Y206.448 E.02208
G1 X145.342 Y190.932 E.78259
G1 X145.342 Y191.551 E.02208
G1 X160.858 Y207.067 E.78259
G1 X160.858 Y207.686 E.02208
G1 X145.342 Y192.17 E.78259
G1 X145.342 Y192.789 E.02208
