; HEADER_BLOCK_START
; generated by OrcaSlicer 2.2.0 on 2025-02-27 at 12:23:56
; total layer number: 4
; filament_density: 1.24,1.24,1.24,1.24,1.24
; filament_diameter: 1.75,1.75,1.75,1.75,1.75
; max_z_height: 0.80
; HEADER_BLOCK_END

; THUMBNAIL_BLOCK_START

;
; THUMBNAIL_BLOCK_END

; THUMBNAIL_BLOCK_START

;
; THUMBNAIL_BLOCK_END

; external perimeters extrusion width = 0.40mm
; perimeters extrusion width = 0.44mm
; infill extrusion width = 0.44mm
; solid infill extrusion width = 0.48mm
; top infill extrusion width = 0.38mm
; support material extrusion width = 0.38mm
; first layer extrusion width = 0.48mm

; external perimeters extrusion width = 0.40mm
; perimeters extrusion width = 0.44mm
; infill extrusion width = 0.44mm
; solid infill extrusion width = 0.48mm
; top infill extrusion width = 0.38mm
; support material extrusion width = 0.38mm
; first layer extrusion width = 0.48mm

; EXECUTABLE_BLOCK_START
EXCLUDE_OBJECT_DEFINE NAME=Offset_X_Y_dual_extruder_1_id_0_copy_0 CENTER=185.542,140.159 POLYGON=[[152.442,107.059],[161.242,107.059],[210.642,107.059],[218.642,107.059],[218.642,125.459],[170.842,173.259],[152.442,173.259],[152.442,107.059]]
M73 P0 R6
;TYPE:Custom
TURN_OFF_HEATERS
TURN_OFF_ALL_FILAMENT_SENSORS
BT_DISABLE_ALL_BUFFERS
INITIALIZE_TOOL_USE_COUNT

; Heat the bed first
M140 S50
M190 S50 ; wait for bed temp

CHECK_CORRECT_TOOL_LOADED TOOL=0

STORE_TOOLHEAD_POSITION X=165 Y=140

G0 Z10 F5000    ; Ensure nozzle is at 3mm over the bed

; Drop Off T0 
T_1


SET_PRINT_STATUS_START
G92 E0
_INITIALIZE_ALL_TOOLS
INITIALIZE_TOOL_USE_COUNT

; Set Temperatures for other tools apart from T0
 SET_TOOL_FOR_PRINT T=0 R=100 S=210 
 SET_TOOL_FOR_PRINT T=1 R=100 S=210  




;Pick up the initial extruder

T0 ;initial extruder
ENABLE_BUFFER BUFFER=TN0 ; Enable Buffer for Initial Toolhead
KTCC_INIT_PRINT_STATS
;TEMPADJUSTEXHAUST
;HYPERLAPSE ACTION=START
SET_FILAMENT_SENSOR SENSOR=encoder_t0 ENABLE=0
SET_FILAMENT_SENSOR SENSOR=encoder_t1 ENABLE=0
;END_START
G90
G21
M83 ; use relative distances for extrusion
; TESTING
T0



OFFSET_T0
M117 SET FILAMENT SENSOR ON 
SET_FILAMENT_SENSOR SENSOR=encoder_t0 ENABLE=0
;_FORCE_RESUME_FAN_SPEED
; filament start gcode
M109 S210 T0 ; set nozzle temperature and wait for it to be reached
G1 Z.2 F21000
M106 S0
;LAYER_CHANGE
;Z:0.2
;HEIGHT:0.2
;BEFORE_LAYER_CHANGE
;0.2
G92 E0

OFFSET_T0

M117 LAYER 0.2
;AFTER_LAYER_CHANGE
;0.2
;AFTER_LAYER_CHANGE
;0.2

OFFSET_T0

;_SET_FAN_SPEED_CHANGING_LAYER
SET_VELOCITY_LIMIT ACCEL=500 ACCEL_TO_DECEL=250
G1 E-.8 F1800
G1 Z.6 F21000
G1 X224.5 Y250.5
G1 Z.6
G1 Z.2
G1 E.8 F1800
;HEIGHT:0.2
;TYPE:Prime tower
;WIDTH:0.5
G1  X224.500 Y256.750  E0.2375 F3000
G1  X165.500  E2.2424
G1  Y250.500  E0.2375
M73 P1 R6
M73 P1 R6
G1  X224.500  E2.2424
G1  Y256.750 
G1  X223.500 
;--------------------
; CP EMPTY GRID START
; layer #1
G1  Y256.250  E0.0190
G1  X166.000  E2.1854
G1  Y255.725  E0.0200
G1  X224.000  E2.2044
G1  Y255.200  E0.0200
M73 P2 R6
M73 P2 R6
G1  X166.000  E2.2044
G1  Y254.675  E0.0200
G1  X224.000  E2.2044
G1  Y254.150  E0.0200
G1  X166.000  E2.2044
G1  Y253.625  E0.0200
M73 P3 R6
M73 P3 R6
G1  X224.000  E2.2044
G1  Y253.100  E0.0200
G1  X166.000  E2.2044
G1  Y252.575  E0.0200
G1  X224.000  E2.2044
G1  Y252.050  E0.0200
M73 P4 R6
M73 P4 R6
G1  X166.000  E2.2044
G1  Y251.525  E0.0200
G1  X224.000  E2.2044
G1  Y251.000  E0.0200
G1  X166.000  E2.2044
G1  Y250.500  E0.0190
M73 P5 R6
; CP EMPTY GRID END
;------------------






M73 P5 R6
G1  X165.000 Y250.000  
G1  X225.000  E2.2804
G1  Y257.250  E0.2755
G1  X165.000  E2.2804
G1  Y250.000  E0.2755
G1  X164.543 Y249.543  
G1  X225.457  E2.3151
G1  Y257.707  E0.3103
M73 P6 R6
M73 P6 R6
G1  X164.543  E2.3151
G1  Y249.543  E0.3103
G1  X164.086 Y249.086  
G1  X225.914  E2.3499
G1  Y258.164  E0.3450
G1  X164.086  E2.3499
M73 P7 R6
M73 P7 R6
G1  Y249.086  E0.3450
G1  X163.629 Y248.629  
G1  X226.371  E2.3846
G1  Y258.621  E0.3798
G1  X163.629  E2.3846
G1  Y248.629  E0.3798
M73 P8 R6
M73 P8 R6
G1  X163.172 Y248.172  
G1  X226.828  E2.4194
G1  Y259.078  E0.4145
G1  X163.172  E2.4194
G1  Y248.172  E0.4145
G1  X162.715 Y247.715  
M73 P9 R6
M73 P9 R6
G1  X227.285  E2.4541
G1  Y259.535  E0.4493
G1  X162.715  E2.4541
G1  Y247.715  E0.4493
G1  X162.258 Y247.258  
G1  X227.742  E2.4888
G1  Y259.992  E0.4840
M73 P10 R6
M73 P10 R6
G1  X162.258  E2.4888
G1  Y247.258  E0.4840
G1  X161.800 Y246.800  
G1  X228.200  E2.5236
G1  Y260.450  E0.5188
M73 P11 R5
M73 P11 R5
G1  X161.800  E2.5236
G1  Y246.800  E0.5188

; printing object Offset_X_Y_dual_extruder_1 id:0 copy 0
G1 E-.56 F1800
;WIPE_START
G1 F3600
G1 X161.8 Y247.8 E-.24
;WIPE_END
EXCLUDE_OBJECT_START NAME=Offset_X_Y_dual_extruder_1_id_0_copy_0
G1 Z.6 F21000
G1 X169.753 Y125.286 Z.6
G1 Z.2
G1 E.8 F1800
;Change extrusion role G-code

OFFSET_T0


;TYPE:Inner wall
;WIDTH:0.479999
;HEIGHT:0.2
G1 F3000
G1 X169.728 Y125.438 E.00547
G1 X169.728 Y172.145 E1.66355
G1 X153.556 Y172.145 E.57598
M73 P12 R5
M73 P12 R5
G1 X153.556 Y108.173 E2.27844
G1 X217.528 Y108.173 E2.27844
G1 X217.528 Y124.345 E.57598
G1 X170.821 Y124.345 E1.66355
G1 X170.553 Y124.378 E.0096
M73 P13 R5
M73 P13 R5
G1 X170.236 Y124.514 E.01229
G1 X169.944 Y124.785 E.01418
G1 X169.786 Y125.085 E.01208
G1 X169.759 Y125.247 E.00582
G1 X170.183 Y125.352 F21000
G1 F3000
G1 X170.165 Y125.438 E.00311
G1 X170.165 Y172.582 E1.67911
G1 X153.119 Y172.582 E.60711
G1 X153.119 Y107.736 E2.30958
G1 X217.965 Y107.736 E2.30958
G1 X217.965 Y124.782 E.60711
M73 P14 R5
M73 P14 R5
G1 X170.698 Y124.782 E1.68347
G1 X170.391 Y124.942 E.01233
G1 X170.219 Y125.177 E.01039
G1 X170.191 Y125.313 E.00494
G1 X170.602 Y125.438 F21000
;Change extrusion role G-code

OFFSET_T0


;TYPE:Outer wall
G1 F3000
G1 X170.602 Y173.019 E1.69468
G1 X152.682 Y173.019 E.63825
G1 X152.682 Y107.299 E2.34071
G1 X218.402 Y107.299 E2.34071
M73 P15 R5
M73 P15 R5
G1 X218.402 Y125.219 E.63825
G1 X170.821 Y125.219 E1.69468
G1 X170.666 Y125.283 E.00596
M73 P16 R5
M73 P16 R5
G1 X170.617 Y125.401 E.00453
G1 E-.56 F1800
;WIPE_START
G1 F3000
G1 X170.617 Y126.401 E-.24
;WIPE_END
G1 Z.6 F21000
G1 X216.512 Y108.304 Z.6
G1 Z.2
G1 E.8 F1800
;Change extrusion role G-code

OFFSET_T0


;TYPE:Bottom surface
;WIDTH:0.480592
G1 F6300
G1 X217.2 Y108.993 E.03471
G1 X217.2 Y109.611 E.02208
G1 X216.09 Y108.501 E.05601
G1 X215.471 Y108.501 E.02208
G1 X217.2 Y110.23 E.08722
G1 X217.2 Y110.849 E.02208
G1 X214.852 Y108.501 E.11844
G1 X214.233 Y108.501 E.02208
G1 X217.2 Y111.468 E.14966
G1 X217.2 Y112.087 E.02208
G1 X213.614 Y108.501 E.18088
G1 X212.995 Y108.501 E.02208
G1 X217.2 Y112.706 E.2121
G1 X217.2 Y113.325 E.02208
G1 X212.376 Y108.501 E.24332
G1 X211.757 Y108.501 E.02208
G1 X217.2 Y113.944 E.27454
G1 X217.2 Y114.563 E.02208
G1 X211.138 Y108.501 E.30576
G1 X210.519 Y108.501 E.02208
G1 X217.2 Y115.182 E.33698
G1 X217.2 Y115.801 E.02208
G1 X209.9 Y108.501 E.36819
G1 X209.281 Y108.501 E.02208
G1 X217.2 Y116.42 E.39941
G1 X217.2 Y117.039 E.02208
G1 X208.662 Y108.501 E.43063
G1 X208.043 Y108.501 E.02208
M73 P17 R5
M73 P17 R5
G1 X217.2 Y117.658 E.46185
G1 X217.2 Y118.277 E.02208
G1 X207.424 Y108.501 E.49307
G1 X206.805 Y108.501 E.02208
G1 X217.2 Y118.896 E.52429
G1 X217.2 Y119.515 E.02208
G1 X206.186 Y108.501 E.55551
G1 X205.567 Y108.501 E.02208
G1 X217.2 Y120.134 E.58673
G1 X217.2 Y120.753 E.02208
G1 X204.948 Y108.501 E.61795
G1 X204.329 Y108.501 E.02208
G1 X217.2 Y121.372 E.64916
G1 X217.2 Y121.991 E.02208
G1 X203.71 Y108.501 E.68038
G1 X203.091 Y108.501 E.02208
G1 X217.2 Y122.61 E.7116
G1 X217.2 Y123.229 E.02208
G1 X202.472 Y108.501 E.74282
G1 X201.854 Y108.501 E.02208
G1 X217.2 Y123.848 E.77404
G1 X217.2 Y124.017 E.00605
M73 P18 R5
M73 P18 R5
G1 X216.751 Y124.017 E.01603
G1 X201.235 Y108.501 E.78259
G1 X200.616 Y108.501 E.02208
G1 X216.132 Y124.017 E.78259
G1 X215.513 Y124.017 E.02208
G1 X199.997 Y108.501 E.78259
G1 X199.378 Y108.501 E.02208
G1 X214.894 Y124.017 E.78259
G1 X214.275 Y124.017 E.02208
G1 X198.759 Y108.501 E.78259
G1 X198.14 Y108.501 E.02208
G1 X213.656 Y124.017 E.78259
G1 X213.037 Y124.017 E.02208
G1 X197.521 Y108.501 E.78259
G1 X196.902 Y108.501 E.02208
G1 X212.418 Y124.017 E.78259
G1 X211.799 Y124.017 E.02208
G1 X196.283 Y108.501 E.78259
G1 X195.664 Y108.501 E.02208
M73 P19 R5
M73 P19 R5
G1 X211.18 Y124.017 E.78259
G1 X210.561 Y124.017 E.02208
G1 X195.045 Y108.501 E.78259
G1 X194.426 Y108.501 E.02208
G1 X209.942 Y124.017 E.78259
G1 X209.323 Y124.017 E.02208
G1 X193.807 Y108.501 E.78259
G1 X193.188 Y108.501 E.02208
G1 X208.704 Y124.017 E.78259
G1 X208.085 Y124.017 E.02208
G1 X192.569 Y108.501 E.78259
G1 X191.95 Y108.501 E.02208
G1 X207.466 Y124.017 E.78259
G1 X206.847 Y124.017 E.02208
G1 X191.331 Y108.501 E.78259
G1 X190.712 Y108.501 E.02208
G1 X206.228 Y124.017 E.78259
G1 X205.609 Y124.017 E.02208
G1 X190.093 Y108.501 E.78259
G1 X189.474 Y108.501 E.02208
M73 P20 R5
M73 P20 R5
G1 X204.99 Y124.017 E.78259
G1 X204.371 Y124.017 E.02208
G1 X188.855 Y108.501 E.78259
G1 X188.236 Y108.501 E.02208
G1 X203.752 Y124.017 E.78259
G1 X203.133 Y124.017 E.02208
G1 X187.617 Y108.501 E.78259
G1 X186.998 Y108.501 E.02208
G1 X202.514 Y124.017 E.78259
G1 X201.896 Y124.017 E.02208
G1 X186.379 Y108.501 E.78259
G1 X185.761 Y108.501 E.02208
G1 X201.277 Y124.017 E.78259
G1 X200.658 Y124.017 E.02208
G1 X185.142 Y108.501 E.78259
G1 X184.523 Y108.501 E.02208
G1 X200.039 Y124.017 E.78259
G1 X199.42 Y124.017 E.02208
M73 P21 R5
M73 P21 R5
G1 X183.904 Y108.501 E.78259
G1 X183.285 Y108.501 E.02208
G1 X198.801 Y124.017 E.78259
G1 X198.182 Y124.017 E.02208
G1 X182.666 Y108.501 E.78259
G1 X182.047 Y108.501 E.02208
G1 X197.563 Y124.017 E.78259
G1 X196.944 Y124.017 E.02208
G1 X181.428 Y108.501 E.78259
G1 X180.809 Y108.501 E.02208
G1 X196.325 Y124.017 E.78259
G1 X195.706 Y124.017 E.02208
G1 X180.19 Y108.501 E.78259
G1 X179.571 Y108.501 E.02208
G1 X195.087 Y124.017 E.78259
G1 X194.468 Y124.017 E.02208
G1 X178.952 Y108.501 E.78259
G1 X178.333 Y108.501 E.02208
M73 P22 R5
M73 P22 R5
G1 X193.849 Y124.017 E.78259
G1 X193.23 Y124.017 E.02208
G1 X177.714 Y108.501 E.78259
G1 X177.095 Y108.501 E.02208
G1 X192.611 Y124.017 E.78259
G1 X191.992 Y124.017 E.02208
G1 X176.476 Y108.501 E.78259
G1 X175.857 Y108.501 E.02208
G1 X191.373 Y124.017 E.78259
G1 X190.754 Y124.017 E.02208
G1 X175.238 Y108.501 E.78259
G1 X174.619 Y108.501 E.02208
G1 X190.135 Y124.017 E.78259
G1 X189.516 Y124.017 E.02208
G1 X174 Y108.501 E.78259
G1 X173.381 Y108.501 E.02208
G1 X188.897 Y124.017 E.78259
G1 X188.278 Y124.017 E.02208
G1 X172.762 Y108.501 E.78259
G1 X172.143 Y108.501 E.02208
M73 P23 R5
M73 P23 R5
G1 X187.659 Y124.017 E.78259
G1 X187.04 Y124.017 E.02208
G1 X171.524 Y108.501 E.78259
G1 X170.905 Y108.501 E.02208
G1 X186.421 Y124.017 E.78259
G1 X185.803 Y124.017 E.02208
G1 X170.286 Y108.501 E.78259
G1 X169.668 Y108.501 E.02208
G1 X185.184 Y124.017 E.78259
G1 X184.565 Y124.017 E.02208
G1 X169.049 Y108.501 E.78259
G1 X168.43 Y108.501 E.02208
G1 X183.946 Y124.017 E.78259
G1 X183.327 Y124.017 E.02208
G1 X167.811 Y108.501 E.78259
G1 X167.192 Y108.501 E.02208
G1 X182.708 Y124.017 E.78259
G1 X182.089 Y124.017 E.02208
M73 P24 R5
M73 P24 R5
G1 X166.573 Y108.501 E.78259
G1 X165.954 Y108.501 E.02208
G1 X181.47 Y124.017 E.78259
G1 X180.851 Y124.017 E.02208
G1 X165.335 Y108.501 E.78259
G1 X164.716 Y108.501 E.02208
G1 X180.232 Y124.017 E.78259
G1 X179.613 Y124.017 E.02208
G1 X164.097 Y108.501 E.78259
G1 X163.478 Y108.501 E.02208
G1 X178.994 Y124.017 E.78259
G1 X178.375 Y124.017 E.02208
G1 X162.859 Y108.501 E.78259
G1 X162.24 Y108.501 E.02208
G1 X177.756 Y124.017 E.78259
G1 X177.137 Y124.017 E.02208
G1 X161.621 Y108.501 E.78259
G1 X161.002 Y108.501 E.02208
G1 X176.518 Y124.017 E.78259
G1 X175.899 Y124.017 E.02208
M73 P25 R5
M73 P25 R5
G1 X160.383 Y108.501 E.78259
G1 X159.764 Y108.501 E.02208
G1 X175.28 Y124.017 E.78259
G1 X174.661 Y124.017 E.02208
G1 X159.145 Y108.501 E.78259
G1 X158.526 Y108.501 E.02208
G1 X174.042 Y124.017 E.78259
G1 X173.423 Y124.017 E.02208
G1 X157.907 Y108.501 E.78259
G1 X157.288 Y108.501 E.02208
G1 X172.804 Y124.017 E.78259
G1 X172.185 Y124.017 E.02208
G1 X156.669 Y108.501 E.78259
G1 X156.05 Y108.501 E.02208
M73 P25 R4
M73 P25 R4
G1 X171.566 Y124.017 E.78259
G1 X170.947 Y124.017 E.02208
G1 X155.431 Y108.501 E.78259
G1 X154.812 Y108.501 E.02208
M73 P26 R4
M73 P26 R4
G1 X170.396 Y124.084 E.78598
G1 X170.156 Y124.182 E.00925
G1 X169.983 Y124.291 E.00727
G1 X154.193 Y108.501 E.7964
G1 X153.884 Y108.501 E.01104
G1 X153.884 Y108.811 E.01104
G1 X169.679 Y124.606 E.79666
G1 X169.564 Y124.773 E.00722
G1 X169.471 Y125.016 E.00931
G1 X153.884 Y109.43 E.78616
G1 X153.884 Y110.048 E.02208
G1 X169.4 Y125.565 E.78259
G1 X169.4 Y126.184 E.02208
G1 X153.884 Y110.667 E.78259
G1 X153.884 Y111.286 E.02208
G1 X169.4 Y126.802 E.78259
G1 X169.4 Y127.421 E.02208
G1 X153.884 Y111.905 E.78259
G1 X153.884 Y112.524 E.02208
G1 X169.4 Y128.04 E.78259
G1 X169.4 Y128.659 E.02208
M73 P27 R4
M73 P27 R4
G1 X153.884 Y113.143 E.78259
G1 X153.884 Y113.762 E.02208
G1 X169.4 Y129.278 E.78259
G1 X169.4 Y129.897 E.02208
G1 X153.884 Y114.381 E.78259
G1 X153.884 Y115 E.02208
G1 X169.4 Y130.516 E.78259
G1 X169.4 Y131.135 E.02208
G1 X153.884 Y115.619 E.78259
G1 X153.884 Y116.238 E.02208
G1 X169.4 Y131.754 E.78259
G1 X169.4 Y132.373 E.02208
G1 X153.884 Y116.857 E.78259
G1 X153.884 Y117.476 E.02208
G1 X169.4 Y132.992 E.78259
G1 X169.4 Y133.611 E.02208
G1 X153.884 Y118.095 E.78259
G1 X153.884 Y118.714 E.02208
G1 X169.4 Y134.23 E.78259
G1 X169.4 Y134.849 E.02208
M73 P28 R4
M73 P28 R4
G1 X153.884 Y119.333 E.78259
G1 X153.884 Y119.952 E.02208
G1 X169.4 Y135.468 E.78259
G1 X169.4 Y136.087 E.02208
G1 X153.884 Y120.571 E.78259
G1 X153.884 Y121.19 E.02208
G1 X169.4 Y136.706 E.78259
G1 X169.4 Y137.325 E.02208
G1 X153.884 Y121.809 E.78259
G1 X153.884 Y122.428 E.02208
G1 X169.4 Y137.944 E.78259
G1 X169.4 Y138.563 E.02208
G1 X153.884 Y123.047 E.78259
G1 X153.884 Y123.666 E.02208
G1 X169.4 Y139.182 E.78259
G1 X169.4 Y139.801 E.02208
G1 X153.884 Y124.285 E.78259
G1 X153.884 Y124.904 E.02208
M73 P29 R4
M73 P29 R4
G1 X169.4 Y140.42 E.78259
G1 X169.4 Y141.039 E.02208
G1 X153.884 Y125.523 E.78259
G1 X153.884 Y126.141 E.02208
G1 X169.4 Y141.658 E.78259
G1 X169.4 Y142.277 E.02208
G1 X153.884 Y126.76 E.78259
G1 X153.884 Y127.379 E.02208
G1 X169.4 Y142.895 E.78259
G1 X169.4 Y143.514 E.02208
G1 X153.884 Y127.998 E.78259
G1 X153.884 Y128.617 E.02208
G1 X169.4 Y144.133 E.78259
G1 X169.4 Y144.752 E.02208
G1 X153.884 Y129.236 E.78259
G1 X153.884 Y129.855 E.02208
G1 X169.4 Y145.371 E.78259
G1 X169.4 Y145.99 E.02208
G1 X153.884 Y130.474 E.78259
M73 P30 R4
M73 P30 R4
G1 X153.884 Y131.093 E.02208
G1 X169.4 Y146.609 E.78259
G1 X169.4 Y147.228 E.02208
G1 X153.884 Y131.712 E.78259
G1 X153.884 Y132.331 E.02208
G1 X169.4 Y147.847 E.78259
G1 X169.4 Y148.466 E.02208
G1 X153.884 Y132.95 E.78259
G1 X153.884 Y133.569 E.02208
G1 X169.4 Y149.085 E.78259
G1 X169.4 Y149.704 E.02208
G1 X153.884 Y134.188 E.78259
G1 X153.884 Y134.807 E.02208
G1 X169.4 Y150.323 E.78259
G1 X169.4 Y150.942 E.02208
G1 X153.884 Y135.426 E.78259
G1 X153.884 Y136.045 E.02208
G1 X169.4 Y151.561 E.78259
G1 X169.4 Y152.18 E.02208
M73 P31 R4
M73 P31 R4
G1 X153.884 Y136.664 E.78259
G1 X153.884 Y137.283 E.02208
G1 X169.4 Y152.799 E.78259
G1 X169.4 Y153.418 E.02208
G1 X153.884 Y137.902 E.78259
G1 X153.884 Y138.521 E.02208
G1 X169.4 Y154.037 E.78259
G1 X169.4 Y154.656 E.02208
G1 X153.884 Y139.14 E.78259
G1 X153.884 Y139.759 E.02208
G1 X169.4 Y155.275 E.78259
G1 X169.4 Y155.894 E.02208
G1 X153.884 Y140.378 E.78259
G1 X153.884 Y140.997 E.02208
G1 X169.4 Y156.513 E.78259
G1 X169.4 Y157.132 E.02208
G1 X153.884 Y141.616 E.78259
G1 X153.884 Y142.234 E.02208
M73 P32 R4
M73 P32 R4
G1 X169.4 Y157.751 E.78259
G1 X169.4 Y158.37 E.02208
G1 X153.884 Y142.853 E.78259
G1 X153.884 Y143.472 E.02208
G1 X169.4 Y158.988 E.78259
G1 X169.4 Y159.607 E.02208
G1 X153.884 Y144.091 E.78259
G1 X153.884 Y144.71 E.02208
G1 X169.4 Y160.226 E.78259
G1 X169.4 Y160.845 E.02208
G1 X153.884 Y145.329 E.78259
G1 X153.884 Y145.948 E.02208
G1 X169.4 Y161.464 E.78259
G1 X169.4 Y162.083 E.02208
G1 X153.884 Y146.567 E.78259
G1 X153.884 Y147.186 E.02208
G1 X169.4 Y162.702 E.78259
