; generated by PrusaSlicer 2.9.0 on 2025-02-20 at 21:23:05 UTC


;
;

;
;
; 

; external perimeters extrusion width = 0.40mm
; perimeters extrusion width = 0.40mm
; infill extrusion width = 0.45mm
; solid infill extrusion width = 0.45mm
; top infill extrusion width = 0.40mm
; support material extrusion width = 0.45mm
; first layer extrusion width = 0.55mm

; external perimeters extrusion width = 0.40mm
; perimeters extrusion width = 0.40mm
; infill extrusion width = 0.45mm
; solid infill extrusion width = 0.45mm
; top infill extrusion width = 0.40mm
; support material extrusion width = 0.45mm
; first layer extrusion width = 0.55mm


; printing object Offset_X_Y_dual_extruder_1 id:0 copy 0
; stop printing object Offset_X_Y_dual_extruder_1 id:0 copy 0

;TYPE:Custom
;TURN_ON_ALL_FILAMENT_SENSORS
INITIALIZE_TOOL_USE_COUNT

; Heat the bed first
M140 S50
M190 S50 ; wait for bed temp

M116 P0 S2

SET_PRINT_STATUS_START
G92 E0

M117 setting temperature


_INITIALIZE_ALL_TOOLS
INITIALIZE_TOOL_USE_COUNT

; Set Temperatures for other tools apart from T0
 SET_TOOL_FOR_PRINT T=0 R=150 S=210 
 SET_TOOL_FOR_PRINT T=1 R=150 S=210  





KTCC_INIT_PRINT_STATS
M117 here
G21 ; set units to millimeters
G90 ; use absolute coordinates
M83 ; use relative distances for extrusion
M117 layer change check
T0


 ; set temperature and wait for it to be reached
M107 ; disable fan
;LAYER_CHANGE
;Z:0.2
;HEIGHT:0.2
; printing object Offset_X_Y_dual_extruder_1 id:0 copy 0
G1 E-8 F1500 ; retract
; stop printing object Offset_X_Y_dual_extruder_1 id:0 copy 0
G1 Z1.7 F1800 ; lift
G1 X126.851 Y158.02 F12000 ; move to first layer point
G1 Z.2 F1800 ; move to first layer point
G1 E8 F1500 ;  ; unretract
M204 S500 ; adjust acceleration
;TYPE:Skirt/Brim
;WIDTH:0.55
;HEIGHT:0.2
G1 F1800
G1 X129.092 Y156.949 E.10473 ; skirt
G1 X131.275 Y156.636 E.09298 ; skirt
G1 X171.902 Y156.657 E1.71299 ; skirt
G1 X250.153 Y162.433 E3.30834 ; skirt
G1 X252.569 Y163.01 E.10473 ; skirt
G1 X254.678 Y164.321 E.1047 ; skirt
G1 X256.266 Y166.23 E.1047 ; skirt
G1 X257.169 Y168.544 E.10473 ; skirt
G1 X257.342 Y170.173 E.06907 ; skirt
G1 X257.342 Y188.573 E.77581 ; skirt
G1 X256.945 Y191.025 E.10473 ; skirt
G1 X255.069 Y194.061 E.15048 ; skirt
G1 X207.269 Y241.861 E2.85025 ; skirt
G1 X205.254 Y243.313 E.10472 ; skirt
G1 X201.781 Y244.134 E.15047 ; skirt
G1 X183.381 Y244.134 E.77581 ; skirt
G1 X180.93 Y243.736 E.1047 ; skirt
G1 X178.729 Y242.585 E.10473 ; skirt
G1 X177.727 Y241.689 E.05668 ; skirt
G1 X125.621 Y186.268 E3.20737 ; skirt
G1 X124.231 Y184.21 E.10471 ; skirt
G1 X123.515 Y180.952 E.14065 ; skirt
G1 X123.515 Y164.396 E.69806 ; skirt
G1 X123.912 Y161.945 E.10469 ; skirt
G1 X125.064 Y159.744 E.10475 ; skirt
G1 X126.808 Y158.062 E.10216 ; skirt
M204 S5000 ; adjust acceleration
;WIPE_START
G1 F9600
G1 X126.851 Y158.02 E-.00892 ; wipe and retract
G1 X129.092 Y156.949 E-.36868 ; wipe and retract
G1 X131.275 Y156.636 E-.32735 ; wipe and retract
G1 X171.902 Y156.657 E-6.03057 ; wipe and retract
G1 X180.397 Y157.284 E-1.26448 ; wipe and retract
;WIPE_END
M204 S8000 ; adjust acceleration
G1 X194.269 Y181.06 Z.68 F12000 ; move to first perimeter point
G1 Z.2 F1800 ; move to first perimeter point
G1 E8 F1500 ;  ; unretract
; printing object Offset_X_Y_dual_extruder_1 id:0 copy 0
M204 S500 ; adjust acceleration
;TYPE:Perimeter
;WIDTH:0.420353
G1 F1800
G1 X193.933 Y181.396 E.01491 ; perimeter
G1 X193.933 Y180.725 E.02106 ; perimeter
G1 X194.604 Y180.725 E.02106 ; perimeter
G1 X194.311 Y181.018 E.013 ; perimeter
M204 S5000 ; adjust acceleration
M204 S8000 ; adjust acceleration
G1 X194.311 Y181.018 F12000 ; move to first perimeter point
G1 X194.568 Y181.36 ; move to first perimeter point
M204 S500 ; adjust acceleration
;WIDTH:0.549999
G1 F1800
G1 X194.033 Y181.939 E.03324 ; perimeter
G1 X193.491 Y182.641 E.03739 ; perimeter
G1 X193.491 Y180.282 E.09946 ; perimeter
G1 X195.85 Y180.282 E.09946 ; perimeter
G1 X195.148 Y180.824 E.03739 ; perimeter
G1 X194.612 Y181.319 E.03076 ; perimeter
M204 S5000 ; adjust acceleration
M204 S8000 ; adjust acceleration
G1 X194.612 Y181.319 F12000 ; move to first perimeter point
G1 X194.928 Y181.717 ; move to first perimeter point
M204 S500 ; adjust acceleration
G1 F1800
G1 X194.927 Y181.718 E.00006 ; perimeter
G1 X194.419 Y182.268 E.03157 ; perimeter
G1 X193.943 Y182.875 E.03252 ; perimeter
G1 X193.508 Y183.538 E.03343 ; perimeter
G1 X192.984 Y184.572 E.04888 ; perimeter
G1 X192.984 Y179.775 E.20226 ; perimeter
G1 X197.78 Y179.775 E.20222 ; perimeter
G1 X197.46 Y179.914 E.01471 ; perimeter
G1 X196.746 Y180.3 E.03422 ; perimeter
G1 X196.084 Y180.735 E.0334 ; perimeter
G1 X195.477 Y181.21 E.0325 ; perimeter
G1 X194.972 Y181.676 E.02897 ; perimeter
M204 S5000 ; adjust acceleration
M204 S8000 ; adjust acceleration
G1 X194.972 Y181.676 F12000 ; move to first perimeter point
G1 X195.29 Y182.072 ; move to first perimeter point
M204 S500 ; adjust acceleration
G1 F1800
G1 X195.285 Y182.077 E.0003 ; perimeter
G1 X194.805 Y182.597 E.02984 ; perimeter
G1 X194.355 Y183.171 E.03075 ; perimeter
G1 X193.944 Y183.798 E.03161 ; perimeter
G1 X193.579 Y184.473 E.03236 ; perimeter
G1 X193.268 Y185.191 E.03299 ; perimeter
G1 X193.018 Y185.947 E.03357 ; perimeter
G1 X192.939 Y186.386 E.01881 ; perimeter
;WIDTH:0.509573
G1 X192.859 Y186.825 E.01731 ; perimeter
;WIDTH:0.469147
G1 X192.788 Y187.542 E.02554 ; perimeter
;WIDTH:0.420135
G1 X192.761 Y188.351 E.02539 ; perimeter
;WIDTH:0.401117
G1 X192.761 Y227.352 E1.16161 ; perimeter
G1 X192.402 Y227.352 E.01069 ; perimeter
G1 X192.402 Y188.351 E1.16161 ; perimeter
;WIDTH:0.420135
G1 X192.412 Y187.525 E.02591 ; perimeter
;WIDTH:0.453754
G1 X192.429 Y187.112 E.01412 ; perimeter
;WIDTH:0.487373
G1 X192.445 Y186.699 E.01527 ; perimeter
;WIDTH:0.518686
G1 X192.461 Y186.285 E.01639 ; perimeter
;WIDTH:0.549999
G1 X192.477 Y185.872 E.01743 ; perimeter
G1 X192.477 Y179.268 E.27845 ; perimeter
G1 X199.081 Y179.268 E.27845 ; perimeter
G1 X199.539 Y179.248 E.01933 ; perimeter
;WIDTH:0.509573
G1 X199.997 Y179.228 E.01779 ; perimeter
;WIDTH:0.469146
G1 X200.734 Y179.203 E.02613 ; perimeter
;WIDTH:0.420134
G1 X201.56 Y179.194 E.02591 ; perimeter
;WIDTH:0.401116
G1 X240.561 Y179.194 E1.16161 ; perimeter
G1 X240.561 Y179.373 E.00533 ; perimeter
G1 X240.561 Y179.552 E.00533 ; perimeter
G1 X201.56 Y179.552 E1.16161 ; perimeter
;WIDTH:0.420134
G1 X200.751 Y179.58 E.02539 ; perimeter
;WIDTH:0.453753
G1 X200.348 Y179.619 E.01383 ; perimeter
;WIDTH:0.487372
G1 X199.946 Y179.657 E.01492 ; perimeter
;WIDTH:0.518686
G1 X199.551 Y179.734 E.01592 ; perimeter
;WIDTH:0.549999
G1 X199.155 Y179.81 E.017 ; perimeter
G1 X198.4 Y180.059 E.03352 ; perimeter
G1 X197.681 Y180.37 E.03303 ; perimeter
G1 X197.006 Y180.735 E.03236 ; perimeter
G1 X196.38 Y181.146 E.03157 ; perimeter
G1 X195.806 Y181.596 E.03075 ; perimeter
G1 X195.334 Y182.032 E.02709 ; perimeter
M204 S5000 ; adjust acceleration
M204 S8000 ; adjust acceleration
G1 X195.334 Y182.032 F12000 ; move to first perimeter point
G1 X195.646 Y182.433 ; move to first perimeter point
M204 S500 ; adjust acceleration
G1 F1800
G1 X195.644 Y182.435 E.00012 ; perimeter
G1 X195.191 Y182.926 E.02817 ; perimeter
G1 X194.767 Y183.467 E.02898 ; perimeter
G1 X194.379 Y184.058 E.02981 ; perimeter
G1 X194.035 Y184.694 E.03049 ; perimeter
G1 X193.742 Y185.372 E.03114 ; perimeter
G1 X193.506 Y186.084 E.03163 ; perimeter
G1 X193.319 Y186.906 E.03554 ; perimeter
G1 X193.229 Y187.583 E.0288 ; perimeter
G1 X193.193 Y188.351 E.03242 ; perimeter
G1 X193.193 Y227.785 E1.66269 ; perimeter
G1 X191.97 Y227.785 E.05157 ; perimeter
G1 X191.97 Y178.761 E2.06704 ; perimeter
G1 X240.993 Y178.761 E2.067 ; perimeter
G1 X240.993 Y179.373 E.0258 ; perimeter
G1 X240.993 Y179.985 E.0258 ; perimeter
G1 X201.56 Y179.985 E1.66264 ; perimeter
G1 X200.791 Y180.02 E.03246 ; perimeter
G1 X200.033 Y180.125 E.03227 ; perimeter
G1 X199.293 Y180.298 E.03204 ; perimeter
G1 X198.58 Y180.533 E.03165 ; perimeter
G1 X197.903 Y180.826 E.0311 ; perimeter
G1 X197.267 Y181.17 E.03049 ; perimeter
G1 X196.676 Y181.558 E.02981 ; perimeter
G1 X196.134 Y181.982 E.02901 ; perimeter
G1 X195.691 Y182.392 E.02545 ; perimeter
M204 S5000 ; adjust acceleration
M204 S8000 ; adjust acceleration
G1 X195.691 Y182.392 F12000 ; move to first perimeter point
G1 X196.005 Y182.791 ; move to first perimeter point
M204 S500 ; adjust acceleration
G1 F1800
G1 X196.002 Y182.794 E.00018 ; perimeter
G1 X195.577 Y183.255 E.02644 ; perimeter
G1 X195.178 Y183.763 E.02724 ; perimeter
G1 X194.814 Y184.318 E.02798 ; perimeter
G1 X194.491 Y184.916 E.02866 ; perimeter
G1 X194.216 Y185.552 E.02922 ; perimeter
G1 X193.994 Y186.222 E.02976 ; perimeter
G1 X193.818 Y186.993 E.03334 ; perimeter
G1 X193.734 Y187.63 E.02709 ; perimeter
G1 X193.7 Y188.351 E.03043 ; perimeter
G1 X193.7 Y228.292 E1.68406 ; perimeter
G1 X191.463 Y228.292 E.09432 ; perimeter
G1 X191.463 Y178.254 E2.10979 ; perimeter
G1 X241.5 Y178.254 E2.10975 ; perimeter
G1 X241.5 Y179.373 E.04718 ; perimeter
G1 X241.5 Y180.492 E.04718 ; perimeter
G1 X201.56 Y180.492 E1.68402 ; perimeter
G1 X200.838 Y180.525 E.03047 ; perimeter
G1 X200.125 Y180.624 E.03035 ; perimeter
G1 X199.43 Y180.786 E.03009 ; perimeter
G1 X198.761 Y181.007 E.02971 ; perimeter
G1 X198.125 Y181.282 E.02922 ; perimeter
G1 X197.527 Y181.606 E.02868 ; perimeter
G1 X196.972 Y181.97 E.02798 ; perimeter
G1 X196.463 Y182.368 E.02724 ; perimeter
G1 X196.049 Y182.751 E.02378 ; perimeter
M204 S5000 ; adjust acceleration
M204 S8000 ; adjust acceleration
G1 X196.049 Y182.751 F12000 ; move to first perimeter point
G1 X196.364 Y183.15 ; move to first perimeter point
M204 S500 ; adjust acceleration
G1 F1800
G1 X196.361 Y183.152 E.00015 ; perimeter
G1 X195.963 Y183.584 E.02477 ; perimeter
G1 X195.59 Y184.059 E.02546 ; perimeter
G1 X195.249 Y184.578 E.02618 ; perimeter
G1 X194.947 Y185.138 E.02683 ; perimeter
G1 X194.689 Y185.733 E.02734 ; perimeter
G1 X194.482 Y186.359 E.0278 ; perimeter
G1 X194.318 Y187.081 E.03122 ; perimeter
G1 X194.238 Y187.676 E.02531 ; perimeter
G1 X194.207 Y188.351 E.02849 ; perimeter
G1 X194.207 Y228.799 E1.70544 ; perimeter
G1 X190.956 Y228.799 E.13707 ; perimeter
G1 X190.956 Y177.747 E2.15255 ; perimeter
G1 X242.007 Y177.747 E2.1525 ; perimeter
G1 X242.007 Y179.373 E.06856 ; perimeter
G1 X242.007 Y180.999 E.06856 ; perimeter
G1 X201.56 Y180.999 E1.7054 ; perimeter
G1 X200.885 Y181.03 E.02849 ; perimeter
G1 X200.218 Y181.122 E.02839 ; perimeter
G1 X199.568 Y181.274 E.02815 ; perimeter
G1 X198.942 Y181.481 E.0278 ; perimeter
G1 X198.346 Y181.738 E.02737 ; perimeter
G1 X197.787 Y182.041 E.02681 ; perimeter
G1 X197.268 Y182.382 E.02618 ; perimeter
G1 X196.792 Y182.754 E.02547 ; perimeter
G1 X196.408 Y183.109 E.02205 ; perimeter
M204 S5000 ; adjust acceleration
M204 S8000 ; adjust acceleration
G1 X196.408 Y183.109 F12000 ; move to first perimeter point
G1 X196.722 Y183.508 ; move to first perimeter point
M204 S500 ; adjust acceleration
G1 F1800
G1 X196.719 Y183.511 E.00018 ; perimeter
G1 X196.349 Y183.912 E.02301 ; perimeter
G1 X196.002 Y184.355 E.02373 ; perimeter
G1 X195.684 Y184.839 E.02442 ; perimeter
G1 X195.403 Y185.359 E.02492 ; perimeter
G1 X195.163 Y185.914 E.0255 ; perimeter
G1 X194.971 Y186.496 E.02584 ; perimeter
G1 X194.817 Y187.169 E.02911 ; perimeter
G1 X194.743 Y187.723 E.02357 ; perimeter
G1 X194.714 Y188.351 E.02651 ; perimeter
G1 X194.714 Y229.306 E1.72682 ; perimeter
G1 X190.448 Y229.306 E.17987 ; perimeter
G1 X190.448 Y177.24 E2.1953 ; perimeter
G1 X242.514 Y177.24 E2.1953 ; perimeter
G1 X242.514 Y179.373 E.08994 ; perimeter
G1 X242.514 Y181.506 E.08994 ; perimeter
G1 X201.56 Y181.506 E1.72678 ; perimeter
G1 X200.931 Y181.535 E.02655 ; perimeter
G1 X200.31 Y181.621 E.02643 ; perimeter
G1 X199.705 Y181.762 E.02619 ; perimeter
G1 X199.122 Y181.955 E.02589 ; perimeter
G1 X198.568 Y182.194 E.02544 ; perimeter
G1 X198.047 Y182.476 E.02498 ; perimeter
G1 X197.564 Y182.793 E.02436 ; perimeter
G1 X197.121 Y183.14 E.02373 ; perimeter
G1 X196.766 Y183.468 E.02038 ; perimeter
M204 S5000 ; adjust acceleration
M204 S8000 ; adjust acceleration
G1 X196.766 Y183.468 F12000 ; move to first perimeter point
G1 X197.081 Y183.867 ; move to first perimeter point
M204 S500 ; adjust acceleration
G1 F1800
G1 X197.078 Y183.869 E.00015 ; perimeter
G1 X196.735 Y184.241 E.02133 ; perimeter
G1 X196.414 Y184.651 E.02196 ; perimeter
G1 X196.12 Y185.099 E.02259 ; perimeter
G1 X195.859 Y185.581 E.02311 ; perimeter
G1 X195.637 Y186.094 E.02357 ; perimeter
G1 X195.459 Y186.634 E.02397 ; perimeter
G1 X195.317 Y187.256 E.0269 ; perimeter
G1 X195.248 Y187.769 E.02182 ; perimeter
G1 X195.222 Y188.351 E.02456 ; perimeter
G1 X195.222 Y229.813 E1.7482 ; perimeter
G1 X189.941 Y229.813 E.22267 ; perimeter
G1 X189.941 Y176.733 E2.23805 ; perimeter
G1 X243.022 Y176.733 E2.2381 ; perimeter
G1 X243.022 Y179.373 E.11131 ; perimeter
G1 X243.022 Y182.013 E.11131 ; perimeter
G1 X201.56 Y182.013 E1.7482 ; perimeter
G1 X200.978 Y182.04 E.02457 ; perimeter
G1 X200.403 Y182.12 E.02448 ; perimeter
G1 X199.842 Y182.25 E.02428 ; perimeter
G1 X199.303 Y182.429 E.02395 ; perimeter
G1 X198.79 Y182.651 E.02357 ; perimeter
G1 X198.307 Y182.911 E.02313 ; perimeter
G1 X197.86 Y183.205 E.02256 ; perimeter
G1 X197.45 Y183.526 E.02196 ; perimeter
G1 X197.125 Y183.826 E.01865 ; perimeter
M204 S5000 ; adjust acceleration
M204 S8000 ; adjust acceleration
G1 X197.125 Y183.826 F12000 ; move to first perimeter point
G1 X197.45 Y184.241 ; move to first perimeter point
M204 S500 ; adjust acceleration
G1 F1800
G1 X197.121 Y184.57 E.01962 ; perimeter
G1 X196.555 Y185.359 E.04094 ; perimeter
G1 X196.315 Y185.803 E.02128 ; perimeter
G1 X196.111 Y186.275 E.02168 ; perimeter
G1 X195.947 Y186.771 E.02203 ; perimeter
G1 X195.827 Y187.287 E.02234 ; perimeter
G1 X195.753 Y187.816 E.02252 ; perimeter
G1 X195.729 Y188.351 E.02258 ; perimeter
G1 X195.729 Y230.32 E1.76957 ; perimeter
G1 X189.434 Y230.32 E.26542 ; perimeter
G1 X189.434 Y176.226 E2.28081 ; perimeter
G1 X243.529 Y176.226 E2.28085 ; perimeter
G1 X243.529 Y179.373 E.13269 ; perimeter
G1 X243.529 Y182.52 E.13269 ; perimeter
G1 X201.56 Y182.52 E1.76957 ; perimeter
G1 X201.024 Y182.545 E.02262 ; perimeter
G1 X200.495 Y182.618 E.02252 ; perimeter
G1 X199.98 Y182.738 E.0223 ; perimeter
G1 X199.483 Y182.902 E.02207 ; perimeter
G1 X199.011 Y183.107 E.0217 ; perimeter
G1 X198.568 Y183.346 E.02122 ; perimeter
G1 X197.779 Y183.912 E.04094 ; perimeter
G1 X197.492 Y184.199 E.01711 ; perimeter
M204 S5000 ; adjust acceleration
M204 S8000 ; adjust acceleration
G1 X197.492 Y184.199 F12000 ; move to first perimeter point
G1 X197.801 Y184.582 ; move to first perimeter point
M204 S500 ; adjust acceleration
G1 F1800
G1 X197.795 Y184.587 E.00033 ; perimeter
G1 X197.237 Y185.243 E.03631 ; perimeter
G1 X196.771 Y186.024 E.03835 ; perimeter
G1 X196.435 Y186.909 E.03991 ; perimeter
G1 X196.316 Y187.432 E.02262 ; perimeter
G1 X196.236 Y188.351 E.0389 ; perimeter
G1 X196.236 Y230.827 E1.79095 ; perimeter
G1 X188.927 Y230.827 E.30818 ; perimeter
G1 X188.927 Y175.719 E2.32356 ; perimeter
G1 X244.036 Y175.719 E2.3236 ; perimeter
G1 X244.036 Y179.373 E.15407 ; perimeter
G1 X244.036 Y183.027 E.15407 ; perimeter
G1 X201.56 Y183.027 E1.79095 ; perimeter
G1 X200.64 Y183.107 E.03894 ; perimeter
G1 X200.117 Y183.226 E.02262 ; perimeter
G1 X199.233 Y183.563 E.03989 ; perimeter
G1 X198.452 Y184.028 E.03832 ; perimeter
G1 X197.847 Y184.543 E.0335 ; perimeter
M204 S5000 ; adjust acceleration
M204 S8000 ; adjust acceleration
G1 X197.847 Y184.543 F12000 ; move to first perimeter point
G1 X198.165 Y184.956 ; move to first perimeter point
M204 S500 ; adjust acceleration
G1 F1800
G1 X197.893 Y185.228 E.01622 ; perimeter
G1 X197.425 Y185.879 E.03381 ; perimeter
G1 X197.059 Y186.636 E.03545 ; perimeter
G1 X196.815 Y187.519 E.03863 ; perimeter
G1 X196.743 Y188.351 E.03521 ; perimeter
G1 X196.743 Y231.334 E1.81233 ; perimeter
G1 X188.42 Y231.334 E.35093 ; perimeter
G1 X188.42 Y175.212 E2.36632 ; perimeter
G1 X244.543 Y175.212 E2.36636 ; perimeter
G1 X244.543 Y179.373 E.17544 ; perimeter
