; generated by PrusaSlicer 2.9.0 on 2025-02-20 at 21:54:10 UTC


;
;

;
;
; 

; external perimeters extrusion width = 0.68mm
; perimeters extrusion width = 0.68mm
; infill extrusion width = 0.68mm
; solid infill extrusion width = 0.68mm
; top infill extrusion width = 0.55mm
; support material extrusion width = 0.68mm
; first layer extrusion width = 0.68mm

; external perimeters extrusion width = 0.68mm
; perimeters extrusion width = 0.68mm
; infill extrusion width = 0.68mm
; solid infill extrusion width = 0.68mm
; top infill extrusion width = 0.55mm
; support material extrusion width = 0.68mm
; first layer extrusion width = 0.68mm


; printing object Offset_X_Y_dual_extruder_1 id:0 copy 0
; stop printing object Offset_X_Y_dual_extruder_1 id:0 copy 0

 ; set temperature
 ; set temperature
 ; set temperature
;TYPE:Custom
RESET_TOOLCHANGER
TURN_OFF_HEATERS
TURN_OFF_ALL_FILAMENT_SENSORS
INITIALIZE_TOOL_USE_COUNT

; Heat the bed first
M140 S80
M190 S80 ; wait for bed temp


CHECK_CORRECT_TOOL_LOADED TOOL=0

; Set Initial Temperature for T0 (Probing Tool) and wait for temperature to be reached
M568 P0 R175 S230 A0
M568 P0 A2
M116 P0 S2
;M104 T0 S230
;M109 T0 S230

; Retract 15mm to clear nozzle for accurate z probing
G1 E-15 F200

; Home and Z Tilt Adjust
G32

STORE_TOOLHEAD_POSITION X=165 Y=140

G0 Z10 F5000	; Ensure nozzle is at 3mm over the bed
G1 E12 F200

; Drop Off T0 
T_1
;CYCLE_ALL_TOOLS FINAL_TOOL=0


SET_PRINT_STATUS_START
G92 E0
;TURN_ON_ALL_FILAMENT_SENSORS
;G92 E0
_INITIALIZE_ALL_TOOLS
INITIALIZE_TOOL_USE_COUNT

       
  

; Set Temperatures for other tools apart from T0
 SET_TOOL_FOR_PRINT T=0 R=175 S=230 
 SET_TOOL_FOR_PRINT T=1 R=190 S=215  





HYPERLAPSE ACTION=STOP

;Pick up the initial extruder
T0 ;initial extruder
BEDMESHLOAD
KTCC_INIT_PRINT_STATS
 ; set temperature and wait for it to be reached
 ; set temperature and wait for it to be reached
 ; set temperature and wait for it to be reached
G21 ; set units to millimeters
G90 ; use absolute coordinates
M83 ; use relative distances for extrusion
SET_TOOLCHANGE_IN_PROGRESS_ON
M568 P0 A2 ;Heat Next Extruder
T0
G90
G1 Z0 F5000
TIMELAPSE_TAKE_FRAME
SET_TOOLCHANGE_IN_PROGRESS_OFF
 ; set temperature and wait for it to be reached
M107 ; disable fan
;LAYER_CHANGE
;Z:0.32
;HEIGHT:0.32
; printing object Offset_X_Y_dual_extruder_1 id:0 copy 0
G1 E-.7 F2100 ; retract
; stop printing object Offset_X_Y_dual_extruder_1 id:0 copy 0
G1 Z.92 F1800 ; lift
G1 X120.533 Y102.195 F24000 ; move to first layer point
G1 Z.32 F1800 ; move to first layer point
G1 E.7 F1500 ;  ; unretract
M204 S1500 ; adjust acceleration
;TYPE:Skirt/Brim
;WIDTH:0.68
G1 F2700
G1 X122.325 Y100.439 E.20406 ; skirt
G1 X124.576 Y99.332 E.20402 ; skirt
G1 X126.9 Y98.983 E.19113 ; skirt
G1 X193.1 Y98.983 E5.38413 ; skirt
G1 X195.577 Y99.38 E.20403 ; skirt
G1 X197.805 Y100.533 E.20403 ; skirt
G1 X199.561 Y102.325 E.20406 ; skirt
G1 X200.668 Y104.576 E.20402 ; skirt
G1 X201.017 Y106.9 E.19113 ; skirt
G1 X201.017 Y125.3 E1.4965 ; skirt
G1 X200.62 Y127.777 E.20403 ; skirt
G1 X198.698 Y130.898 E.29811 ; skirt
G1 X150.898 Y178.698 E5.49795 ; skirt
G1 X148.866 Y180.169 E.20402 ; skirt
G1 X145.3 Y181.017 E.29812 ; skirt
G1 X126.9 Y181.017 E1.4965 ; skirt
G1 X124.423 Y180.62 E.20403 ; skirt
G1 X122.195 Y179.467 E.20403 ; skirt
G1 X120.439 Y177.675 E.20406 ; skirt
G1 X119.332 Y175.424 E.20402 ; skirt
G1 X118.983 Y173.1 E.19113 ; skirt
G1 X118.983 Y106.9 E5.38413 ; skirt
G1 X119.38 Y104.423 E.20403 ; skirt
G1 X120.492 Y102.275 E.19672 ; skirt
M204 S5000 ; adjust acceleration
M204 S8000 ; adjust acceleration
G1 X120.492 Y102.275 F24000 ; move to first skirt point
G1 X121.048 Y102.576 ; move to first skirt point
M204 S1500 ; adjust acceleration
G1 F2700
G1 X121.14 Y102.406 E.01572 ; skirt
G1 X122.915 Y100.777 E.19594 ; skirt
G1 X125.124 Y99.814 E.19599 ; skirt
G1 X126.9 Y99.594 E.14555 ; skirt
G1 X193.1 Y99.594 E5.38413 ; skirt
G1 X195.476 Y99.992 E.19594 ; skirt
G1 X197.594 Y101.14 E.19594 ; skirt
G1 X199.223 Y102.915 E.19594 ; skirt
G1 X200.186 Y105.124 E.19599 ; skirt
G1 X200.406 Y106.9 E.14555 ; skirt
G1 X200.406 Y125.3 E1.4965 ; skirt
G1 X200.008 Y127.676 E.19594 ; skirt
G1 X198.266 Y130.466 E.26751 ; skirt
G1 X150.466 Y178.266 E5.49795 ; skirt
G1 X148.505 Y179.665 E.19592 ; skirt
G1 X145.3 Y180.406 E.26754 ; skirt
G1 X126.9 Y180.406 E1.4965 ; skirt
G1 X124.524 Y180.008 E.19594 ; skirt
G1 X122.406 Y178.86 E.19594 ; skirt
G1 X120.777 Y177.085 E.19594 ; skirt
G1 X119.814 Y174.876 E.19599 ; skirt
G1 X119.594 Y173.1 E.14555 ; skirt
G1 X119.594 Y106.9 E5.38413 ; skirt
G1 X119.992 Y104.524 E.19594 ; skirt
G1 X121.005 Y102.655 E.1729 ; skirt
M204 S5000 ; adjust acceleration
;WIPE_START
G1 F19200
G1 X121.048 Y102.576 E-.00935 ; wipe and retract
G1 X121.14 Y102.406 E-.02008 ; wipe and retract
G1 X122.915 Y100.777 E-.25033 ; wipe and retract
G1 X125.124 Y99.814 E-.25039 ; wipe and retract
G1 X126.746 Y99.613 E-.16985 ; wipe and retract
;WIPE_END
M204 S8000 ; adjust acceleration
G1 X144.432 Y124.417 Z.852 F24000 ; move to first perimeter point
G1 Z.32 F1800 ; move to first perimeter point
G1 E.7 F1500 ;  ; unretract
; printing object Offset_X_Y_dual_extruder_1 id:0 copy 0
M204 S1500 ; adjust acceleration
;TYPE:Perimeter
;WIDTH:0.68
G1 F2700
G2 X144.149 Y125.066 I.659 J.674 E.05903 ; perimeter
G1 X144.149 Y171.949 E3.81305 ; perimeter
G1 X128.051 Y171.949 E1.30927 ; perimeter
G1 X128.051 Y108.051 E5.19691 ; perimeter
G1 X191.949 Y108.051 E5.19691 ; perimeter
G1 X191.949 Y116.1 E.65464 ; perimeter
G1 X191.949 Y124.149 E.65464 ; perimeter
G1 X145.066 Y124.149 E3.81305 ; perimeter
G2 X144.499 Y124.357 I.025 J.942 E.05 ; perimeter
M204 S5000 ; adjust acceleration
M204 S8000 ; adjust acceleration
G1 X144.499 Y124.357 F24000 ; move to first perimeter point
G1 X144.875 Y124.843 ; move to first perimeter point
M204 S1500 ; adjust acceleration
;TYPE:External perimeter
G1 F2700
G2 X144.76 Y125.066 I.224 J.256 E.0209 ; perimeter
G1 X144.76 Y172.56 E3.86275 ; perimeter
G1 X127.44 Y172.56 E1.40866 ; perimeter
G1 X127.44 Y107.44 E5.29629 ; perimeter
G1 X192.56 Y107.44 E5.29629 ; perimeter
G1 X192.56 Y116.1 E.70433 ; perimeter
G1 X192.56 Y124.76 E.70433 ; perimeter
G1 X145.066 Y124.76 E3.86275 ; perimeter
G2 X144.949 Y124.793 I.033 J.339 E.00994 ; perimeter
M204 S5000 ; adjust acceleration
;WIPE_START
G1 F19200
G1 X144.875 Y124.843 E-.00928 ; wipe and retract
G2 X144.76 Y125.066 I.224 J.256 E-.0267 ; wipe and retract
G1 X144.76 Y131.457 E-.66402 ; wipe and retract
;WIPE_END
M204 S8000 ; adjust acceleration
G1 X175.421 Y115.918 Z.92 F24000 ; move to first infill point
G1 X190.461 Y108.296 ; move to first infill point
G1 Z.32 F1800 ; move to first infill point
G1 E.7 F1500 ;  ; unretract
M204 S1500 ; adjust acceleration
;TYPE:Solid infill
;WIDTH:0.683462
G1 F2700
G1 X191.429 Y109.264 E.11197 ; infill
G1 X191.429 Y110.133 E.07108 ; infill
G1 X189.867 Y108.571 E.18068 ; infill
G1 X188.997 Y108.571 E.07116 ; infill
G1 X191.429 Y111.003 E.28131 ; infill
G1 X191.429 Y111.872 E.07108 ; infill
G1 X188.128 Y108.571 E.38183 ; infill
G1 X187.258 Y108.571 E.07116 ; infill
G1 X191.429 Y112.742 E.48246 ; infill
G1 X191.429 Y113.611 E.07108 ; infill
G1 X186.389 Y108.571 E.58298 ; infill
G1 X185.519 Y108.571 E.07116 ; infill
G1 X191.429 Y114.481 E.68362 ; infill
G1 X191.429 Y115.35 E.07108 ; infill
G1 X184.65 Y108.571 E.78413 ; infill
G1 X183.781 Y108.571 E.07108 ; infill
G1 X191.429 Y116.219 E.88465 ; infill
G1 X191.429 Y117.089 E.07116 ; infill
G1 X182.911 Y108.571 E.98529 ; infill
G1 X182.042 Y108.571 E.07108 ; infill
G1 X191.429 Y117.958 E1.08581 ; infill
G1 X191.429 Y118.828 E.07116 ; infill
G1 X181.172 Y108.571 E1.18644 ; infill
G1 X180.303 Y108.571 E.07108 ; infill
G1 X191.429 Y119.697 E1.28696 ; infill
G1 X191.429 Y120.567 E.07116 ; infill
G1 X179.433 Y108.571 E1.38759 ; infill
G1 X178.564 Y108.571 E.07108 ; infill
G1 X191.429 Y121.436 E1.48811 ; infill
G1 X191.429 Y122.306 E.07116 ; infill
G1 X177.694 Y108.571 E1.58874 ; infill
G1 X176.825 Y108.571 E.07108 ; infill
G1 X191.429 Y123.175 E1.68926 ; infill
G1 X191.429 Y123.629 E.03713 ; infill
G1 X191.014 Y123.629 E.03394 ; infill
G1 X175.956 Y108.571 E1.74178 ; infill
G1 X175.086 Y108.571 E.07116 ; infill
G1 X190.144 Y123.629 E1.74178 ; infill
G1 X189.275 Y123.629 E.07108 ; infill
G1 X174.217 Y108.571 E1.74178 ; infill
G1 X173.347 Y108.571 E.07116 ; infill
G1 X188.405 Y123.629 E1.74178 ; infill
G1 X187.536 Y123.629 E.07108 ; infill
G1 X172.478 Y108.571 E1.74178 ; infill
G1 X171.608 Y108.571 E.07116 ; infill
G1 X186.666 Y123.629 E1.74178 ; infill
G1 X185.797 Y123.629 E.07108 ; infill
G1 X170.739 Y108.571 E1.74178 ; infill
G1 X169.87 Y108.571 E.07108 ; infill
G1 X184.928 Y123.629 E1.74178 ; infill
G1 X184.058 Y123.629 E.07116 ; infill
G1 X169 Y108.571 E1.74178 ; infill
G1 X168.131 Y108.571 E.07108 ; infill
G1 X183.189 Y123.629 E1.74178 ; infill
G1 X182.319 Y123.629 E.07116 ; infill
G1 X167.261 Y108.571 E1.74178 ; infill
G1 X166.392 Y108.571 E.07108 ; infill
G1 X181.45 Y123.629 E1.74178 ; infill
G1 X180.58 Y123.629 E.07116 ; infill
G1 X165.522 Y108.571 E1.74178 ; infill
G1 X164.653 Y108.571 E.07108 ; infill
G1 X179.711 Y123.629 E1.74178 ; infill
G1 X178.842 Y123.629 E.07108 ; infill
G1 X163.783 Y108.571 E1.74183 ; infill
G1 X162.914 Y108.571 E.07108 ; infill
G1 X177.972 Y123.629 E1.74178 ; infill
G1 X177.103 Y123.629 E.07108 ; infill
G1 X162.045 Y108.571 E1.74178 ; infill
G1 X161.175 Y108.571 E.07116 ; infill
G1 X176.233 Y123.629 E1.74178 ; infill
G1 X175.364 Y123.629 E.07108 ; infill
G1 X160.306 Y108.571 E1.74178 ; infill
G1 X159.436 Y108.571 E.07116 ; infill
G1 X174.494 Y123.629 E1.74178 ; infill
G1 X173.625 Y123.629 E.07108 ; infill
G1 X158.567 Y108.571 E1.74178 ; infill
G1 X157.697 Y108.571 E.07116 ; infill
G1 X172.755 Y123.629 E1.74178 ; infill
G1 X171.886 Y123.629 E.07108 ; infill
G1 X156.828 Y108.571 E1.74178 ; infill
G1 X155.958 Y108.571 E.07116 ; infill
G1 X171.017 Y123.629 E1.74183 ; infill
G1 X170.147 Y123.629 E.07116 ; infill
G1 X155.089 Y108.571 E1.74178 ; infill
G1 X154.22 Y108.571 E.07108 ; infill
G1 X169.278 Y123.629 E1.74178 ; infill
G1 X168.408 Y123.629 E.07116 ; infill
G1 X153.35 Y108.571 E1.74178 ; infill
G1 X152.481 Y108.571 E.07108 ; infill
G1 X167.539 Y123.629 E1.74178 ; infill
G1 X166.669 Y123.629 E.07116 ; infill
G1 X151.611 Y108.571 E1.74178 ; infill
G1 X150.742 Y108.571 E.07108 ; infill
G1 X165.8 Y123.629 E1.74178 ; infill
G1 X164.93 Y123.629 E.07116 ; infill
G1 X149.872 Y108.571 E1.74178 ; infill
G1 X149.003 Y108.571 E.07108 ; infill
G1 X164.061 Y123.629 E1.74178 ; infill
G1 X163.192 Y123.629 E.07108 ; infill
G1 X148.133 Y108.571 E1.74183 ; infill
G1 X147.264 Y108.571 E.07108 ; infill
G1 X162.322 Y123.629 E1.74178 ; infill
G1 X161.453 Y123.629 E.07108 ; infill
G1 X146.395 Y108.571 E1.74178 ; infill
G1 X145.525 Y108.571 E.07116 ; infill
G1 X160.583 Y123.629 E1.74178 ; infill
G1 X159.714 Y123.629 E.07108 ; infill
G1 X144.656 Y108.571 E1.74178 ; infill
G1 X143.786 Y108.571 E.07116 ; infill
G1 X158.844 Y123.629 E1.74178 ; infill
G1 X157.975 Y123.629 E.07108 ; infill
G1 X142.917 Y108.571 E1.74178 ; infill
G1 X142.047 Y108.571 E.07116 ; infill
G1 X157.105 Y123.629 E1.74178 ; infill
G1 X156.236 Y123.629 E.07108 ; infill
G1 X141.178 Y108.571 E1.74178 ; infill
G1 X140.308 Y108.571 E.07116 ; infill
G1 X155.367 Y123.629 E1.74183 ; infill
G1 X154.497 Y123.629 E.07116 ; infill
G1 X139.439 Y108.571 E1.74178 ; infill
G1 X138.57 Y108.571 E.07108 ; infill
G1 X153.628 Y123.629 E1.74178 ; infill
G1 X152.758 Y123.629 E.07116 ; infill
G1 X137.7 Y108.571 E1.74178 ; infill
G1 X136.831 Y108.571 E.07108 ; infill
G1 X151.889 Y123.629 E1.74178 ; infill
G1 X151.019 Y123.629 E.07116 ; infill
G1 X135.961 Y108.571 E1.74178 ; infill
G1 X135.092 Y108.571 E.07108 ; infill
G1 X150.15 Y123.629 E1.74178 ; infill
G1 X149.28 Y123.629 E.07116 ; infill
G1 X134.222 Y108.571 E1.74178 ; infill
G1 X133.353 Y108.571 E.07108 ; infill
G1 X148.411 Y123.629 E1.74178 ; infill
G1 X147.542 Y123.629 E.07108 ; infill
G1 X132.483 Y108.571 E1.74183 ; infill
G1 X131.614 Y108.571 E.07108 ; infill
G1 X146.672 Y123.629 E1.74178 ; infill
G1 X145.803 Y123.629 E.07108 ; infill
G1 X130.745 Y108.571 E1.74178 ; infill
G1 X129.875 Y108.571 E.07116 ; infill
G1 X144.948 Y123.643 E1.74345 ; infill
G2 X144.293 Y123.859 I.065 J1.301 E.05709 ; infill
G1 X129.006 Y108.571 E1.76832 ; infill
G1 X128.571 Y108.571 E.03558 ; infill
G1 X128.571 Y109.006 E.03558 ; infill
G1 X143.863 Y124.298 E1.76884 ; infill
G2 X143.639 Y124.944 I1.062 J.729 E.0566 ; infill
G1 X128.571 Y109.875 E1.74299 ; infill
G1 X128.571 Y110.745 E.07116 ; infill
G1 X143.629 Y125.803 E1.74178 ; infill
G1 X143.629 Y126.672 E.07108 ; infill
G1 X128.571 Y111.614 E1.74178 ; infill
G1 X128.571 Y112.483 E.07108 ; infill
G1 X143.629 Y127.542 E1.74183 ; infill
G1 X143.629 Y128.411 E.07108 ; infill
G1 X128.571 Y113.353 E1.74178 ; infill
G1 X128.571 Y114.222 E.07108 ; infill
G1 X143.629 Y129.28 E1.74178 ; infill
G1 X143.629 Y130.15 E.07116 ; infill
G1 X128.571 Y115.092 E1.74178 ; infill
G1 X128.571 Y115.961 E.07108 ; infill
G1 X143.629 Y131.019 E1.74178 ; infill
G1 X143.629 Y131.889 E.07116 ; infill
G1 X128.571 Y116.831 E1.74178 ; infill
G1 X128.571 Y117.7 E.07108 ; infill
G1 X143.629 Y132.758 E1.74178 ; infill
G1 X143.629 Y133.628 E.07116 ; infill
G1 X128.571 Y118.57 E1.74178 ; infill
G1 X128.571 Y119.439 E.07108 ; infill
G1 X143.629 Y134.497 E1.74178 ; infill
G1 X143.629 Y135.367 E.07116 ; infill
G1 X128.571 Y120.308 E1.74183 ; infill
G1 X128.571 Y121.178 E.07116 ; infill
G1 X143.629 Y136.236 E1.74178 ; infill
G1 X143.629 Y137.105 E.07108 ; infill
G1 X128.571 Y122.047 E1.74178 ; infill
G1 X128.571 Y122.917 E.07116 ; infill
G1 X143.629 Y137.975 E1.74178 ; infill
G1 X143.629 Y138.844 E.07108 ; infill
G1 X128.571 Y123.786 E1.74178 ; infill
G1 X128.571 Y124.656 E.07116 ; infill
G1 X143.629 Y139.714 E1.74178 ; infill
G1 X143.629 Y140.583 E.07108 ; infill
G1 X128.571 Y125.525 E1.74178 ; infill
G1 X128.571 Y126.395 E.07116 ; infill
G1 X143.629 Y141.453 E1.74178 ; infill
G1 X143.629 Y142.322 E.07108 ; infill
G1 X128.571 Y127.264 E1.74178 ; infill
G1 X128.571 Y128.133 E.07108 ; infill
G1 X143.629 Y143.192 E1.74183 ; infill
G1 X143.629 Y144.061 E.07108 ; infill
G1 X128.571 Y129.003 E1.74178 ; infill
G1 X128.571 Y129.872 E.07108 ; infill
G1 X143.629 Y144.93 E1.74178 ; infill
G1 X143.629 Y145.8 E.07116 ; infill
G1 X128.571 Y130.742 E1.74178 ; infill
G1 X128.571 Y131.611 E.07108 ; infill
G1 X143.629 Y146.669 E1.74178 ; infill
G1 X143.629 Y147.539 E.07116 ; infill
G1 X128.571 Y132.481 E1.74178 ; infill
G1 X128.571 Y133.35 E.07108 ; infill
G1 X143.629 Y148.408 E1.74178 ; infill
G1 X143.629 Y149.278 E.07116 ; infill
G1 X128.571 Y134.22 E1.74178 ; infill
G1 X128.571 Y135.089 E.07108 ; infill
G1 X143.629 Y150.147 E1.74178 ; infill
G1 X143.629 Y151.016 E.07108 ; infill
G1 X128.571 Y135.958 E1.74178 ; infill
G1 X128.571 Y136.828 E.07116 ; infill
G1 X143.629 Y151.886 E1.74178 ; infill
G1 X143.629 Y152.755 E.07108 ; infill
G1 X128.571 Y137.697 E1.74178 ; infill
G1 X128.571 Y138.567 E.07116 ; infill
G1 X143.629 Y153.625 E1.74178 ; infill
G1 X143.629 Y154.494 E.07108 ; infill
G1 X128.571 Y139.436 E1.74178 ; infill
G1 X128.571 Y140.306 E.07116 ; infill
G1 X143.629 Y155.364 E1.74178 ; infill
G1 X143.629 Y156.233 E.07108 ; infill
G1 X128.571 Y141.175 E1.74178 ; infill
G1 X128.571 Y142.044 E.07108 ; infill
G1 X143.629 Y157.103 E1.74183 ; infill
G1 X143.629 Y157.972 E.07108 ; infill
G1 X128.571 Y142.914 E1.74178 ; infill
G1 X128.571 Y143.783 E.07108 ; infill
G1 X143.629 Y158.841 E1.74178 ; infill
G1 X143.629 Y159.711 E.07116 ; infill
G1 X128.571 Y144.653 E1.74178 ; infill
G1 X128.571 Y145.522 E.07108 ; infill
G1 X143.629 Y160.58 E1.74178 ; infill
G1 X143.629 Y161.45 E.07116 ; infill
G1 X128.571 Y146.392 E1.74178 ; infill
G1 X128.571 Y147.261 E.07108 ; infill
G1 X143.629 Y162.319 E1.74178 ; infill
G1 X143.629 Y163.189 E.07116 ; infill
G1 X128.571 Y148.131 E1.74178 ; infill
G1 X128.571 Y149 E.07108 ; infill
G1 X143.629 Y164.058 E1.74178 ; infill
G1 X143.629 Y164.928 E.07116 ; infill
