; generated by PrusaSlicer 2.9.0 on 2025-03-20 at 22:35:24 UTC


;
;

;
;
; 

; external perimeters extrusion width = 0.68mm
; perimeters extrusion width = 0.68mm
; infill extrusion width = 0.68mm
; solid infill extrusion width = 0.68mm
; top infill extrusion width = 0.55mm
; support material extrusion width = 0.68mm
; first layer extrusion width = 0.68mm


; printing object singlechannel_tipremoval.stl id:0 copy 0
; stop printing object singlechannel_tipremoval.stl id:0 copy 0

;TYPE:Custom
TURN_OFF_HEATERS
TURN_OFF_ALL_FILAMENT_SENSORS
BT_DISABLE_ALL_BUFFERS
INITIALIZE_TOOL_USE_COUNT










; Heat the bed first
M140 S50
M190 S50 ; wait for bed temp

CHECK_CORRECT_TOOL_LOADED TOOL=0

STORE_TOOLHEAD_POSITION X=165 Y=140

G0 Z10 F5000    ; Ensure nozzle is at 3mm over the bed

; Drop Off T0 
T_1


SET_PRINT_STATUS_START
G92 E0
_INITIALIZE_ALL_TOOLS
INITIALIZE_TOOL_USE_COUNT

; Set Temperatures for other tools apart from T0
 SET_TOOL_FOR_PRINT T=0 R=150 S=210 





;Pick up the initial extruder

T0 ;initial extruder


;OFFSET_T0
SET_GCODE_OFFSET X=0 Y=0 Z=-0.15 move=1
SET_FILAMENT_SENSOR SENSOR=encoder_t0 ENABLE=0




ENABLE_BUFFER BUFFER=TN0 ; Enable Buffer for Initial Toolhead
KTCC_INIT_PRINT_STATS
TEMPADJUSTEXHAUST
;HYPERLAPSE ACTION=START
SET_FILAMENT_SENSOR SENSOR=encoder_t0 ENABLE=0
;END_START
G21 ; set units to millimeters
G90 ; use absolute coordinates
M83 ; use relative distances for extrusion
M107 ; disable fan
;LAYER_CHANGE
;Z:0.32
;HEIGHT:0.32
G1 E-8 F1500 ; retract
G1 Z1.82 F1800 ; lift
G1 X115.814 Y86.325 F24000 ; move to first layer point
G1 Z.32 F1800 ; move to first layer point
G1 E8 F1500 ;  ; unretract
M204 S1500 ; adjust acceleration
;TYPE:Skirt/Brim
;WIDTH:0.68
G1 F2700
G1 X117.605 Y84.569 E.2142 ; skirt
G1 X120.387 Y83.319 E.26046 ; skirt
G1 X163.387 Y73.319 E3.7701 ; skirt
G1 X165.181 Y73.113 E.15421 ; skirt
G1 X185.181 Y73.113 E1.70796 ; skirt
G1 X187.658 Y73.511 E.21424 ; skirt
G1 X189.886 Y74.663 E.2142 ; skirt
G1 X191.642 Y76.455 E.21426 ; skirt
G1 X192.749 Y78.706 E.21422 ; skirt
G1 X193.098 Y81.03 E.20069 ; skirt
G1 X193.098 Y131.03 E4.26989 ; skirt
G1 X192.7 Y133.507 E.21424 ; skirt
G1 X191.548 Y135.736 E.21427 ; skirt
G1 X189.756 Y137.491 E.2142 ; skirt
G1 X187.504 Y138.598 E.2143 ; skirt
G1 X185.181 Y138.947 E.20061 ; skirt
G1 X165.181 Y138.947 E1.70796 ; skirt
G1 X163.387 Y138.741 E.15421 ; skirt
G1 X120.387 Y128.741 E3.7701 ; skirt
G1 X118.065 Y127.793 E.21418 ; skirt
G1 X116.155 Y126.166 E.21427 ; skirt
G1 X114.851 Y124.023 E.21423 ; skirt
G1 X114.264 Y121.03 E.26047 ; skirt
G1 X114.264 Y91.03 E2.56194 ; skirt
G1 X114.661 Y88.553 E.21423 ; skirt
G1 X115.786 Y86.378 E.20912 ; skirt
M204 S5000 ; adjust acceleration
M204 S8000 ; adjust acceleration
G1 X115.786 Y86.378 F24000 ; move to first skirt point
G1 X116.343 Y86.68 ; move to first skirt point
M204 S1500 ; adjust acceleration
G1 F2700
G1 X116.421 Y86.536 E.01399 ; skirt
G1 X118.196 Y84.907 E.20574 ; skirt
G1 X120.526 Y83.914 E.21629 ; skirt
G1 X163.526 Y73.914 E3.7701 ; skirt
G1 X165.181 Y73.725 E.14225 ; skirt
G1 X185.181 Y73.725 E1.70796 ; skirt
G1 X187.557 Y74.122 E.20572 ; skirt
G1 X189.675 Y75.27 E.20573 ; skirt
G1 X191.304 Y77.045 E.20574 ; skirt
G1 X192.267 Y79.254 E.20579 ; skirt
G1 X192.486 Y81.03 E.15282 ; skirt
G1 X192.486 Y131.03 E4.26989 ; skirt
G1 X192.089 Y133.407 E.2058 ; skirt
G1 X190.94 Y135.524 E.2057 ; skirt
G1 X189.165 Y137.153 E.20574 ; skirt
G1 X186.957 Y138.117 E.20575 ; skirt
G1 X185.181 Y138.336 E.15282 ; skirt
G1 X165.181 Y138.336 E1.70796 ; skirt
G1 X163.526 Y138.146 E.14226 ; skirt
G1 X120.526 Y128.146 E3.7701 ; skirt
G1 X118.301 Y127.221 E.20578 ; skirt
G1 X116.499 Y125.622 E.20574 ; skirt
G1 X115.314 Y123.525 E.20569 ; skirt
G1 X114.875 Y121.03 E.21634 ; skirt
G1 X114.875 Y91.03 E2.56194 ; skirt
G1 X115.272 Y88.654 E.20572 ; skirt
G1 X116.314 Y86.733 E.18663 ; skirt
M204 S5000 ; adjust acceleration
;WIPE_START
G1 F19200
G1 X116.343 Y86.68 E-.00448 ; wipe and retract
G1 X116.421 Y86.536 E-.01215 ; wipe and retract
G1 X118.196 Y84.907 E-.17881 ; wipe and retract
G1 X120.526 Y83.914 E-.18798 ; wipe and retract
G1 X163.526 Y73.914 E-3.27657 ; wipe and retract
G1 X165.181 Y73.725 E-.12363 ; wipe and retract
G1 X185.181 Y73.725 E-1.48438 ; wipe and retract
G1 X187.557 Y74.122 E-.17879 ; wipe and retract
G1 X189.675 Y75.27 E-.1788 ; wipe and retract
G1 X191.304 Y77.045 E-.17881 ; wipe and retract
G1 X192.267 Y79.254 E-.17885 ; wipe and retract
G1 X192.486 Y81.03 E-.13281 ; wipe and retract
G1 X192.486 Y106.414 E-1.88394 ; wipe and retract
;WIPE_END
M204 S8000 ; adjust acceleration
; printing object singlechannel_tipremoval.stl id:0 copy 0
G1 X173.735 Y89.228 Z.764 F24000 ; move to first perimeter point
G1 Z.32 F1800 ; move to first perimeter point
G1 E8 F1500 ;  ; unretract
M204 S1500 ; adjust acceleration
;TYPE:Perimeter
;WIDTH:0.68
G1 F2700
G3 X173.725 Y88.909 I1.091 J-.194 E.02735 ; perimeter
G1 X174.093 Y86.821 E.18106 ; perimeter
G3 X174.407 Y86.278 I1.119 J.284 E.05425 ; perimeter
G1 X176.031 Y84.915 E.18106 ; perimeter
G3 X176.62 Y84.701 I.657 J.889 E.05426 ; perimeter
G1 X178.741 Y84.701 E.18113 ; perimeter
G3 X179.33 Y84.915 I-.068 J1.103 E.05426 ; perimeter
G1 X180.954 Y86.278 E.18106 ; perimeter
G3 X181.268 Y86.821 I-.762 J.802 E.05431 ; perimeter
G1 X181.636 Y88.91 E.18114 ; perimeter
G3 X181.527 Y89.527 I-1.098 J.124 E.05425 ; perimeter
G1 X180.467 Y91.363 E.18105 ; perimeter
G3 X179.986 Y91.766 I-.956 J-.652 E.05427 ; perimeter
G1 X177.994 Y92.491 E.18103 ; perimeter
G3 X177.367 Y92.491 I-.313 J-1.06 E.05429 ; perimeter
G1 X175.375 Y91.766 E.18103 ; perimeter
G3 X174.894 Y91.363 I.448 J-1.022 E.05432 ; perimeter
G1 X173.834 Y89.527 E.18105 ; perimeter
G3 X173.748 Y89.287 I.992 J-.493 E.02182 ; perimeter
M204 S5000 ; adjust acceleration
M204 S8000 ; adjust acceleration
G1 X173.748 Y89.287 F24000 ; move to first perimeter point
G1 X174.345 Y89.118 ; move to first perimeter point
M204 S1500 ; adjust acceleration
;TYPE:External perimeter
G1 F2700
G1 X174.327 Y89.015 E.00893 ; perimeter
G1 X174.696 Y86.925 E.18124 ; perimeter
G1 X174.8 Y86.746 E.01768 ; perimeter
G1 X176.424 Y85.384 E.181 ; perimeter
G1 X176.62 Y85.312 E.01783 ; perimeter
G1 X178.741 Y85.312 E.18113 ; perimeter
G1 X178.937 Y85.384 E.01783 ; perimeter
G1 X180.561 Y86.746 E.181 ; perimeter
G1 X180.666 Y86.927 E.01787 ; perimeter
G1 X181.034 Y89.016 E.18114 ; perimeter
G1 X180.998 Y89.221 E.01777 ; perimeter
G1 X179.937 Y91.057 E.18109 ; perimeter
G1 X179.777 Y91.192 E.01788 ; perimeter
G1 X177.785 Y91.917 E.18103 ; perimeter
G1 X177.576 Y91.917 E.01785 ; perimeter
G1 X175.584 Y91.192 E.18103 ; perimeter
G1 X175.424 Y91.057 E.01788 ; perimeter
G1 X174.364 Y89.221 E.18105 ; perimeter
G1 X174.356 Y89.177 E.00382 ; perimeter
M204 S5000 ; adjust acceleration
;WIPE_START
G1 F19200
G1 X174.345 Y89.118 E-.00445 ; wipe and retract
G1 X174.327 Y89.015 E-.00776 ; wipe and retract
G1 X174.696 Y86.925 E-.15752 ; wipe and retract
G1 X174.8 Y86.746 E-.01536 ; wipe and retract
G1 X176.424 Y85.384 E-.15731 ; wipe and retract
G1 X176.62 Y85.312 E-.0155 ; wipe and retract
G1 X178.741 Y85.312 E-.15742 ; wipe and retract
G1 X178.937 Y85.384 E-.0155 ; wipe and retract
G1 X180.561 Y86.746 E-.15731 ; wipe and retract
G1 X180.666 Y86.927 E-.01553 ; wipe and retract
G1 X181.034 Y89.016 E-.15743 ; wipe and retract
G1 X180.998 Y89.221 E-.01545 ; wipe and retract
G1 X179.937 Y91.057 E-.15738 ; wipe and retract
G1 X179.777 Y91.192 E-.01554 ; wipe and retract
G1 X177.785 Y91.917 E-.15733 ; wipe and retract
G1 X177.576 Y91.917 E-.01551 ; wipe and retract
G1 X175.584 Y91.192 E-.15733 ; wipe and retract
G1 X175.424 Y91.057 E-.01554 ; wipe and retract
G1 X174.364 Y89.221 E-.15735 ; wipe and retract
G1 X174.356 Y89.177 E-.00332 ; wipe and retract
;WIPE_END
G1 E-6.44416 F1500 ; retract
M204 S8000 ; adjust acceleration
G1 X173.735 Y124.229 Z.932 F24000 ; move to first perimeter point
G1 Z.32 F1800 ; move to first perimeter point
G1 E8 F1500 ;  ; unretract
M204 S1500 ; adjust acceleration
;TYPE:Perimeter
G1 F2700
G3 X173.725 Y123.909 I1.088 J-.195 E.02744 ; perimeter
G1 X174.093 Y121.821 E.18106 ; perimeter
G3 X174.407 Y121.278 I1.078 J.26 E.05431 ; perimeter
G1 X176.031 Y119.915 E.18106 ; perimeter
G3 X176.62 Y119.701 I.661 J.899 E.05425 ; perimeter
G1 X178.741 Y119.701 E.18113 ; perimeter
G3 X179.33 Y119.915 I-.072 J1.113 E.05425 ; perimeter
G1 X180.954 Y121.278 E.18106 ; perimeter
G1 X181.151 Y121.509 E.02593 ; perimeter
G1 X181.268 Y121.821 E.02846 ; perimeter
G1 X181.636 Y123.91 E.18114 ; perimeter
G3 X181.527 Y124.527 I-1.098 J.124 E.05425 ; perimeter
G1 X180.467 Y126.363 E.18105 ; perimeter
G3 X179.986 Y126.766 I-.944 J-.637 E.05429 ; perimeter
G1 X177.994 Y127.491 E.18103 ; perimeter
G3 X177.367 Y127.491 I-.313 J-1.059 E.05429 ; perimeter
G1 X175.375 Y126.766 E.18103 ; perimeter
G3 X174.894 Y126.363 I.442 J-1.015 E.05433 ; perimeter
G1 X173.834 Y124.527 E.18105 ; perimeter
G3 X173.748 Y124.288 I.989 J-.493 E.02174 ; perimeter
M204 S5000 ; adjust acceleration
M204 S8000 ; adjust acceleration
G1 X173.748 Y124.288 F24000 ; move to first perimeter point
G1 X174.345 Y124.118 ; move to first perimeter point
M204 S1500 ; adjust acceleration
;TYPE:External perimeter
G1 F2700
G1 X174.327 Y124.015 E.00893 ; perimeter
G1 X174.695 Y121.927 E.18106 ; perimeter
G1 X174.8 Y121.746 E.01787 ; perimeter
G1 X176.424 Y120.384 E.181 ; perimeter
G1 X176.62 Y120.312 E.01783 ; perimeter
G1 X178.741 Y120.312 E.18113 ; perimeter
G1 X178.937 Y120.384 E.01783 ; perimeter
G1 X180.561 Y121.746 E.181 ; perimeter
G1 X180.627 Y121.823 E.00866 ; perimeter
G1 X180.666 Y121.927 E.00949 ; perimeter
G1 X181.034 Y124.016 E.18114 ; perimeter
G1 X180.998 Y124.221 E.01777 ; perimeter
G1 X179.937 Y126.057 E.18109 ; perimeter
G1 X179.777 Y126.192 E.01788 ; perimeter
G1 X177.785 Y126.917 E.18103 ; perimeter
G1 X177.576 Y126.917 E.01785 ; perimeter
G1 X175.584 Y126.192 E.18103 ; perimeter
G1 X175.424 Y126.057 E.01788 ; perimeter
G1 X174.364 Y124.221 E.18105 ; perimeter
G1 X174.356 Y124.177 E.00382 ; perimeter
M204 S5000 ; adjust acceleration
;WIPE_START
G1 F19200
G1 X174.345 Y124.118 E-.00445 ; wipe and retract
G1 X174.327 Y124.015 E-.00776 ; wipe and retract
G1 X174.695 Y121.927 E-.15736 ; wipe and retract
G1 X174.8 Y121.746 E-.01553 ; wipe and retract
G1 X176.424 Y120.384 E-.15731 ; wipe and retract
G1 X176.62 Y120.312 E-.0155 ; wipe and retract
G1 X178.741 Y120.312 E-.15742 ; wipe and retract
G1 X178.937 Y120.384 E-.0155 ; wipe and retract
G1 X180.561 Y121.746 E-.15731 ; wipe and retract
G1 X180.627 Y121.823 E-.00753 ; wipe and retract
G1 X180.666 Y121.927 E-.00824 ; wipe and retract
G1 X181.034 Y124.016 E-.15743 ; wipe and retract
G1 X180.998 Y124.221 E-.01545 ; wipe and retract
G1 X179.937 Y126.057 E-.15738 ; wipe and retract
G1 X179.777 Y126.192 E-.01554 ; wipe and retract
G1 X177.785 Y126.917 E-.15733 ; wipe and retract
G1 X177.576 Y126.917 E-.01551 ; wipe and retract
G1 X175.584 Y126.192 E-.15733 ; wipe and retract
G1 X175.424 Y126.057 E-.01554 ; wipe and retract
G1 X174.364 Y124.221 E-.15735 ; wipe and retract
G1 X174.356 Y124.177 E-.00332 ; wipe and retract
;WIPE_END
G1 E-6.44391 F1500 ; retract
M204 S8000 ; adjust acceleration
G1 X166.067 Y120.163 Z.481 F24000 ; move to first perimeter point
G1 Z.32 F1800 ; move to first perimeter point
G1 E8 F1500 ;  ; unretract
M204 S1500 ; adjust acceleration
;TYPE:Perimeter
G1 F2700
G2 X165.415 Y119.879 I-.691 J.695 E.06215 ; perimeter
G1 X127.491 Y119.879 E3.23863 ; perimeter
;WIDTH:0.727995
G1 X127.271 Y119.855 E.02038 ; perimeter
;WIDTH:0.77599
G1 X127.05 Y119.831 E.02196 ; perimeter
;WIDTH:0.823985
G1 X126.83 Y119.807 E.02335 ; perimeter
;WIDTH:0.871981
G2 X125.733 Y119.806 I-.553 J7.066 E.12322 ; perimeter
;WIDTH:0.826935
G1 X124.818 Y119.805 E.09692 ; perimeter
;WIDTH:0.83066
G1 X123.406 Y119.805 E.1503 ; perimeter
;WIDTH:0.827732
G1 X123.406 Y119.027 E.0825 ; perimeter
;WIDTH:0.841392
G1 X125.242 Y119.027 E.19818 ; perimeter
;WIDTH:0.840828
G1 X125.949 Y119.045 E.07628 ; perimeter
;WIDTH:0.871981
G1 X126.555 Y118.983 E.06836 ; perimeter
G1 X126.612 Y118.953 E.00723 ; perimeter
;WIDTH:0.83781
G1 X126.668 Y118.922 E.00688 ; perimeter
;WIDTH:0.803639
G1 X126.725 Y118.891 E.00666 ; perimeter
;WIDTH:0.769468
G1 X127.078 Y118.742 E.03751 ; perimeter
;WIDTH:0.724734
G1 X127.432 Y118.593 E.0352 ; perimeter
;WIDTH:0.68
G2 X127.804 Y111.269 I-1.76 J-3.761 E.76765 ; perimeter
G2 X126.116 Y110.705 I-2.318 J4.127 E.1529 ; perimeter
G1 X125.326 Y110.696 E.06747 ; perimeter
G2 X124.241 Y110.71 I-.447 J7.613 E.09274 ; perimeter
G2 X123.332 Y110.701 I-.504 J5.288 E.07773 ; perimeter
G1 X123.332 Y104.462 E.5328 ; perimeter
G2 X124.109 Y104.452 I.331 J-4.563 E.06644 ; perimeter
G2 X125.281 Y104.451 I.578 J-7.399 E.10019 ; perimeter
G1 X126.068 Y104.462 E.06721 ; perimeter
G2 X127.319 Y104.166 I-.5 J-4.909 E.1101 ; perimeter
G2 X130.151 Y101.11 I-1.609 J-4.331 E.36912 ; perimeter
G2 X128.165 Y95.903 I-4.494 J-1.268 E.50996 ; perimeter
G1 X127.221 Y95.445 E.0896 ; perimeter
G1 X126.361 Y95.233 E.07564 ; perimeter
G2 X125.162 Y95.212 I-.705 J5.974 E.10258 ; perimeter
G2 X124.109 Y95.208 I-.544 J5.741 E.09005 ; perimeter
G1 X123.332 Y95.198 E.06636 ; perimeter
G1 X123.332 Y92.182 E.25756 ; perimeter
G1 X165.415 Y92.182 E3.5938 ; perimeter
G2 X166.283 Y91.56 I-.037 J-.97 E.09657 ; perimeter
G1 X166.332 Y91.265 E.02554 ; perimeter
G1 X166.332 Y82.182 E.77567 ; perimeter
G1 X184.029 Y82.182 E1.51129 ; perimeter
G1 X184.029 Y84.305 E.1813 ; perimeter
G1 X184.029 Y129.879 E3.89192 ; perimeter
G1 X166.332 Y129.879 E1.51129 ; perimeter
G1 X166.332 Y121.142 E.74612 ; perimeter
G2 X166.236 Y120.387 I-1.712 J-.166 E.06554 ; perimeter
G2 X166.108 Y120.206 I-.86 J.471 E.01897 ; perimeter
M204 S5000 ; adjust acceleration
M204 S8000 ; adjust acceleration
G1 X166.108 Y120.206 F24000 ; move to first perimeter point
G1 X165.636 Y120.601 ; move to first perimeter point
M204 S1500 ; adjust acceleration
;TYPE:External perimeter
G1 F2700
G2 X165.415 Y120.49 I-.262 J.248 E.02156 ; perimeter
G1 X122.721 Y120.49 E3.64598 ; perimeter
G1 X122.721 Y118.36 E.1819 ; perimeter
G3 X123.838 Y118.362 I.545 J6.186 E.09552 ; perimeter
G3 X125.856 Y118.365 I.987 J15.72 E.17245 ; perimeter
G2 X127.977 Y117.524 I-.231 J-3.679 E.1981 ; perimeter
G2 X127.544 Y111.822 I-2.308 J-2.692 E.56801 ; perimeter
G1 X126.748 Y111.456 E.07482 ; perimeter
G2 X125.175 Y111.329 I-1.09 J3.697 E.13573 ; perimeter
G2 X124.18 Y111.33 I-.495 J3.896 E.0852 ; perimeter
G2 X123.218 Y111.326 I-.495 J3.814 E.08237 ; perimeter
G1 X122.721 Y111.298 E.04251 ; perimeter
G1 X122.721 Y103.845 E.63647 ; perimeter
G2 X124.071 Y103.842 I.651 J-10.419 E.11537 ; perimeter
G2 X125.304 Y103.84 I.604 J-8.086 E.1054 ; perimeter
G1 X125.966 Y103.859 E.05656 ; perimeter
G1 X126.793 Y103.713 E.07172 ; perimeter
G2 X127.936 Y103.182 I-1.512 J-4.749 E.10792 ; perimeter
G2 X127.887 Y96.448 I-2.268 J-3.351 E.67933 ; perimeter
G1 X127.063 Y96.035 E.07871 ; perimeter
G1 X126.323 Y95.843 E.06529 ; perimeter
G2 X124.175 Y95.825 I-1.236 J19.317 E.18354 ; perimeter
G2 X123.213 Y95.822 I-.495 J4.333 E.08232 ; perimeter
G1 X122.721 Y95.792 E.04209 ; perimeter
G1 X122.721 Y91.57 E.36055 ; perimeter
G1 X165.415 Y91.57 E3.64598 ; perimeter
G2 X165.721 Y91.265 I-.029 J-.334 E.04008 ; perimeter
G1 X165.721 Y81.57 E.82793 ; perimeter
G1 X184.641 Y81.57 E1.61573 ; perimeter
G1 X184.641 Y84.305 E.23356 ; perimeter
G1 X184.641 Y130.49 E3.9441 ; perimeter
G1 X165.721 Y130.49 E1.61573 ; perimeter
G1 X165.711 Y120.72 E.83434 ; perimeter
G2 X165.673 Y120.647 I-.337 J.129 E.00704 ; perimeter
M204 S5000 ; adjust acceleration
;WIPE_START
G1 F19200
G1 X165.636 Y120.601 E-.00438 ; wipe and retract
G2 X165.415 Y120.49 I-.263 J.247 E-.01874 ; wipe and retract
G1 X122.721 Y120.49 E-3.1687 ; wipe and retract
G1 X122.721 Y118.36 E-.15809 ; wipe and retract
G3 X123.838 Y118.362 I.547 J6.186 E-.08301 ; wipe and retract
G3 X125.856 Y118.365 I.986 J15.72 E-.14988 ; wipe and retract
G2 X127.977 Y117.524 I-.231 J-3.679 E-.17217 ; wipe and retract
