; generated by PrusaSlicer 2.9.0 on 2025-03-21 at 19:08:31 UTC


;
;

;
;
; 

; external perimeters extrusion width = 0.40mm
; perimeters extrusion width = 0.40mm
; infill extrusion width = 0.45mm
; solid infill extrusion width = 0.45mm
; top infill extrusion width = 0.40mm
; support material extrusion width = 0.45mm
; first layer extrusion width = 0.55mm


; printing object singlechannel_tipremoval.stl id:0 copy 0
; stop printing object singlechannel_tipremoval.stl id:0 copy 0

;TYPE:Custom
TURN_OFF_HEATERS
TURN_OFF_ALL_FILAMENT_SENSORS
BT_DISABLE_ALL_BUFFERS
INITIALIZE_TOOL_USE_COUNT










; Heat the bed first
M140 S50
M190 S50 ; wait for bed temp

CHECK_CORRECT_TOOL_LOADED TOOL=0

STORE_TOOLHEAD_POSITION X=165 Y=140

G0 Z10 F5000    ; Ensure nozzle is at 3mm over the bed

; Drop Off T0 
T_1


SET_PRINT_STATUS_START
G92 E0
_INITIALIZE_ALL_TOOLS
INITIALIZE_TOOL_USE_COUNT

; Set Temperatures for other tools apart from T0
 SET_TOOL_FOR_PRINT T=0 R=150 S=210 





;Pick up the initial extruder

T0 ;initial extruder


;OFFSET_T0
SET_GCODE_OFFSET X=0 Y=0 Z=-0.15 move=1
SET_FILAMENT_SENSOR SENSOR=encoder_t0 ENABLE=0




ENABLE_BUFFER BUFFER=TN0 ; Enable Buffer for Initial Toolhead
KTCC_INIT_PRINT_STATS
TEMPADJUSTEXHAUST
;HYPERLAPSE ACTION=START
SET_FILAMENT_SENSOR SENSOR=encoder_t0 ENABLE=0
;END_START
G21 ; set units to millimeters
G90 ; use absolute coordinates
M83 ; use relative distances for extrusion
M107 ; disable fan
;LAYER_CHANGE
;Z:0.2
;HEIGHT:0.2
G1 E-8 F1500 ; retract
G1 Z1.7 F1800 ; lift
G1 X96.84 Y141.842 F12000 ; move to first layer point
G1 Z.2 F1800 ; move to first layer point
G1 E8 F1500 ;  ; unretract
M204 S500 ; adjust acceleration
;TYPE:Skirt/Brim
;WIDTH:0.55
G1 F1800
G1 X99.506 Y140.66 E.12296 ; skirt
G1 X142.506 Y130.66 E1.86143 ; skirt
G1 X144.264 Y130.458 E.07461 ; skirt
G1 X164.264 Y130.458 E.84328 ; skirt
G1 X166.715 Y130.855 E.10469 ; skirt
G1 X168.916 Y132.007 E.10475 ; skirt
G1 X170.64 Y133.795 E.10473 ; skirt
G1 X171.711 Y136.036 E.10473 ; skirt
G1 X172.024 Y138.219 E.09298 ; skirt
G1 X172.024 Y188.219 E2.10819 ; skirt
G1 X171.627 Y190.67 E.10469 ; skirt
G1 X170.475 Y192.871 E.10475 ; skirt
G1 X168.687 Y194.595 E.10473 ; skirt
G1 X166.447 Y195.666 E.10469 ; skirt
G1 X164.264 Y195.979 E.09298 ; skirt
G1 X144.264 Y195.979 E.84328 ; skirt
G1 X142.506 Y195.778 E.07461 ; skirt
G1 X99.506 Y185.778 E1.86143 ; skirt
G1 X97.208 Y184.835 E.10473 ; skirt
G1 X95.325 Y183.215 E.10473 ; skirt
G1 X94.051 Y181.083 E.10472 ; skirt
G1 X93.503 Y178.219 E.12295 ; skirt
G1 X93.503 Y148.219 E1.26492 ; skirt
G1 X93.9 Y145.767 E.10473 ; skirt
G1 X95.052 Y143.566 E.10475 ; skirt
G1 X96.797 Y141.884 E.10219 ; skirt
M204 S5000 ; adjust acceleration
G1 X96.797 Y141.884 F12000 ; move to first skirt point
G1 X97.158 Y142.281 ; move to first skirt point
M204 S500 ; adjust acceleration
G1 F1800
G1 X97.329 Y142.125 E.00976 ; skirt
G1 X99.621 Y141.154 E.10495 ; skirt
G1 X142.621 Y131.154 E1.86143 ; skirt
G1 X144.264 Y130.965 E.06973 ; skirt
G1 X164.264 Y130.965 E.84328 ; skirt
G1 X166.631 Y131.362 E.1012 ; skirt
G1 X168.739 Y132.511 E.10123 ; skirt
G1 X170.357 Y134.284 E.10121 ; skirt
G1 X171.308 Y136.488 E.10121 ; skirt
G1 X171.517 Y138.219 E.07352 ; skirt
G1 X171.517 Y188.219 E2.10819 ; skirt
G1 X171.12 Y190.586 E.1012 ; skirt
G1 X169.972 Y192.694 E.10121 ; skirt
G1 X168.198 Y194.312 E.10124 ; skirt
G1 X165.994 Y195.263 E.10121 ; skirt
G1 X164.264 Y195.472 E.07347 ; skirt
G1 X144.264 Y195.472 E.84328 ; skirt
G1 X142.621 Y195.284 E.06973 ; skirt
G1 X99.621 Y185.284 E1.86143 ; skirt
G1 X97.405 Y184.361 E.10122 ; skirt
G1 X95.611 Y182.765 E.10124 ; skirt
G1 X94.437 Y180.671 E.10122 ; skirt
G1 X94.01 Y178.219 E.10494 ; skirt
G1 X94.01 Y148.219 E1.26492 ; skirt
G1 X94.407 Y145.851 E.10124 ; skirt
G1 X95.556 Y143.743 E.10123 ; skirt
G1 X97.114 Y142.321 E.08894 ; skirt
M204 S5000 ; adjust acceleration
;WIPE_START
G1 F9600
G1 X97.158 Y142.281 E-.00883 ; wipe and retract
G1 X97.329 Y142.125 E-.03436 ; wipe and retract
G1 X99.621 Y141.154 E-.36949 ; wipe and retract
G1 X142.621 Y131.154 E-6.55314 ; wipe and retract
G1 X144.264 Y130.965 E-.24549 ; wipe and retract
G1 X149.577 Y130.965 E-.78869 ; wipe and retract
;WIPE_END
; printing object singlechannel_tipremoval.stl id:0 copy 0
G1 X152.478 Y146.478 Z.475 F12000 ; move to first perimeter point
G1 Z.2 F1800 ; move to first perimeter point
G1 E8 F1500 ;  ; unretract
M204 S500 ; adjust acceleration
;TYPE:Perimeter
;WIDTH:0.549999
G1 F1800
G1 X152.476 Y146.474 E.00019 ; perimeter
G1 X152.476 Y146.034 E.01855 ; perimeter
G1 X152.843 Y143.956 E.08897 ; perimeter
G1 X152.916 Y143.701 E.01118 ; perimeter
G1 X153.054 Y143.447 E.01219 ; perimeter
G1 X153.276 Y143.205 E.01385 ; perimeter
G1 X154.893 Y141.848 E.08901 ; perimeter
G1 X155.262 Y141.633 E.01801 ; perimeter
G1 X155.708 Y141.551 E.01912 ; perimeter
G1 X157.819 Y141.551 E.08901 ; perimeter
G1 X158.266 Y141.633 E.01916 ; perimeter
G1 X158.634 Y141.848 E.01797 ; perimeter
G1 X160.251 Y143.205 E.08901 ; perimeter
G1 X160.523 Y143.524 E.01768 ; perimeter
G1 X160.684 Y143.956 E.01944 ; perimeter
G1 X161.051 Y146.035 E.08901 ; perimeter
G1 X161.05 Y146.481 E.01881 ; perimeter
G1 X160.9 Y146.888 E.01829 ; perimeter
G1 X159.845 Y148.716 E.08899 ; perimeter
G1 X159.647 Y148.976 E.01378 ; perimeter
G1 X159.416 Y149.159 E.01243 ; perimeter
G1 X159.181 Y149.274 E.01103 ; perimeter
G1 X157.197 Y149.996 E.08902 ; perimeter
G1 X156.748 Y150.072 E.0192 ; perimeter
G1 X156.33 Y149.996 E.01791 ; perimeter
G1 X154.347 Y149.274 E.08898 ; perimeter
G1 X154.014 Y149.092 E.016 ; perimeter
G1 X153.753 Y148.825 E.01574 ; perimeter
G1 X152.627 Y146.888 E.09447 ; perimeter
G1 X152.498 Y146.535 E.01585 ; perimeter
M204 S5000 ; adjust acceleration
G1 X152.498 Y146.535 F12000 ; move to first perimeter point
G1 X152.98 Y146.388 ; move to first perimeter point
M204 S500 ; adjust acceleration
G1 F1800
G1 X152.973 Y146.367 E.00093 ; perimeter
G1 X152.976 Y146.122 E.01033 ; perimeter
G1 X153.342 Y144.044 E.08896 ; perimeter
G1 X153.469 Y143.738 E.01397 ; perimeter
G1 X153.602 Y143.593 E.0083 ; perimeter
G1 X155.219 Y142.236 E.08901 ; perimeter
G1 X155.577 Y142.07 E.01664 ; perimeter
G1 X157.819 Y142.058 E.09453 ; perimeter
G1 X158.087 Y142.107 E.01149 ; perimeter
G1 X158.308 Y142.236 E.01079 ; perimeter
G1 X159.925 Y143.593 E.08901 ; perimeter
G1 X160.088 Y143.785 E.01062 ; perimeter
G1 X160.185 Y144.044 E.01166 ; perimeter
G1 X160.552 Y146.123 E.08901 ; perimeter
G1 X160.551 Y146.391 E.0113 ; perimeter
G1 X160.461 Y146.635 E.01097 ; perimeter
G1 X159.406 Y148.463 E.08899 ; perimeter
G1 X159.148 Y148.729 E.01562 ; perimeter
G1 X159.007 Y148.797 E.0066 ; perimeter
G1 X157.024 Y149.519 E.08898 ; perimeter
G1 X156.68 Y149.56 E.01461 ; perimeter
G1 X156.503 Y149.519 E.00766 ; perimeter
G1 X154.52 Y148.797 E.08898 ; perimeter
G1 X154.247 Y148.625 E.0136 ; perimeter
G1 X153.77 Y147.853 E.03826 ; perimeter
G1 X153.066 Y146.635 E.05932 ; perimeter
G1 X153 Y146.445 E.00848 ; perimeter
M204 S5000 ; adjust acceleration
G1 X153 Y146.445 F12000 ; move to first perimeter point
G1 X153.49 Y146.296 ; move to first perimeter point
M204 S500 ; adjust acceleration
;TYPE:External perimeter
G1 F1800
G1 X153.475 Y146.21 E.00368 ; perimeter
G1 X153.842 Y144.129 E.0891 ; perimeter
G1 X153.928 Y143.982 E.00718 ; perimeter
G1 X155.545 Y142.625 E.08901 ; perimeter
G1 X155.708 Y142.566 E.00731 ; perimeter
G1 X157.819 Y142.566 E.08901 ; perimeter
G1 X157.982 Y142.625 E.00731 ; perimeter
G1 X159.599 Y143.982 E.08901 ; perimeter
G1 X159.686 Y144.132 E.00731 ; perimeter
G1 X160.052 Y146.211 E.08901 ; perimeter
G1 X160.022 Y146.381 E.00728 ; perimeter
G1 X158.967 Y148.209 E.08899 ; perimeter
G1 X158.834 Y148.321 E.00733 ; perimeter
G1 X156.85 Y149.043 E.08902 ; perimeter
G1 X156.677 Y149.043 E.00729 ; perimeter
G1 X154.693 Y148.321 E.08902 ; perimeter
G1 X154.561 Y148.209 E.0073 ; perimeter
G1 X153.505 Y146.381 E.08901 ; perimeter
G1 X153.501 Y146.355 E.00111 ; perimeter
M204 S5000 ; adjust acceleration
;WIPE_START
G1 F9600
G1 X153.49 Y146.296 E-.00891 ; wipe and retract
G1 X153.475 Y146.21 E-.01296 ; wipe and retract
G1 X153.842 Y144.129 E-.31367 ; wipe and retract
G1 X153.928 Y143.982 E-.02528 ; wipe and retract
G1 X155.545 Y142.625 E-.31335 ; wipe and retract
G1 X155.708 Y142.566 E-.02573 ; wipe and retract
G1 X157.819 Y142.566 E-.31335 ; wipe and retract
G1 X157.982 Y142.625 E-.02573 ; wipe and retract
G1 X159.599 Y143.982 E-.31335 ; wipe and retract
G1 X159.686 Y144.132 E-.02574 ; wipe and retract
G1 X160.052 Y146.211 E-.31335 ; wipe and retract
G1 X160.022 Y146.381 E-.02562 ; wipe and retract
G1 X158.967 Y148.209 E-.31329 ; wipe and retract
G1 X158.834 Y148.321 E-.02581 ; wipe and retract
G1 X156.85 Y149.043 E-.31339 ; wipe and retract
G1 X156.677 Y149.043 E-.02568 ; wipe and retract
G1 X154.693 Y148.321 E-.31339 ; wipe and retract
G1 X154.561 Y148.209 E-.0257 ; wipe and retract
G1 X153.505 Y146.381 E-.31337 ; wipe and retract
G1 X153.501 Y146.355 E-.0039 ; wipe and retract
;WIPE_END
G1 E-4.94843 F1500 ; retract
G1 X155.278 Y176.63 Z.729 F12000 ; move to first perimeter point
G1 Z.2 F1800 ; move to first perimeter point
G1 E8 F1500 ;  ; unretract
M204 S500 ; adjust acceleration
;TYPE:Perimeter
G1 F1800
G1 X155.598 Y176.556 E.01385 ; perimeter
G1 X155.708 Y176.551 E.00464 ; perimeter
G1 X157.819 Y176.551 E.08901 ; perimeter
G1 X158.2 Y176.61 E.01626 ; perimeter
G1 X158.634 Y176.848 E.02087 ; perimeter
G1 X160.251 Y178.205 E.08901 ; perimeter
G1 X160.523 Y178.524 E.01768 ; perimeter
G1 X160.684 Y178.956 E.01944 ; perimeter
G1 X161.051 Y181.035 E.08901 ; perimeter
G1 X161.05 Y181.481 E.01881 ; perimeter
G1 X160.9 Y181.888 E.01829 ; perimeter
G1 X159.845 Y183.716 E.08899 ; perimeter
G1 X159.72 Y183.895 E.00921 ; perimeter
G1 X159.487 Y184.112 E.01342 ; perimeter
G1 X159.181 Y184.274 E.0146 ; perimeter
G1 X157.197 Y184.996 E.08902 ; perimeter
G1 X156.764 Y185.072 E.01854 ; perimeter
G1 X156.33 Y184.996 E.01858 ; perimeter
G1 X154.347 Y184.274 E.08898 ; perimeter
G1 X153.944 Y184.035 E.01976 ; perimeter
G1 X153.682 Y183.716 E.01741 ; perimeter
G1 X152.627 Y181.888 E.08899 ; perimeter
G1 X152.476 Y181.474 E.01858 ; perimeter
G1 X152.476 Y181.034 E.01855 ; perimeter
G1 X152.843 Y178.956 E.08897 ; perimeter
G1 X152.977 Y178.572 E.01715 ; perimeter
G1 X153.204 Y178.271 E.0159 ; perimeter
G1 X154.893 Y176.848 E.09312 ; perimeter
G1 X155.223 Y176.653 E.01616 ; perimeter
M204 S5000 ; adjust acceleration
G1 X155.223 Y176.653 F12000 ; move to first perimeter point
G1 X155.448 Y177.111 ; move to first perimeter point
M204 S500 ; adjust acceleration
G1 F1800
G1 X155.479 Y177.094 E.00149 ; perimeter
G1 X155.708 Y177.058 E.00977 ; perimeter
G1 X157.819 Y177.058 E.08901 ; perimeter
G1 X158.048 Y177.094 E.00977 ; perimeter
G1 X158.308 Y177.236 E.01249 ; perimeter
G1 X159.925 Y178.593 E.08901 ; perimeter
G1 X160.088 Y178.785 E.01062 ; perimeter
G1 X160.185 Y179.044 E.01166 ; perimeter
G1 X160.552 Y181.123 E.08901 ; perimeter
G1 X160.551 Y181.391 E.0113 ; perimeter
G1 X160.461 Y181.635 E.01097 ; perimeter
G1 X159.406 Y183.463 E.08899 ; perimeter
G1 X159.191 Y183.7 E.01349 ; perimeter
G1 X159.007 Y183.797 E.00877 ; perimeter
G1 X157.024 Y184.519 E.08898 ; perimeter
G1 X156.764 Y184.565 E.01113 ; perimeter
G1 X156.503 Y184.519 E.01117 ; perimeter
G1 X154.52 Y183.797 E.08898 ; perimeter
G1 X154.278 Y183.654 E.01185 ; perimeter
G1 X154.121 Y183.463 E.01042 ; perimeter
G1 X153.066 Y181.635 E.08899 ; perimeter
G1 X152.976 Y181.386 E.01116 ; perimeter
G1 X152.976 Y181.122 E.01113 ; perimeter
G1 X153.342 Y179.044 E.08896 ; perimeter
G1 X153.467 Y178.742 E.01378 ; perimeter
G1 X154.141 Y178.141 E.03808 ; perimeter
G1 X155.219 Y177.236 E.05935 ; perimeter
G1 X155.396 Y177.139 E.00851 ; perimeter
M204 S5000 ; adjust acceleration
G1 X155.396 Y177.139 F12000 ; move to first perimeter point
G1 X155.627 Y177.595 ; move to first perimeter point
M204 S500 ; adjust acceleration
;TYPE:External perimeter
G1 F1800
G1 X155.708 Y177.566 E.00363 ; perimeter
G1 X157.819 Y177.566 E.08901 ; perimeter
G1 X157.982 Y177.625 E.00731 ; perimeter
G1 X159.599 Y178.982 E.08901 ; perimeter
G1 X159.686 Y179.132 E.00731 ; perimeter
G1 X160.052 Y181.211 E.08901 ; perimeter
G1 X160.022 Y181.381 E.00728 ; perimeter
G1 X158.967 Y183.209 E.08899 ; perimeter
G1 X158.834 Y183.321 E.00733 ; perimeter
G1 X156.85 Y184.043 E.08902 ; perimeter
G1 X156.677 Y184.043 E.00729 ; perimeter
G1 X154.693 Y183.321 E.08902 ; perimeter
G1 X154.561 Y183.209 E.0073 ; perimeter
G1 X153.505 Y181.381 E.08901 ; perimeter
G1 X153.475 Y181.21 E.00732 ; perimeter
G1 X153.842 Y179.132 E.08897 ; perimeter
G1 X153.928 Y178.982 E.00729 ; perimeter
G1 X155.545 Y177.625 E.08901 ; perimeter
G1 X155.57 Y177.616 E.00112 ; perimeter
M204 S5000 ; adjust acceleration
;WIPE_START
G1 F9600
G1 X155.627 Y177.595 E-.00902 ; wipe and retract
G1 X155.708 Y177.566 E-.01277 ; wipe and retract
G1 X157.819 Y177.566 E-.31335 ; wipe and retract
G1 X157.982 Y177.625 E-.02573 ; wipe and retract
G1 X159.599 Y178.982 E-.31335 ; wipe and retract
G1 X159.686 Y179.132 E-.02574 ; wipe and retract
G1 X160.052 Y181.211 E-.31335 ; wipe and retract
G1 X160.022 Y181.381 E-.02562 ; wipe and retract
G1 X158.967 Y183.209 E-.31329 ; wipe and retract
G1 X158.834 Y183.321 E-.02581 ; wipe and retract
G1 X156.85 Y184.043 E-.31339 ; wipe and retract
G1 X156.677 Y184.043 E-.02568 ; wipe and retract
G1 X154.693 Y183.321 E-.31339 ; wipe and retract
G1 X154.561 Y183.209 E-.0257 ; wipe and retract
G1 X153.505 Y181.381 E-.31337 ; wipe and retract
G1 X153.475 Y181.21 E-.02577 ; wipe and retract
G1 X153.842 Y179.132 E-.31323 ; wipe and retract
G1 X153.928 Y178.982 E-.02567 ; wipe and retract
G1 X155.545 Y177.625 E-.31335 ; wipe and retract
G1 X155.57 Y177.616 E-.00394 ; wipe and retract
;WIPE_END
G1 E-4.94848 F1500 ; retract
G1 X145.372 Y177.116 Z.378 F12000 ; move to first perimeter point
G1 Z.2 F1800 ; move to first perimeter point
G1 E8 F1500 ;  ; unretract
M204 S500 ; adjust acceleration
;TYPE:Perimeter
G1 F1800
G1 X145.269 Y177.001 E.00651 ; perimeter
G1 X144.9 Y176.799 E.01774 ; perimeter
G1 X144.485 Y176.73 E.01774 ; perimeter
G1 X106.368 Y176.73 E1.60716 ; perimeter
G1 X107.053 Y176.45 E.0312 ; perimeter
G1 X107.601 Y176.12 E.02697 ; perimeter
G1 X108.159 Y175.672 E.03017 ; perimeter
G1 X108.6 Y175.206 E.02705 ; perimeter
G1 X109.016 Y174.625 E.03013 ; perimeter
G1 X109.315 Y174.057 E.02706 ; perimeter
G1 X109.564 Y173.371 E.03077 ; perimeter
G1 X109.71 Y172.655 E.03081 ; perimeter
G1 X109.75 Y171.926 E.03078 ; perimeter
G1 X109.683 Y171.198 E.03082 ; perimeter
G1 X109.51 Y170.489 E.03077 ; perimeter
G1 X109.243 Y169.824 E.03021 ; perimeter
G1 X108.932 Y169.279 E.02646 ; perimeter
G1 X108.546 Y168.768 E.027 ; perimeter
G1 X108.169 Y168.375 E.02296 ; perimeter
G1 X107.901 Y168.15 E.01475 ; perimeter
G1 X107.4 Y167.79 E.02601 ; perimeter
G1 X106.39 Y167.306 E.04722 ; perimeter
G1 X105.51 Y167.088 E.03823 ; perimeter
G1 X105.01 Y167.055 E.02113 ; perimeter
G1 X103.766 Y167.032 E.05246 ; perimeter
G1 X103.283 Y167.059 E.0204 ; perimeter
G1 X102.753 Y167.032 E.02238 ; perimeter
G1 X102.753 Y162.255 E.20142 ; perimeter
G1 X103.219 Y162.231 E.01967 ; perimeter
G1 X103.755 Y162.255 E.02262 ; perimeter
G1 X104.345 Y162.227 E.0249 ; perimeter
G1 X105.319 Y162.224 E.04107 ; perimeter
G1 X106.298 Y162.023 E.04214 ; perimeter
G1 X107.261 Y161.622 E.04398 ; perimeter
G1 X107.957 Y161.161 E.0352 ; perimeter
G1 X108.462 Y160.723 E.02819 ; perimeter
G1 X108.917 Y160.21 E.02891 ; perimeter
G1 X109.284 Y159.664 E.02774 ; perimeter
G1 X109.585 Y159.063 E.02834 ; perimeter
G1 X109.829 Y158.352 E.03169 ; perimeter
G1 X109.957 Y157.691 E.02839 ; perimeter
G1 X110 Y156.926 E.03231 ; perimeter
G1 X109.933 Y156.176 E.03175 ; perimeter
G1 X109.782 Y155.52 E.02838 ; perimeter
G1 X109.516 Y154.817 E.03169 ; perimeter
G1 X109.202 Y154.238 E.02777 ; perimeter
G1 X108.809 Y153.692 E.02836 ; perimeter
G1 X108.28 Y153.138 E.0323 ; perimeter
G1 X107.688 Y152.673 E.03174 ; perimeter
G1 X107.072 Y152.321 E.02991 ; perimeter
