; generated by PrusaSlicer 2.9.0 on 2025-03-20 at 23:33:56 UTC


;
;

;
;
; 

; external perimeters extrusion width = 0.68mm
; perimeters extrusion width = 0.68mm
; infill extrusion width = 0.68mm
; solid infill extrusion width = 0.68mm
; top infill extrusion width = 0.55mm
; support material extrusion width = 0.68mm
; first layer extrusion width = 0.68mm


; printing object singlechannel_tipremoval.stl id:0 copy 0
; stop printing object singlechannel_tipremoval.stl id:0 copy 0

;TYPE:Custom
TURN_OFF_HEATERS
TURN_OFF_ALL_FILAMENT_SENSORS
BT_DISABLE_ALL_BUFFERS
INITIALIZE_TOOL_USE_COUNT










; Heat the bed first
M140 S50
M190 S50 ; wait for bed temp

CHECK_CORRECT_TOOL_LOADED TOOL=0

STORE_TOOLHEAD_POSITION X=165 Y=140

G0 Z10 F5000    ; Ensure nozzle is at 3mm over the bed

; Drop Off T0 
T_1


SET_PRINT_STATUS_START
G92 E0
_INITIALIZE_ALL_TOOLS
INITIALIZE_TOOL_USE_COUNT

; Set Temperatures for other tools apart from T0
 SET_TOOL_FOR_PRINT T=0 R=150 S=210 





;Pick up the initial extruder

T0 ;initial extruder


;OFFSET_T0
SET_GCODE_OFFSET X=0 Y=0 Z=-0.15 move=1
SET_FILAMENT_SENSOR SENSOR=encoder_t0 ENABLE=0




ENABLE_BUFFER BUFFER=TN0 ; Enable Buffer for Initial Toolhead
KTCC_INIT_PRINT_STATS
TEMPADJUSTEXHAUST
;HYPERLAPSE ACTION=START
SET_FILAMENT_SENSOR SENSOR=encoder_t0 ENABLE=0
;END_START
G21 ; set units to millimeters
G90 ; use absolute coordinates
M83 ; use relative distances for extrusion
M107 ; disable fan
;LAYER_CHANGE
;Z:0.32
;HEIGHT:0.32
G1 E-8 F1500 ; retract
G1 Z1.82 F1800 ; lift
G1 X140.13 Y251.493 F24000 ; move to first layer point
G1 Z.32 F1800 ; move to first layer point
G1 E8 F1500 ;  ; unretract
M204 S1500 ; adjust acceleration
;TYPE:Skirt/Brim
;WIDTH:0.68
G1 F2700
G1 X142.912 Y250.243 E.26046 ; skirt
G1 X185.912 Y240.243 E3.7701 ; skirt
G1 X187.706 Y240.037 E.15421 ; skirt
G1 X207.706 Y240.037 E1.70796 ; skirt
G1 X210.183 Y240.435 E.21424 ; skirt
G1 X212.411 Y241.587 E.2142 ; skirt
G1 X214.167 Y243.379 E.21426 ; skirt
G1 X215.274 Y245.63 E.21422 ; skirt
G1 X215.623 Y247.954 E.20069 ; skirt
G1 X215.623 Y297.954 E4.26989 ; skirt
G1 X215.225 Y300.431 E.21424 ; skirt
G1 X214.073 Y302.66 E.21427 ; skirt
G1 X212.281 Y304.415 E.2142 ; skirt
G1 X210.029 Y305.522 E.2143 ; skirt
G1 X207.706 Y305.871 E.20061 ; skirt
G1 X187.706 Y305.871 E1.70796 ; skirt
G1 X185.912 Y305.665 E.15421 ; skirt
G1 X142.912 Y295.665 E3.7701 ; skirt
G1 X140.59 Y294.717 E.21418 ; skirt
G1 X138.68 Y293.09 E.21427 ; skirt
G1 X137.376 Y290.947 E.21423 ; skirt
G1 X136.789 Y287.954 E.26047 ; skirt
G1 X136.789 Y257.954 E2.56194 ; skirt
G1 X137.186 Y255.477 E.21423 ; skirt
G1 X138.339 Y253.249 E.21423 ; skirt
G1 X140.087 Y251.535 E.20906 ; skirt
M204 S5000 ; adjust acceleration
M204 S8000 ; adjust acceleration
G1 X140.087 Y251.535 F24000 ; move to first skirt point
G1 X140.524 Y252.011 ; move to first skirt point
M204 S1500 ; adjust acceleration
G1 F2700
G1 X140.721 Y251.831 E.02279 ; skirt
G1 X143.051 Y250.838 E.21629 ; skirt
G1 X186.051 Y240.838 E3.7701 ; skirt
G1 X187.706 Y240.649 E.14225 ; skirt
G1 X207.706 Y240.649 E1.70796 ; skirt
G1 X210.082 Y241.046 E.20572 ; skirt
G1 X212.2 Y242.194 E.20573 ; skirt
G1 X213.829 Y243.969 E.20574 ; skirt
G1 X214.792 Y246.178 E.20579 ; skirt
G1 X215.011 Y247.954 E.15282 ; skirt
G1 X215.011 Y297.954 E4.26989 ; skirt
G1 X214.614 Y300.331 E.2058 ; skirt
G1 X213.465 Y302.448 E.2057 ; skirt
G1 X211.69 Y304.077 E.20574 ; skirt
G1 X209.482 Y305.041 E.20575 ; skirt
G1 X207.706 Y305.26 E.15282 ; skirt
G1 X187.706 Y305.26 E1.70796 ; skirt
G1 X186.051 Y305.07 E.14226 ; skirt
G1 X143.051 Y295.07 E3.7701 ; skirt
G1 X140.826 Y294.145 E.20578 ; skirt
G1 X139.024 Y292.546 E.20574 ; skirt
G1 X137.839 Y290.449 E.20569 ; skirt
G1 X137.4 Y287.954 E.21634 ; skirt
G1 X137.4 Y257.954 E2.56194 ; skirt
G1 X137.797 Y255.578 E.20572 ; skirt
G1 X138.946 Y253.46 E.20577 ; skirt
G1 X140.48 Y252.052 E.17782 ; skirt
M204 S5000 ; adjust acceleration
;WIPE_START
G1 F19200
G1 X140.524 Y252.011 E-.00446 ; wipe and retract
G1 X140.721 Y251.831 E-.01981 ; wipe and retract
G1 X143.051 Y250.838 E-.18798 ; wipe and retract
G1 X186.051 Y240.838 E-3.27657 ; wipe and retract
G1 X187.706 Y240.649 E-.12363 ; wipe and retract
G1 X207.706 Y240.649 E-1.48438 ; wipe and retract
G1 X210.082 Y241.046 E-.17879 ; wipe and retract
G1 X212.2 Y242.194 E-.1788 ; wipe and retract
G1 X213.829 Y243.969 E-.17881 ; wipe and retract
G1 X214.792 Y246.178 E-.17885 ; wipe and retract
G1 X215.011 Y247.954 E-.13281 ; wipe and retract
G1 X215.011 Y275.644 E-2.05511 ; wipe and retract
;WIPE_END
M204 S8000 ; adjust acceleration
; printing object singlechannel_tipremoval.stl id:0 copy 0
G1 X196.26 Y256.152 Z.792 F24000 ; move to first perimeter point
G1 Z.32 F1800 ; move to first perimeter point
G1 E8 F1500 ;  ; unretract
M204 S1500 ; adjust acceleration
;TYPE:Perimeter
;WIDTH:0.68
G1 F2700
G3 X196.25 Y255.833 I1.091 J-.194 E.02735 ; perimeter
G1 X196.618 Y253.745 E.18106 ; perimeter
G3 X196.932 Y253.202 I1.119 J.284 E.05425 ; perimeter
G1 X198.556 Y251.839 E.18106 ; perimeter
G3 X199.145 Y251.625 I.657 J.889 E.05426 ; perimeter
G1 X201.266 Y251.625 E.18113 ; perimeter
G3 X201.855 Y251.839 I-.068 J1.103 E.05426 ; perimeter
G1 X203.479 Y253.202 E.18106 ; perimeter
G3 X203.793 Y253.745 I-.762 J.802 E.05431 ; perimeter
G1 X204.161 Y255.834 E.18114 ; perimeter
G3 X204.052 Y256.451 I-1.098 J.124 E.05425 ; perimeter
G1 X202.992 Y258.287 E.18105 ; perimeter
G3 X202.511 Y258.69 I-.956 J-.652 E.05427 ; perimeter
G1 X200.519 Y259.415 E.18103 ; perimeter
G3 X199.892 Y259.415 I-.313 J-1.06 E.05429 ; perimeter
G1 X197.9 Y258.69 E.18103 ; perimeter
G3 X197.419 Y258.287 I.448 J-1.022 E.05432 ; perimeter
G1 X196.359 Y256.451 E.18105 ; perimeter
G3 X196.273 Y256.211 I.992 J-.493 E.02182 ; perimeter
M204 S5000 ; adjust acceleration
M204 S8000 ; adjust acceleration
G1 X196.273 Y256.211 F24000 ; move to first perimeter point
G1 X196.87 Y256.042 ; move to first perimeter point
M204 S1500 ; adjust acceleration
;TYPE:External perimeter
G1 F2700
G1 X196.852 Y255.939 E.00893 ; perimeter
G1 X197.221 Y253.849 E.18124 ; perimeter
G1 X197.325 Y253.67 E.01768 ; perimeter
G1 X198.949 Y252.308 E.181 ; perimeter
G1 X199.145 Y252.236 E.01783 ; perimeter
G1 X201.266 Y252.236 E.18113 ; perimeter
G1 X201.462 Y252.308 E.01783 ; perimeter
G1 X203.086 Y253.67 E.181 ; perimeter
G1 X203.191 Y253.851 E.01787 ; perimeter
G1 X203.559 Y255.94 E.18114 ; perimeter
G1 X203.523 Y256.145 E.01777 ; perimeter
G1 X202.462 Y257.981 E.18109 ; perimeter
G1 X202.302 Y258.116 E.01788 ; perimeter
G1 X200.31 Y258.841 E.18103 ; perimeter
G1 X200.101 Y258.841 E.01785 ; perimeter
G1 X198.109 Y258.116 E.18103 ; perimeter
G1 X197.949 Y257.981 E.01788 ; perimeter
G1 X196.889 Y256.145 E.18105 ; perimeter
G1 X196.881 Y256.101 E.00382 ; perimeter
M204 S5000 ; adjust acceleration
;WIPE_START
G1 F19200
G1 X196.87 Y256.042 E-.00445 ; wipe and retract
G1 X196.852 Y255.939 E-.00776 ; wipe and retract
G1 X197.221 Y253.849 E-.15752 ; wipe and retract
G1 X197.325 Y253.67 E-.01536 ; wipe and retract
G1 X198.949 Y252.308 E-.15731 ; wipe and retract
G1 X199.145 Y252.236 E-.0155 ; wipe and retract
G1 X201.266 Y252.236 E-.15742 ; wipe and retract
G1 X201.462 Y252.308 E-.0155 ; wipe and retract
G1 X203.086 Y253.67 E-.15731 ; wipe and retract
G1 X203.191 Y253.851 E-.01553 ; wipe and retract
G1 X203.559 Y255.94 E-.15743 ; wipe and retract
G1 X203.523 Y256.145 E-.01545 ; wipe and retract
G1 X202.462 Y257.981 E-.15738 ; wipe and retract
G1 X202.302 Y258.116 E-.01554 ; wipe and retract
G1 X200.31 Y258.841 E-.15733 ; wipe and retract
G1 X200.101 Y258.841 E-.01551 ; wipe and retract
G1 X198.109 Y258.116 E-.15733 ; wipe and retract
G1 X197.949 Y257.981 E-.01554 ; wipe and retract
G1 X196.889 Y256.145 E-.15735 ; wipe and retract
G1 X196.881 Y256.101 E-.00332 ; wipe and retract
;WIPE_END
G1 E-6.44416 F1500 ; retract
M204 S8000 ; adjust acceleration
G1 X202.781 Y293.521 Z.981 F24000 ; move to first perimeter point
G1 Z.32 F1800 ; move to first perimeter point
G1 E8 F1500 ;  ; unretract
M204 S1500 ; adjust acceleration
;TYPE:Perimeter
G1 F2700
G3 X202.511 Y293.69 I-.733 J-.871 E.02729 ; perimeter
G1 X200.519 Y294.415 E.18103 ; perimeter
G3 X199.892 Y294.415 I-.313 J-1.059 E.05429 ; perimeter
G1 X197.9 Y293.69 E.18103 ; perimeter
G3 X197.419 Y293.287 I.442 J-1.015 E.05433 ; perimeter
G1 X196.359 Y291.451 E.18105 ; perimeter
G3 X196.25 Y290.833 I.989 J-.493 E.05434 ; perimeter
G1 X196.618 Y288.745 E.18106 ; perimeter
G3 X196.932 Y288.202 I1.078 J.26 E.05431 ; perimeter
G1 X198.556 Y286.839 E.18106 ; perimeter
G3 X199.145 Y286.625 I.661 J.899 E.05425 ; perimeter
G1 X201.266 Y286.625 E.18113 ; perimeter
G3 X201.855 Y286.839 I-.072 J1.113 E.05425 ; perimeter
G1 X203.479 Y288.202 E.18106 ; perimeter
G1 X203.676 Y288.433 E.02593 ; perimeter
G1 X203.793 Y288.745 E.02846 ; perimeter
G1 X204.161 Y290.834 E.18114 ; perimeter
G3 X204.052 Y291.451 I-1.098 J.124 E.05425 ; perimeter
G1 X202.992 Y293.287 E.18105 ; perimeter
G3 X202.826 Y293.482 I-.944 J-.637 E.02192 ; perimeter
M204 S5000 ; adjust acceleration
M204 S8000 ; adjust acceleration
G1 X202.826 Y293.482 F24000 ; move to first perimeter point
G1 X202.382 Y293.049 ; move to first perimeter point
M204 S1500 ; adjust acceleration
;TYPE:External perimeter
G1 F2700
G1 X202.302 Y293.116 E.00891 ; perimeter
G1 X200.31 Y293.841 E.18103 ; perimeter
G1 X200.101 Y293.841 E.01785 ; perimeter
G1 X198.109 Y293.116 E.18103 ; perimeter
G1 X197.949 Y292.981 E.01788 ; perimeter
G1 X196.889 Y291.145 E.18105 ; perimeter
G1 X196.852 Y290.939 E.01787 ; perimeter
G1 X197.22 Y288.851 E.18106 ; perimeter
G1 X197.325 Y288.67 E.01787 ; perimeter
G1 X198.949 Y287.308 E.181 ; perimeter
G1 X199.145 Y287.236 E.01783 ; perimeter
G1 X201.266 Y287.236 E.18113 ; perimeter
G1 X201.462 Y287.308 E.01783 ; perimeter
G1 X203.086 Y288.67 E.181 ; perimeter
G1 X203.152 Y288.747 E.00866 ; perimeter
G1 X203.191 Y288.851 E.00949 ; perimeter
G1 X203.559 Y290.94 E.18114 ; perimeter
G1 X203.523 Y291.145 E.01777 ; perimeter
G1 X202.462 Y292.981 E.18109 ; perimeter
G1 X202.428 Y293.01 E.00382 ; perimeter
M204 S5000 ; adjust acceleration
;WIPE_START
G1 F19200
G1 X202.382 Y293.049 E-.00448 ; wipe and retract
G1 X202.302 Y293.116 E-.00774 ; wipe and retract
G1 X200.31 Y293.841 E-.15733 ; wipe and retract
G1 X200.101 Y293.841 E-.01551 ; wipe and retract
G1 X198.109 Y293.116 E-.15733 ; wipe and retract
G1 X197.949 Y292.981 E-.01554 ; wipe and retract
G1 X196.889 Y291.145 E-.15735 ; wipe and retract
G1 X196.852 Y290.939 E-.01553 ; wipe and retract
G1 X197.22 Y288.851 E-.15736 ; wipe and retract
G1 X197.325 Y288.67 E-.01553 ; wipe and retract
G1 X198.949 Y287.308 E-.15731 ; wipe and retract
G1 X199.145 Y287.236 E-.0155 ; wipe and retract
G1 X201.266 Y287.236 E-.15742 ; wipe and retract
G1 X201.462 Y287.308 E-.0155 ; wipe and retract
G1 X203.086 Y288.67 E-.15731 ; wipe and retract
G1 X203.152 Y288.747 E-.00753 ; wipe and retract
G1 X203.191 Y288.851 E-.00824 ; wipe and retract
G1 X203.559 Y290.94 E-.15743 ; wipe and retract
G1 X203.523 Y291.145 E-.01545 ; wipe and retract
G1 X202.462 Y292.981 E-.15738 ; wipe and retract
G1 X202.428 Y293.01 E-.00332 ; wipe and retract
;WIPE_END
G1 E-6.44391 F1500 ; retract
M204 S8000 ; adjust acceleration
G1 X188.592 Y287.087 Z.583 F24000 ; move to first perimeter point
G1 Z.32 F1800 ; move to first perimeter point
G1 E8 F1500 ;  ; unretract
M204 S1500 ; adjust acceleration
;TYPE:Perimeter
G1 F2700
G2 X187.94 Y286.803 I-.691 J.695 E.06215 ; perimeter
G1 X150.184 Y286.803 E3.22428 ; perimeter
;WIDTH:0.720289
G1 X149.73 Y286.783 E.04137 ; perimeter
;WIDTH:0.760579
G2 X148.822 Y286.777 I-.497 J7.174 E.08782 ; perimeter
;WIDTH:0.731221
G1 X148.369 Y286.792 E.04195 ; perimeter
;WIDTH:0.701939
G1 X146.371 Y286.792 E.17675 ; perimeter
;WIDTH:0.705907
G1 X145.87 Y286.79 E.0446 ; perimeter
G1 X145.87 Y286.139 E.05795 ; perimeter
G1 X146.202 Y286.153 E.02958 ; perimeter
;WIDTH:0.715315
G3 X148.569 Y286.152 I1.202 J46.105 E.21384 ; perimeter
;WIDTH:0.734768
G1 X148.895 Y286.114 E.03054 ; perimeter
;WIDTH:0.760579
G2 X149.389 Y286.009 I-.01 J-1.264 E.04914 ; perimeter
;WIDTH:0.715185
G1 X150.143 Y285.705 E.07342 ; perimeter
;WIDTH:0.68
G2 X151.457 Y278.794 I-1.95 J-3.952 E.69569 ; perimeter
G2 X150.473 Y277.987 I-4.156 J4.066 E.1089 ; perimeter
G1 X149.572 Y277.573 E.08468 ; perimeter
G2 X148.107 Y277.357 I-1.512 J5.165 E.12686 ; perimeter
G3 X147.188 Y277.355 I-.452 J-4.057 E.07865 ; perimeter
G3 X146.188 Y277.355 I-.5 J-4.622 E.08556 ; perimeter
G1 X145.857 Y277.374 E.02831 ; perimeter
G1 X145.857 Y271.386 E.51136 ; perimeter
G2 X146.634 Y271.376 I.331 J-4.563 E.06644 ; perimeter
G2 X147.806 Y271.375 I.578 J-7.399 E.10019 ; perimeter
G1 X148.593 Y271.386 E.06721 ; perimeter
G1 X149.537 Y271.208 E.08204 ; perimeter
G1 X150.326 Y270.893 E.07255 ; perimeter
G2 X152.162 Y269.197 I-2.331 J-4.367 E.21578 ; perimeter
G2 X150.69 Y262.827 I-3.975 J-2.436 E.61871 ; perimeter
G1 X149.746 Y262.369 E.0896 ; perimeter
G1 X148.886 Y262.157 E.07564 ; perimeter
G2 X147.687 Y262.136 I-.705 J5.974 E.10258 ; perimeter
G2 X146.634 Y262.132 I-.544 J5.741 E.09005 ; perimeter
G1 X145.857 Y262.123 E.06636 ; perimeter
G1 X145.857 Y259.106 E.25765 ; perimeter
G1 X187.94 Y259.106 E3.5938 ; perimeter
G2 X188.808 Y258.484 I-.037 J-.97 E.09657 ; perimeter
G1 X188.857 Y258.189 E.02554 ; perimeter
G1 X188.857 Y249.106 E.77567 ; perimeter
G1 X206.554 Y249.106 E1.51129 ; perimeter
G1 X206.554 Y251.229 E.1813 ; perimeter
G1 X206.554 Y296.803 E3.89192 ; perimeter
G1 X188.857 Y296.803 E1.51129 ; perimeter
G1 X188.857 Y288.066 E.74612 ; perimeter
G2 X188.761 Y287.311 I-1.712 J-.166 E.06554 ; perimeter
G2 X188.633 Y287.13 I-.86 J.471 E.01897 ; perimeter
M204 S5000 ; adjust acceleration
M204 S8000 ; adjust acceleration
G1 X188.633 Y287.13 F24000 ; move to first perimeter point
G1 X188.161 Y287.525 ; move to first perimeter point
M204 S1500 ; adjust acceleration
;TYPE:External perimeter
G1 F2700
G2 X187.94 Y287.414 I-.262 J.248 E.02156 ; perimeter
G1 X145.246 Y287.414 E3.64598 ; perimeter
G1 X145.246 Y285.543 E.15978 ; perimeter
G3 X146.229 Y285.529 I.559 J4.919 E.08409 ; perimeter
G3 X148.471 Y285.534 I1.067 J26.457 E.19152 ; perimeter
G2 X150.283 Y284.924 I-.374 J-4.107 E.16477 ; perimeter
G2 X150.207 Y278.537 I-2.09 J-3.169 E.6482 ; perimeter
G1 X149.426 Y278.167 E.0738 ; perimeter
G2 X147.701 Y278.001 I-1.247 J3.912 E.14911 ; perimeter
G2 X146.704 Y278.001 I-.497 J4.206 E.08534 ; perimeter
G2 X145.74 Y277.998 I-.495 J4.114 E.08251 ; perimeter
G1 X145.246 Y277.966 E.04227 ; perimeter
G1 X145.246 Y270.769 E.61461 ; perimeter
G2 X146.596 Y270.766 I.651 J-10.419 E.11537 ; perimeter
G2 X147.829 Y270.764 I.604 J-8.086 E.1054 ; perimeter
G1 X148.491 Y270.783 E.05656 ; perimeter
G1 X149.318 Y270.637 E.07172 ; perimeter
G2 X150.461 Y270.106 I-1.512 J-4.749 E.10792 ; perimeter
G2 X152.245 Y266.732 I-2.303 J-3.377 E.33911 ; perimeter
G2 X150.412 Y263.372 I-4.078 J.045 E.34022 ; perimeter
G1 X149.588 Y262.959 E.07871 ; perimeter
G1 X148.847 Y262.767 E.06537 ; perimeter
G2 X146.7 Y262.749 I-1.235 J19.317 E.18345 ; perimeter
G2 X145.738 Y262.746 I-.495 J4.333 E.08232 ; perimeter
G1 X145.246 Y262.716 E.04209 ; perimeter
G1 X145.246 Y258.494 E.36055 ; perimeter
G1 X187.94 Y258.494 E3.64598 ; perimeter
G2 X188.246 Y258.189 I-.029 J-.334 E.04008 ; perimeter
G1 X188.246 Y248.494 E.82793 ; perimeter
G1 X207.166 Y248.494 E1.61573 ; perimeter
G1 X207.166 Y251.229 E.23356 ; perimeter
G1 X207.166 Y297.414 E3.9441 ; perimeter
G1 X188.246 Y297.414 E1.61573 ; perimeter
G1 X188.236 Y287.644 E.83434 ; perimeter
G2 X188.198 Y287.571 I-.337 J.129 E.00704 ; perimeter
M204 S5000 ; adjust acceleration
;WIPE_START
G1 F19200
G1 X188.161 Y287.525 E-.00438 ; wipe and retract
G2 X187.94 Y287.414 I-.263 J.247 E-.01874 ; wipe and retract
G1 X145.246 Y287.414 E-3.1687 ; wipe and retract
G1 X145.246 Y285.543 E-.13886 ; wipe and retract
G3 X146.229 Y285.529 I.562 J4.919 E-.07308 ; wipe and retract
G3 X148.471 Y285.534 I1.062 J26.457 E-.16645 ; wipe and retract
