; generated by PrusaSlicer 2.9.0 on 2025-03-20 at 17:29:40 UTC


;
;

;
;
; 

; external perimeters extrusion width = 0.68mm
; perimeters extrusion width = 0.68mm
; infill extrusion width = 0.68mm
; solid infill extrusion width = 0.68mm
; top infill extrusion width = 0.55mm
; support material extrusion width = 0.68mm
; first layer extrusion width = 0.68mm


; printing object singlechannel_tipremoval.stl id:0 copy 0
; stop printing object singlechannel_tipremoval.stl id:0 copy 0

;TYPE:Custom
TURN_OFF_HEATERS
TURN_OFF_ALL_FILAMENT_SENSORS
BT_DISABLE_ALL_BUFFERS
INITIALIZE_TOOL_USE_COUNT










; Heat the bed first
M140 S50
M190 S50 ; wait for bed temp

CHECK_CORRECT_TOOL_LOADED TOOL=0

STORE_TOOLHEAD_POSITION X=165 Y=140

G0 Z10 F5000    ; Ensure nozzle is at 3mm over the bed

; Drop Off T0 
T_1


SET_PRINT_STATUS_START
G92 E0
_INITIALIZE_ALL_TOOLS
INITIALIZE_TOOL_USE_COUNT

; Set Temperatures for other tools apart from T0
 SET_TOOL_FOR_PRINT T=0 R=150 S=210 





;Pick up the initial extruder

T0 ;initial extruder


;OFFSET_T0
SET_GCODE_OFFSET X=0 Y=0 Z=-0.2 move=1
SET_FILAMENT_SENSOR SENSOR=encoder_t0 ENABLE=0




ENABLE_BUFFER BUFFER=TN0 ; Enable Buffer for Initial Toolhead
KTCC_INIT_PRINT_STATS
TEMPADJUSTEXHAUST
;HYPERLAPSE ACTION=START
SET_FILAMENT_SENSOR SENSOR=encoder_t0 ENABLE=0
;END_START
G21 ; set units to millimeters
G90 ; use absolute coordinates
M83 ; use relative distances for extrusion
M107 ; disable fan
;LAYER_CHANGE
;Z:0.32
;HEIGHT:0.32
G1 E-8 F1500 ; retract
G1 Z1.82 F1800 ; lift
G1 X140.925 Y165.539 F24000 ; move to first layer point
G1 Z.32 F1800 ; move to first layer point
G1 E8 F1500 ;  ; unretract
M204 S1500 ; adjust acceleration
;TYPE:Skirt/Brim
;WIDTH:0.68
G1 F2700
G1 X143.707 Y164.289 E.24805 ; skirt
G1 X186.707 Y154.289 E3.59057 ; skirt
G1 X188.5 Y154.083 E.14679 ; skirt
G1 X208.5 Y154.083 E1.62663 ; skirt
G1 X210.977 Y154.48 E.20403 ; skirt
G1 X213.205 Y155.633 E.20403 ; skirt
G1 X214.961 Y157.425 E.20406 ; skirt
G1 X216.068 Y159.676 E.20402 ; skirt
G1 X216.417 Y162 E.19113 ; skirt
G1 X216.417 Y212 E4.06657 ; skirt
G1 X216.02 Y214.477 E.20403 ; skirt
G1 X214.867 Y216.705 E.20403 ; skirt
G1 X213.075 Y218.461 E.20406 ; skirt
G1 X210.824 Y219.568 E.20402 ; skirt
G1 X208.5 Y219.917 E.19113 ; skirt
G1 X188.5 Y219.917 E1.62663 ; skirt
G1 X186.707 Y219.711 E.14679 ; skirt
G1 X143.707 Y209.711 E3.59057 ; skirt
G1 X141.384 Y208.763 E.20406 ; skirt
G1 X139.475 Y207.136 E.204 ; skirt
G1 X138.17 Y204.993 E.20407 ; skirt
G1 X137.583 Y202 E.24806 ; skirt
G1 X137.583 Y172 E2.43994 ; skirt
G1 X137.98 Y169.523 E.20403 ; skirt
G1 X139.133 Y167.295 E.20403 ; skirt
G1 X140.882 Y165.581 E.19917 ; skirt
M204 S5000 ; adjust acceleration
M204 S8000 ; adjust acceleration
G1 X140.882 Y165.581 F24000 ; move to first skirt point
G1 X141.319 Y166.057 ; move to first skirt point
M204 S1500 ; adjust acceleration
G1 F2700
G1 X141.515 Y165.877 E.02164 ; skirt
G1 X143.845 Y164.884 E.20599 ; skirt
G1 X186.845 Y154.884 E3.59057 ; skirt
G1 X188.5 Y154.694 E.13549 ; skirt
G1 X208.5 Y154.694 E1.62663 ; skirt
G1 X210.876 Y155.092 E.19594 ; skirt
G1 X212.994 Y156.24 E.19594 ; skirt
G1 X214.623 Y158.015 E.19594 ; skirt
G1 X215.586 Y160.224 E.19599 ; skirt
G1 X215.806 Y162 E.14555 ; skirt
G1 X215.806 Y212 E4.06657 ; skirt
G1 X215.408 Y214.376 E.19594 ; skirt
G1 X214.26 Y216.494 E.19594 ; skirt
G1 X212.485 Y218.123 E.19594 ; skirt
G1 X210.276 Y219.086 E.19599 ; skirt
G1 X208.5 Y219.306 E.14555 ; skirt
G1 X188.5 Y219.306 E1.62663 ; skirt
G1 X186.845 Y219.116 E.13549 ; skirt
G1 X143.845 Y209.116 E3.59057 ; skirt
G1 X141.621 Y208.191 E.1959 ; skirt
G1 X139.818 Y206.592 E.196 ; skirt
G1 X138.633 Y204.494 E.19597 ; skirt
G1 X138.194 Y202 E.20596 ; skirt
G1 X138.194 Y172 E2.43994 ; skirt
G1 X138.592 Y169.624 E.19594 ; skirt
G1 X139.74 Y167.506 E.19594 ; skirt
G1 X141.275 Y166.097 E.16946 ; skirt
M204 S5000 ; adjust acceleration
;WIPE_START
G1 F19200
G1 X141.319 Y166.057 E-.00441 ; wipe and retract
G1 X141.515 Y165.877 E-.01975 ; wipe and retract
G1 X143.845 Y164.884 E-.18798 ; wipe and retract
G1 X186.845 Y154.884 E-3.27657 ; wipe and retract
G1 X188.5 Y154.694 E-.12364 ; wipe and retract
G1 X208.5 Y154.694 E-1.48438 ; wipe and retract
G1 X210.876 Y155.092 E-.1788 ; wipe and retract
G1 X212.994 Y156.24 E-.1788 ; wipe and retract
G1 X214.623 Y158.015 E-.17881 ; wipe and retract
G1 X215.586 Y160.224 E-.17885 ; wipe and retract
G1 X215.806 Y162 E-.13282 ; wipe and retract
G1 X215.806 Y189.691 E-2.05519 ; wipe and retract
;WIPE_END
M204 S8000 ; adjust acceleration
; printing object singlechannel_tipremoval.stl id:0 copy 0
G1 X197.055 Y170.198 Z.792 F24000 ; move to first perimeter point
G1 Z.32 F1800 ; move to first perimeter point
G1 E8 F1500 ;  ; unretract
M204 S1500 ; adjust acceleration
;TYPE:Perimeter
;WIDTH:0.68
G1 F2700
G3 X197.045 Y169.879 I1.091 J-.195 E.02605 ; perimeter
G1 X197.413 Y167.791 E.17244 ; perimeter
G3 X197.726 Y167.248 I1.119 J.284 E.05162 ; perimeter
G1 X199.351 Y165.885 E.1725 ; perimeter
G3 X199.94 Y165.671 I.657 J.889 E.05168 ; perimeter
G1 X202.06 Y165.671 E.17242 ; perimeter
G3 X202.649 Y165.885 I-.068 J1.103 E.05168 ; perimeter
G1 X204.274 Y167.248 E.1725 ; perimeter
G3 X204.587 Y167.791 I-.762 J.802 E.05168 ; perimeter
G1 X204.955 Y169.88 E.17252 ; perimeter
G3 X204.846 Y170.497 I-1.097 J.124 E.05167 ; perimeter
G1 X203.786 Y172.333 E.17242 ; perimeter
G3 X203.306 Y172.736 I-.956 J-.652 E.05162 ; perimeter
G1 X201.314 Y173.461 E.17241 ; perimeter
G3 X200.686 Y173.461 I-.314 J-1.06 E.05179 ; perimeter
G1 X198.694 Y172.736 E.17241 ; perimeter
G3 X198.214 Y172.333 I.448 J-1.022 E.05167 ; perimeter
G1 X197.154 Y170.497 E.17242 ; perimeter
G3 X197.067 Y170.257 I.992 J-.494 E.02081 ; perimeter
M204 S5000 ; adjust acceleration
M204 S8000 ; adjust acceleration
G1 X197.067 Y170.257 F24000 ; move to first perimeter point
G1 X197.665 Y170.088 ; move to first perimeter point
M204 S1500 ; adjust acceleration
;TYPE:External perimeter
G1 F2700
G1 X197.647 Y169.985 E.0085 ; perimeter
G1 X198.015 Y167.894 E.17268 ; perimeter
G1 X198.119 Y167.716 E.01677 ; perimeter
G1 X199.743 Y166.353 E.17244 ; perimeter
G1 X199.94 Y166.282 E.01703 ; perimeter
G1 X202.06 Y166.282 E.17242 ; perimeter
G1 X202.257 Y166.353 E.01703 ; perimeter
G1 X203.881 Y167.716 E.17244 ; perimeter
G1 X203.985 Y167.897 E.01698 ; perimeter
G1 X204.353 Y169.985 E.17244 ; perimeter
G1 X204.317 Y170.191 E.01701 ; perimeter
G1 X203.257 Y172.027 E.17242 ; perimeter
G1 X203.097 Y172.161 E.01697 ; perimeter
G1 X201.105 Y172.887 E.17244 ; perimeter
G1 X200.895 Y172.887 E.01708 ; perimeter
G1 X198.903 Y172.161 E.17244 ; perimeter
G1 X198.743 Y172.027 E.01697 ; perimeter
G1 X197.683 Y170.191 E.17242 ; perimeter
G1 X197.675 Y170.147 E.00364 ; perimeter
M204 S5000 ; adjust acceleration
;WIPE_START
G1 F19200
G1 X197.665 Y170.088 E-.00444 ; wipe and retract
G1 X197.647 Y169.985 E-.00776 ; wipe and retract
G1 X198.015 Y167.894 E-.15758 ; wipe and retract
G1 X198.119 Y167.716 E-.0153 ; wipe and retract
G1 X199.743 Y166.353 E-.15736 ; wipe and retract
G1 X199.94 Y166.282 E-.01554 ; wipe and retract
G1 X202.06 Y166.282 E-.15734 ; wipe and retract
G1 X202.257 Y166.353 E-.01554 ; wipe and retract
G1 X203.881 Y167.716 E-.15736 ; wipe and retract
G1 X203.985 Y167.897 E-.01549 ; wipe and retract
G1 X204.353 Y169.985 E-.15736 ; wipe and retract
G1 X204.317 Y170.191 E-.01552 ; wipe and retract
G1 X203.257 Y172.027 E-.15735 ; wipe and retract
G1 X203.097 Y172.161 E-.01549 ; wipe and retract
G1 X201.105 Y172.887 E-.15736 ; wipe and retract
G1 X200.895 Y172.887 E-.01559 ; wipe and retract
G1 X198.903 Y172.161 E-.15736 ; wipe and retract
G1 X198.743 Y172.027 E-.01549 ; wipe and retract
G1 X197.683 Y170.191 E-.15735 ; wipe and retract
G1 X197.675 Y170.147 E-.00332 ; wipe and retract
;WIPE_END
G1 E-6.4441 F1500 ; retract
M204 S8000 ; adjust acceleration
G1 X197.055 Y205.199 Z.932 F24000 ; move to first perimeter point
G1 Z.32 F1800 ; move to first perimeter point
G1 E8 F1500 ;  ; unretract
M204 S1500 ; adjust acceleration
;TYPE:Perimeter
G1 F2700
G3 X197.045 Y204.879 I1.087 J-.195 E.02613 ; perimeter
G1 X197.413 Y202.791 E.17244 ; perimeter
G3 X197.726 Y202.248 I1.078 J.26 E.05168 ; perimeter
G1 X199.351 Y200.885 E.1725 ; perimeter
G3 X199.94 Y200.671 I.66 J.899 E.05166 ; perimeter
G1 X202.06 Y200.671 E.17242 ; perimeter
G3 X202.649 Y200.885 I-.071 J1.113 E.05166 ; perimeter
G1 X204.274 Y202.248 E.1725 ; perimeter
G1 X204.471 Y202.479 E.02469 ; perimeter
G1 X204.587 Y202.791 E.02707 ; perimeter
G1 X204.955 Y204.88 E.17252 ; perimeter
G3 X204.846 Y205.497 I-1.097 J.124 E.05167 ; perimeter
G1 X203.786 Y207.333 E.17242 ; perimeter
G3 X203.306 Y207.736 I-.943 J-.637 E.05164 ; perimeter
G1 X201.314 Y208.461 E.17241 ; perimeter
G3 X200.686 Y208.461 I-.314 J-1.059 E.05179 ; perimeter
G1 X198.694 Y207.736 E.17241 ; perimeter
G3 X198.214 Y207.333 I.443 J-1.015 E.05168 ; perimeter
G1 X197.154 Y205.497 E.17242 ; perimeter
G3 X197.067 Y205.257 I.988 J-.493 E.02081 ; perimeter
M204 S5000 ; adjust acceleration
M204 S8000 ; adjust acceleration
G1 X197.067 Y205.257 F24000 ; move to first perimeter point
G1 X197.665 Y205.088 ; move to first perimeter point
M204 S1500 ; adjust acceleration
;TYPE:External perimeter
G1 F2700
G1 X197.647 Y204.985 E.0085 ; perimeter
G1 X198.015 Y202.897 E.17244 ; perimeter
G1 X198.119 Y202.716 E.01698 ; perimeter
G1 X199.743 Y201.353 E.17244 ; perimeter
G1 X199.94 Y201.282 E.01703 ; perimeter
G1 X202.06 Y201.282 E.17242 ; perimeter
G1 X202.257 Y201.353 E.01703 ; perimeter
G1 X203.881 Y202.716 E.17244 ; perimeter
G1 X203.946 Y202.793 E.0082 ; perimeter
G1 X203.985 Y202.897 E.00903 ; perimeter
G1 X204.353 Y204.985 E.17244 ; perimeter
G1 X204.317 Y205.191 E.01701 ; perimeter
G1 X203.257 Y207.027 E.17242 ; perimeter
G1 X203.097 Y207.161 E.01697 ; perimeter
G1 X201.105 Y207.887 E.17244 ; perimeter
G1 X200.895 Y207.887 E.01708 ; perimeter
G1 X198.903 Y207.161 E.17244 ; perimeter
G1 X198.743 Y207.027 E.01697 ; perimeter
G1 X197.683 Y205.191 E.17242 ; perimeter
G1 X197.675 Y205.147 E.00364 ; perimeter
M204 S5000 ; adjust acceleration
;WIPE_START
G1 F19200
G1 X197.665 Y205.088 E-.00444 ; wipe and retract
G1 X197.647 Y204.985 E-.00776 ; wipe and retract
G1 X198.015 Y202.897 E-.15736 ; wipe and retract
G1 X198.119 Y202.716 E-.01549 ; wipe and retract
G1 X199.743 Y201.353 E-.15736 ; wipe and retract
G1 X199.94 Y201.282 E-.01554 ; wipe and retract
G1 X202.06 Y201.282 E-.15734 ; wipe and retract
G1 X202.257 Y201.353 E-.01554 ; wipe and retract
G1 X203.881 Y202.716 E-.15736 ; wipe and retract
G1 X203.946 Y202.793 E-.00748 ; wipe and retract
G1 X203.985 Y202.897 E-.00824 ; wipe and retract
G1 X204.353 Y204.985 E-.15736 ; wipe and retract
G1 X204.317 Y205.191 E-.01552 ; wipe and retract
G1 X203.257 Y207.027 E-.15735 ; wipe and retract
G1 X203.097 Y207.161 E-.01549 ; wipe and retract
G1 X201.105 Y207.887 E-.15736 ; wipe and retract
G1 X200.895 Y207.887 E-.01559 ; wipe and retract
G1 X198.903 Y207.161 E-.15736 ; wipe and retract
G1 X198.743 Y207.027 E-.01549 ; wipe and retract
G1 X197.683 Y205.191 E-.15735 ; wipe and retract
G1 X197.675 Y205.147 E-.00332 ; wipe and retract
;WIPE_END
G1 E-6.4439 F1500 ; retract
M204 S8000 ; adjust acceleration
G1 X189.386 Y201.133 Z.481 F24000 ; move to first perimeter point
G1 Z.32 F1800 ; move to first perimeter point
G1 E8 F1500 ;  ; unretract
M204 S1500 ; adjust acceleration
;TYPE:Perimeter
G1 F2700
G2 X188.734 Y200.849 I-.69 J.695 E.05919 ; perimeter
G1 X150.811 Y200.849 E3.08433 ; perimeter
;WIDTH:0.727995
G1 X150.59 Y200.825 E.0195 ; perimeter
;WIDTH:0.77599
G1 X150.37 Y200.801 E.02083 ; perimeter
;WIDTH:0.823985
G1 X150.149 Y200.777 E.02234 ; perimeter
;WIDTH:0.871981
G2 X149.053 Y200.776 I-.553 J7.066 E.11725 ; perimeter
;WIDTH:0.826935
G1 X148.137 Y200.775 E.09241 ; perimeter
;WIDTH:0.83066
G1 X146.725 Y200.775 E.14314 ; perimeter
;WIDTH:0.827732
G1 X146.725 Y199.997 E.07857 ; perimeter
;WIDTH:0.841392
G1 X148.562 Y199.997 E.18885 ; perimeter
;WIDTH:0.840828
G1 X149.269 Y200.015 E.07265 ; perimeter
;WIDTH:0.871981
G1 X149.875 Y199.953 E.0651 ; perimeter
G1 X149.931 Y199.922 E.00684 ; perimeter
;WIDTH:0.83781
G1 X149.988 Y199.892 E.00659 ; perimeter
;WIDTH:0.803639
G1 X150.044 Y199.861 E.00626 ; perimeter
;WIDTH:0.769468
G1 X150.398 Y199.712 E.03581 ; perimeter
;WIDTH:0.724734
G1 X150.751 Y199.562 E.03348 ; perimeter
;WIDTH:0.68
G2 X151.124 Y192.239 I-1.759 J-3.76 E.73093 ; perimeter
G2 X149.436 Y191.675 I-2.318 J4.126 E.14561 ; perimeter
G1 X148.645 Y191.666 E.06434 ; perimeter
G2 X147.561 Y191.68 I-.447 J7.613 E.08824 ; perimeter
G2 X146.651 Y191.671 I-.505 J5.288 E.07411 ; perimeter
G1 X146.651 Y185.432 E.50743 ; perimeter
G2 X147.428 Y185.422 I.331 J-4.563 E.06328 ; perimeter
G2 X148.6 Y185.421 I.579 J-7.4 E.09542 ; perimeter
G1 X149.387 Y185.431 E.06401 ; perimeter
G2 X150.638 Y185.136 I-.499 J-4.908 E.10483 ; perimeter
G2 X153.47 Y182.08 I-1.609 J-4.332 E.35154 ; perimeter
G2 X151.484 Y176.873 I-4.494 J-1.268 E.48567 ; perimeter
G1 X150.54 Y176.414 E.08537 ; perimeter
G1 X149.68 Y176.202 E.07204 ; perimeter
G2 X148.482 Y176.181 I-.704 J5.975 E.09761 ; perimeter
G2 X147.428 Y176.178 I-.545 J5.742 E.08584 ; perimeter
G1 X146.651 Y176.168 E.0632 ; perimeter
G1 X146.651 Y173.151 E.24538 ; perimeter
G1 X188.734 Y173.151 E3.42266 ; perimeter
G2 X189.602 Y172.53 I-.037 J-.969 E.09191 ; perimeter
G1 X189.651 Y172.234 E.0244 ; perimeter
G1 X189.651 Y163.151 E.73873 ; perimeter
G1 X207.349 Y163.151 E1.4394 ; perimeter
G1 X207.349 Y165.275 E.17275 ; perimeter
G1 X207.349 Y210.849 E3.70659 ; perimeter
G1 X189.651 Y210.849 E1.4394 ; perimeter
G1 X189.651 Y202.112 E.71059 ; perimeter
G2 X189.555 Y201.357 I-1.711 J-.166 E.06242 ; perimeter
G2 X189.428 Y201.176 I-.859 J.471 E.01802 ; perimeter
M204 S5000 ; adjust acceleration
M204 S8000 ; adjust acceleration
G1 X189.428 Y201.176 F24000 ; move to first perimeter point
G1 X188.955 Y201.57 ; move to first perimeter point
M204 S1500 ; adjust acceleration
;TYPE:External perimeter
G1 F2700
G2 X188.734 Y201.46 I-.262 J.248 E.02049 ; perimeter
G1 X146.04 Y201.46 E3.47236 ; perimeter
G1 X146.04 Y199.33 E.17324 ; perimeter
G3 X147.157 Y199.332 I.546 J6.186 E.09097 ; perimeter
G3 X149.176 Y199.335 I.987 J15.72 E.16432 ; perimeter
G2 X151.296 Y198.494 I-.232 J-3.679 E.18859 ; perimeter
G2 X150.863 Y192.792 I-2.308 J-2.692 E.54096 ; perimeter
G1 X150.067 Y192.426 E.07126 ; perimeter
G2 X148.494 Y192.299 I-1.089 J3.697 E.12926 ; perimeter
G2 X147.5 Y192.3 I-.495 J3.896 E.08106 ; perimeter
G2 X146.537 Y192.296 I-.495 J3.814 E.07853 ; perimeter
G1 X146.04 Y192.267 E.04049 ; perimeter
G1 X146.04 Y184.815 E.60608 ; perimeter
G2 X147.391 Y184.812 I.651 J-10.419 E.10996 ; perimeter
G2 X148.624 Y184.81 I.604 J-8.087 E.10038 ; perimeter
G1 X149.285 Y184.829 E.05378 ; perimeter
G1 X150.113 Y184.683 E.06838 ; perimeter
G2 X151.255 Y184.152 I-1.513 J-4.749 E.1027 ; perimeter
G2 X151.207 Y177.417 I-2.267 J-3.351 E.64713 ; perimeter
G1 X150.382 Y177.005 E.075 ; perimeter
G1 X149.642 Y176.813 E.06218 ; perimeter
G2 X147.494 Y176.795 I-1.235 J19.317 E.1748 ; perimeter
G2 X146.532 Y176.792 I-.495 J4.333 E.0784 ; perimeter
G1 X146.04 Y176.761 E.04009 ; perimeter
G1 X146.04 Y172.54 E.3433 ; perimeter
G1 X188.734 Y172.54 E3.47236 ; perimeter
G2 X189.04 Y172.234 I-.029 J-.335 E.03825 ; perimeter
G1 X189.04 Y162.54 E.78843 ; perimeter
G1 X207.96 Y162.54 E1.53879 ; perimeter
G1 X207.96 Y165.275 E.22244 ; perimeter
G1 X207.96 Y211.46 E3.75628 ; perimeter
G1 X189.04 Y211.46 E1.53879 ; perimeter
G1 X189.03 Y201.69 E.79461 ; perimeter
G2 X188.993 Y201.617 I-.337 J.128 E.00667 ; perimeter
M204 S5000 ; adjust acceleration
;WIPE_START
G1 F19200
G1 X188.955 Y201.57 E-.00449 ; wipe and retract
G2 X188.734 Y201.46 I-.262 J.248 E-.0187 ; wipe and retract
G1 X146.04 Y201.46 E-3.1687 ; wipe and retract
G1 X146.04 Y199.33 E-.15809 ; wipe and retract
G3 X147.157 Y199.332 I.547 J6.186 E-.08301 ; wipe and retract
G3 X149.176 Y199.335 I.986 J15.72 E-.14995 ; wipe and retract
G2 X151.296 Y198.494 I-.233 J-3.679 E-.1721 ; wipe and retract
