; generated by PrusaSlicer 2.9.0 on 2025-03-21 at 17:41:20 UTC


;
;

;
;
; 

; external perimeters extrusion width = 0.40mm
; perimeters extrusion width = 0.40mm
; infill extrusion width = 0.45mm
; solid infill extrusion width = 0.45mm
; top infill extrusion width = 0.40mm
; support material extrusion width = 0.45mm
; first layer extrusion width = 0.55mm


; printing object square_calib.stl id:0 copy 0
; stop printing object square_calib.stl id:0 copy 0

;TYPE:Custom
TURN_OFF_HEATERS
TURN_OFF_ALL_FILAMENT_SENSORS
BT_DISABLE_ALL_BUFFERS
INITIALIZE_TOOL_USE_COUNT










; Heat the bed first
M140 S50
M190 S50 ; wait for bed temp

CHECK_CORRECT_TOOL_LOADED TOOL=0

STORE_TOOLHEAD_POSITION X=165 Y=140

G0 Z10 F5000    ; Ensure nozzle is at 3mm over the bed

; Drop Off T0 
T_1


SET_PRINT_STATUS_START
G92 E0
_INITIALIZE_ALL_TOOLS
INITIALIZE_TOOL_USE_COUNT

; Set Temperatures for other tools apart from T0
 SET_TOOL_FOR_PRINT T=0 R=150 S=210 





;Pick up the initial extruder

T0 ;initial extruder


;OFFSET_T0
SET_GCODE_OFFSET X=0 Y=0 Z=-0.15 move=1
SET_FILAMENT_SENSOR SENSOR=encoder_t0 ENABLE=0




ENABLE_BUFFER BUFFER=TN0 ; Enable Buffer for Initial Toolhead
KTCC_INIT_PRINT_STATS
TEMPADJUSTEXHAUST
;HYPERLAPSE ACTION=START
SET_FILAMENT_SENSOR SENSOR=encoder_t0 ENABLE=0
;END_START
G21 ; set units to millimeters
G90 ; use absolute coordinates
M83 ; use relative distances for extrusion
M107 ; disable fan
;LAYER_CHANGE
;Z:0.2
;HEIGHT:0.2
G1 E-8 F1500 ; retract
G1 Z1.7 F1800 ; lift
G1 X164.45 Y186.092 F12000 ; move to first layer point
G1 Z.2 F1800 ; move to first layer point
G1 E8 F1500 ;  ; unretract
M204 S500 ; adjust acceleration
;TYPE:Skirt/Brim
;WIDTH:0.55
G1 F1800
G1 X166.69 Y185.021 E.11516 ; skirt
G1 X168.873 Y184.708 E.10228 ; skirt
G1 X188.873 Y184.708 E.9276 ; skirt
G1 X191.325 Y185.105 E.11521 ; skirt
G1 X193.526 Y186.257 E.11522 ; skirt
G1 X195.25 Y188.045 E.1152 ; skirt
G1 X196.321 Y190.285 E.11516 ; skirt
G1 X196.634 Y192.468 E.10228 ; skirt
G1 X196.634 Y212.468 E.9276 ; skirt
G1 X196.237 Y214.92 E.11521 ; skirt
G1 X195.085 Y217.121 E.11522 ; skirt
G1 X193.297 Y218.845 E.1152 ; skirt
G1 X191.056 Y219.916 E.1152 ; skirt
G1 X188.873 Y220.229 E.10228 ; skirt
G1 X168.873 Y220.229 E.9276 ; skirt
G1 X166.422 Y219.832 E.11516 ; skirt
G1 X164.221 Y218.68 E.11522 ; skirt
G1 X162.497 Y216.892 E.1152 ; skirt
G1 X161.426 Y214.651 E.1152 ; skirt
G1 X161.113 Y212.468 E.10228 ; skirt
G1 X161.113 Y192.468 E.9276 ; skirt
G1 X161.51 Y190.017 E.11516 ; skirt
G1 X162.662 Y187.816 E.11522 ; skirt
G1 X164.406 Y186.134 E.11238 ; skirt
M204 S5000 ; adjust acceleration
G1 X164.406 Y186.134 F12000 ; move to first skirt point
G1 X164.768 Y186.53 ; move to first skirt point
M204 S500 ; adjust acceleration
G1 F1800
G1 X164.939 Y186.375 E.0107 ; skirt
G1 X167.143 Y185.424 E.11133 ; skirt
G1 X168.873 Y185.215 E.08082 ; skirt
G1 X188.873 Y185.215 E.9276 ; skirt
G1 X191.241 Y185.612 E.11136 ; skirt
G1 X193.349 Y186.76 E.11133 ; skirt
G1 X194.967 Y188.534 E.11136 ; skirt
G1 X195.918 Y190.738 E.11133 ; skirt
G1 X196.127 Y192.468 E.08082 ; skirt
G1 X196.127 Y212.468 E.9276 ; skirt
G1 X195.73 Y214.836 E.11136 ; skirt
G1 X194.581 Y216.944 E.11135 ; skirt
G1 X192.808 Y218.562 E.11133 ; skirt
G1 X190.604 Y219.513 E.11133 ; skirt
G1 X188.873 Y219.722 E.08087 ; skirt
G1 X168.873 Y219.722 E.9276 ; skirt
G1 X166.506 Y219.325 E.11132 ; skirt
G1 X164.398 Y218.177 E.11133 ; skirt
G1 X162.78 Y216.403 E.11136 ; skirt
G1 X161.829 Y214.199 E.11133 ; skirt
G1 X161.62 Y212.468 E.08087 ; skirt
G1 X161.62 Y192.468 E.9276 ; skirt
G1 X162.017 Y190.101 E.11132 ; skirt
G1 X163.165 Y187.993 E.11133 ; skirt
G1 X164.724 Y186.571 E.09787 ; skirt
M204 S5000 ; adjust acceleration
;WIPE_START
G1 F9600
G1 X164.768 Y186.53 E-.00893 ; wipe and retract
G1 X164.939 Y186.375 E-.03426 ; wipe and retract
G1 X167.143 Y185.424 E-.35631 ; wipe and retract
G1 X168.873 Y185.215 E-.25866 ; wipe and retract
G1 X188.873 Y185.215 E-2.96875 ; wipe and retract
G1 X191.241 Y185.612 E-.35641 ; wipe and retract
G1 X193.349 Y186.76 E-.3563 ; wipe and retract
G1 X194.967 Y188.534 E-.3564 ; wipe and retract
G1 X195.918 Y190.738 E-.35631 ; wipe and retract
G1 X196.127 Y192.468 E-.25866 ; wipe and retract
G1 X196.127 Y210.584 E-2.68901 ; wipe and retract
;WIPE_END
; printing object square_calib.stl id:0 copy 0
G1 X179.199 Y202.794 Z.525 F12000 ; move to first perimeter point
G1 Z.2 F1800 ; move to first perimeter point
G1 E8 F1500 ;  ; unretract
M204 S500 ; adjust acceleration
;TYPE:Perimeter
;WIDTH:0.694037
G1 F1800
G1 X178.548 Y202.794 E.03877 ; perimeter
G1 X178.548 Y202.143 E.03877 ; perimeter
G1 X179.199 Y202.143 E.03877 ; perimeter
G1 X179.199 Y202.468 E.01936 ; perimeter
G1 X179.199 Y202.734 E.01584 ; perimeter
M204 S5000 ; adjust acceleration
G1 X179.778 Y203.373 F12000 ; move to first perimeter point
M204 S500 ; adjust acceleration
;WIDTH:0.549999
G1 F1800
G1 X177.969 Y203.373 E.0839 ; perimeter
G1 X177.969 Y201.564 E.0839 ; perimeter
G1 X179.778 Y201.564 E.0839 ; perimeter
G1 X179.778 Y202.468 E.04193 ; perimeter
G1 X179.778 Y203.313 E.03919 ; perimeter
M204 S5000 ; adjust acceleration
G1 X179.778 Y203.313 F12000 ; move to first perimeter point
G1 X180.285 Y203.88 ; move to first perimeter point
M204 S500 ; adjust acceleration
G1 F1800
G1 X177.462 Y203.88 E.13093 ; perimeter
G1 X177.462 Y201.057 E.13093 ; perimeter
G1 X180.285 Y201.057 E.13093 ; perimeter
G1 X180.285 Y202.468 E.06544 ; perimeter
G1 X180.285 Y203.82 E.06271 ; perimeter
M204 S5000 ; adjust acceleration
G1 X180.285 Y203.82 F12000 ; move to first perimeter point
G1 X180.792 Y204.387 ; move to first perimeter point
M204 S500 ; adjust acceleration
G1 F1800
G1 X176.955 Y204.387 E.17796 ; perimeter
G1 X176.955 Y200.55 E.17796 ; perimeter
G1 X180.792 Y200.55 E.17796 ; perimeter
G1 X180.792 Y202.468 E.08896 ; perimeter
G1 X180.792 Y204.327 E.08622 ; perimeter
M204 S5000 ; adjust acceleration
G1 X180.792 Y204.327 F12000 ; move to first perimeter point
G1 X181.299 Y204.894 ; move to first perimeter point
M204 S500 ; adjust acceleration
G1 F1800
G1 X176.448 Y204.894 E.22499 ; perimeter
G1 X176.448 Y200.043 E.22499 ; perimeter
G1 X181.299 Y200.043 E.22499 ; perimeter
G1 X181.299 Y202.468 E.11247 ; perimeter
G1 X181.299 Y204.834 E.10974 ; perimeter
M204 S5000 ; adjust acceleration
G1 X181.299 Y204.834 F12000 ; move to first perimeter point
G1 X181.806 Y205.401 ; move to first perimeter point
M204 S500 ; adjust acceleration
G1 F1800
G1 X175.94 Y205.401 E.27207 ; perimeter
G1 X175.94 Y199.535 E.27207 ; perimeter
G1 X181.806 Y199.535 E.27207 ; perimeter
G1 X181.806 Y202.468 E.13603 ; perimeter
G1 X181.806 Y205.341 E.13325 ; perimeter
M204 S5000 ; adjust acceleration
G1 X181.806 Y205.341 F12000 ; move to first perimeter point
G1 X182.313 Y205.909 ; move to first perimeter point
M204 S500 ; adjust acceleration
G1 F1800
G1 X175.433 Y205.909 E.3191 ; perimeter
G1 X175.433 Y199.028 E.31914 ; perimeter
G1 X182.313 Y199.028 E.3191 ; perimeter
G1 X182.313 Y202.468 E.15955 ; perimeter
G1 X182.313 Y205.849 E.15681 ; perimeter
M204 S5000 ; adjust acceleration
G1 X182.313 Y205.849 F12000 ; move to first perimeter point
G1 X182.821 Y206.416 ; move to first perimeter point
M204 S500 ; adjust acceleration
G1 F1800
G1 X174.926 Y206.416 E.36617 ; perimeter
G1 X174.926 Y198.521 E.36617 ; perimeter
G1 X182.821 Y198.521 E.36617 ; perimeter
G1 X182.821 Y202.468 E.18306 ; perimeter
G1 X182.821 Y206.356 E.18033 ; perimeter
M204 S5000 ; adjust acceleration
G1 X182.821 Y206.356 F12000 ; move to first perimeter point
G1 X183.328 Y206.923 ; move to first perimeter point
M204 S500 ; adjust acceleration
G1 F1800
G1 X174.419 Y206.923 E.4132 ; perimeter
G1 X174.419 Y198.014 E.4132 ; perimeter
G1 X183.328 Y198.014 E.4132 ; perimeter
G1 X183.328 Y202.468 E.20658 ; perimeter
G1 X183.328 Y206.863 E.20384 ; perimeter
M204 S5000 ; adjust acceleration
G1 X183.328 Y206.863 F12000 ; move to first perimeter point
G1 X183.835 Y207.43 ; move to first perimeter point
M204 S500 ; adjust acceleration
G1 F1800
G1 X173.912 Y207.43 E.46023 ; perimeter
G1 X173.912 Y197.507 E.46023 ; perimeter
G1 X183.835 Y197.507 E.46023 ; perimeter
G1 X183.835 Y202.468 E.23009 ; perimeter
G1 X183.835 Y207.37 E.22736 ; perimeter
M204 S5000 ; adjust acceleration
G1 X183.835 Y207.37 F12000 ; move to first perimeter point
G1 X184.342 Y207.937 ; move to first perimeter point
M204 S500 ; adjust acceleration
G1 F1800
G1 X173.405 Y207.937 E.50726 ; perimeter
G1 X173.405 Y197 E.50726 ; perimeter
G1 X184.342 Y197 E.50726 ; perimeter
G1 X184.342 Y202.468 E.25361 ; perimeter
G1 X184.342 Y207.877 E.25087 ; perimeter
M204 S5000 ; adjust acceleration
G1 X184.342 Y207.877 F12000 ; move to first perimeter point
G1 X184.849 Y208.444 ; move to first perimeter point
M204 S500 ; adjust acceleration
G1 F1800
G1 X172.898 Y208.444 E.55429 ; perimeter
G1 X172.898 Y196.493 E.55429 ; perimeter
G1 X184.849 Y196.493 E.55429 ; perimeter
G1 X184.849 Y202.468 E.27712 ; perimeter
G1 X184.849 Y208.384 E.27439 ; perimeter
M204 S5000 ; adjust acceleration
G1 X184.849 Y208.384 F12000 ; move to first perimeter point
G1 X185.356 Y208.951 ; move to first perimeter point
M204 S500 ; adjust acceleration
G1 F1800
G1 X172.391 Y208.951 E.60132 ; perimeter
G1 X172.391 Y195.986 E.60132 ; perimeter
G1 X185.356 Y195.986 E.60132 ; perimeter
G1 X185.356 Y202.468 E.30064 ; perimeter
G1 X185.356 Y208.891 E.2979 ; perimeter
M204 S5000 ; adjust acceleration
G1 X185.863 Y209.458 F12000 ; move to first perimeter point
M204 S500 ; adjust acceleration
G1 F1800
G1 X171.884 Y209.458 E.64835 ; perimeter
G1 X171.884 Y195.479 E.64835 ; perimeter
G1 X185.863 Y195.479 E.64835 ; perimeter
G1 X185.863 Y202.468 E.32415 ; perimeter
G1 X185.863 Y209.398 E.32141 ; perimeter
M204 S5000 ; adjust acceleration
G1 X186.37 Y209.965 F12000 ; move to first perimeter point
M204 S500 ; adjust acceleration
G1 F1800
G1 X171.377 Y209.965 E.69538 ; perimeter
G1 X171.377 Y194.972 E.69538 ; perimeter
G1 X186.37 Y194.972 E.69538 ; perimeter
G1 X186.37 Y202.468 E.34767 ; perimeter
G1 X186.37 Y209.905 E.34493 ; perimeter
M204 S5000 ; adjust acceleration
G1 X186.37 Y209.905 F12000 ; move to first perimeter point
G1 X186.877 Y210.472 ; move to first perimeter point
M204 S500 ; adjust acceleration
G1 F1800
G1 X170.87 Y210.472 E.74241 ; perimeter
G1 X170.87 Y194.465 E.74241 ; perimeter
G1 X186.877 Y194.465 E.74241 ; perimeter
G1 X186.877 Y202.468 E.37118 ; perimeter
G1 X186.877 Y210.412 E.36844 ; perimeter
M204 S5000 ; adjust acceleration
G1 X186.877 Y210.412 F12000 ; move to first perimeter point
G1 X187.384 Y210.979 ; move to first perimeter point
M204 S500 ; adjust acceleration
G1 F1800
G1 X170.363 Y210.979 E.78944 ; perimeter
G1 X170.363 Y193.958 E.78944 ; perimeter
G1 X187.384 Y193.958 E.78944 ; perimeter
G1 X187.384 Y202.468 E.3947 ; perimeter
G1 X187.384 Y210.919 E.39196 ; perimeter
M204 S5000 ; adjust acceleration
G1 X187.384 Y210.919 F12000 ; move to first perimeter point
G1 X187.891 Y211.486 ; move to first perimeter point
M204 S500 ; adjust acceleration
G1 F1800
G1 X169.855 Y211.486 E.83651 ; perimeter
G1 X169.855 Y193.451 E.83647 ; perimeter
G1 X187.891 Y193.451 E.83651 ; perimeter
G1 X187.891 Y202.468 E.41821 ; perimeter
G1 X187.891 Y211.426 E.41547 ; perimeter
M204 S5000 ; adjust acceleration
G1 X187.891 Y211.426 F12000 ; move to first perimeter point
G1 X188.398 Y211.993 ; move to first perimeter point
M204 S500 ; adjust acceleration
;TYPE:External perimeter
G1 F1800
G1 X169.348 Y211.993 E.88354 ; perimeter
G1 X169.348 Y192.943 E.88354 ; perimeter
G1 X188.398 Y192.943 E.88354 ; perimeter
G1 X188.398 Y202.468 E.44177 ; perimeter
G1 X188.398 Y211.933 E.43899 ; perimeter
M204 S5000 ; adjust acceleration
M106 S127.5 ; enable fan
;LAYER_CHANGE
;Z:0.4
;HEIGHT:0.2
;BEFORE_LAYER_CHANGE


;OFFSET_T0
SET_GCODE_OFFSET X=0 Y=0 Z=-0.15 move=1
SET_FILAMENT_SENSOR SENSOR=encoder_t0 ENABLE=0


G92 E0.0
;0.4


  M568 P0 R150 S205 
 
 
 
 

RSCS_LAYER_CHECK LAYER=1
;WIPE_START
G1 F9600
G1 X188.398 Y211.993 E-.00891 ; wipe and retract
G1 X169.348 Y211.993 E-2.82773 ; wipe and retract
G1 X169.348 Y192.943 E-2.82773 ; wipe and retract
G1 X185.083 Y192.943 E-2.33563 ; wipe and retract
;WIPE_END
G1 X185.083 Y192.943 Z.2 F12000 ; layer change
G1 X179.042 Y202.637 Z.4 ; layer change
;AFTER_LAYER_CHANGE
;0.4

SET_GCODE_OFFSET X=0 Y=0 Z=-0.15 move=1
SET_FILAMENT_SENSOR SENSOR=encoder_t0 ENABLE=0

M104 S205 ; set temperature
G1 X179.042 Y202.637 ; move to first layer point
G1 Z.4 F1800 ; move to first layer point
G1 E8 F1500 ;  ; unretract
M204 S2000 ; adjust acceleration
;TYPE:Perimeter
;WIDTH:0.380326
G1 X178.705 Y202.637 E.0104 ; perimeter
G1 X178.705 Y202.3 E.0104 ; perimeter
G1 X179.042 Y202.3 E.0104 ; perimeter
G1 X179.042 Y202.577 E.00855 ; perimeter
M204 S5000 ; adjust acceleration
G1 X179.042 Y202.577 F12000 ; move to first perimeter point
G1 X179.389 Y202.984 ; move to first perimeter point
M204 S2000 ; adjust acceleration
;WIDTH:0.399999
G1 F1500
G1 X178.357 Y202.984 E.03371 ; perimeter
G1 X178.357 Y201.953 E.03367 ; perimeter
G1 X179.389 Y201.953 E.03371 ; perimeter
G1 X179.389 Y202.924 E.03171 ; perimeter
M204 S5000 ; adjust acceleration
G1 X179.389 Y202.924 F12000 ; move to first perimeter point
G1 X179.746 Y203.341 ; move to first perimeter point
M204 S2000 ; adjust acceleration
G1 F1500
G1 X178 Y203.341 E.05702 ; perimeter
G1 X178 Y201.595 E.05702 ; perimeter
G1 X179.746 Y201.595 E.05702 ; perimeter
G1 X179.746 Y203.281 E.05507 ; perimeter
M204 S5000 ; adjust acceleration
G1 X179.746 Y203.281 F12000 ; move to first perimeter point
G1 X180.104 Y203.699 ; move to first perimeter point
M204 S2000 ; adjust acceleration
G1 F1500
G1 X177.643 Y203.699 E.08038 ; perimeter
G1 X177.643 Y201.238 E.08038 ; perimeter
G1 X180.104 Y201.238 E.08038 ; perimeter
G1 X180.104 Y203.639 E.07842 ; perimeter
M204 S5000 ; adjust acceleration
G1 X180.104 Y203.639 F12000 ; move to first perimeter point
G1 X180.461 Y204.056 ; move to first perimeter point
M204 S2000 ; adjust acceleration
G1 F1500
G1 X177.286 Y204.056 E.1037 ; perimeter
G1 X177.286 Y200.881 E.1037 ; perimeter
G1 X180.461 Y200.881 E.1037 ; perimeter
G1 X180.461 Y203.996 E.10174 ; perimeter
M204 S5000 ; adjust acceleration
G1 X180.461 Y203.996 F12000 ; move to first perimeter point
G1 X180.818 Y204.413 ; move to first perimeter point
M204 S2000 ; adjust acceleration
G1 F1500
G1 X176.929 Y204.413 E.12702 ; perimeter
G1 X176.929 Y200.524 E.12702 ; perimeter
G1 X180.818 Y200.524 E.12702 ; perimeter
G1 X180.818 Y204.353 E.12506 ; perimeter
M204 S5000 ; adjust acceleration
G1 X180.818 Y204.353 F12000 ; move to first perimeter point
G1 X181.175 Y204.77 ; move to first perimeter point
M204 S2000 ; adjust acceleration
G1 F1500
G1 X176.572 Y204.77 E.15034 ; perimeter
G1 X176.572 Y200.167 E.15034 ; perimeter
G1 X181.175 Y200.167 E.15034 ; perimeter
G1 X181.175 Y204.71 E.14838 ; perimeter
M204 S5000 ; adjust acceleration
G1 X181.175 Y204.71 F12000 ; move to first perimeter point
G1 X181.532 Y205.127 ; move to first perimeter point
M204 S2000 ; adjust acceleration
G1 F1500
G1 X176.215 Y205.127 E.17366 ; perimeter
G1 X176.215 Y199.81 E.17366 ; perimeter
G1 X181.532 Y199.81 E.17366 ; perimeter
G1 X181.532 Y205.067 E.1717 ; perimeter
M204 S5000 ; adjust acceleration
G1 X181.532 Y205.067 F12000 ; move to first perimeter point
G1 X181.889 Y205.484 ; move to first perimeter point
M204 S2000 ; adjust acceleration
G1 F1500
G1 X175.858 Y205.484 E.19697 ; perimeter
G1 X175.858 Y199.453 E.19697 ; perimeter
G1 X181.889 Y199.453 E.19697 ; perimeter
G1 X181.889 Y205.424 E.19502 ; perimeter
M204 S5000 ; adjust acceleration
G1 X182.246 Y205.841 F12000 ; move to first perimeter point
M204 S2000 ; adjust acceleration
G1 F1500
G1 X175.501 Y205.841 E.22029 ; perimeter
G1 X175.501 Y199.096 E.22029 ; perimeter
G1 X182.246 Y199.096 E.22029 ; perimeter
G1 X182.246 Y205.781 E.21833 ; perimeter
M204 S5000 ; adjust acceleration
G1 X182.603 Y206.198 F12000 ; move to first perimeter point
M204 S2000 ; adjust acceleration
G1 F1500
G1 X175.144 Y206.198 E.24361 ; perimeter
