; generated by PrusaSlicer 2.9.0 on 2025-03-21 at 16:53:41 UTC


;
;

;
;
; 

; external perimeters extrusion width = 0.40mm
; perimeters extrusion width = 0.40mm
; infill extrusion width = 0.45mm
; solid infill extrusion width = 0.45mm
; top infill extrusion width = 0.40mm
; support material extrusion width = 0.45mm
; first layer extrusion width = 0.55mm


; printing object square_calib.stl id:0 copy 0
; stop printing object square_calib.stl id:0 copy 0

;TYPE:Custom
TURN_OFF_HEATERS
TURN_OFF_ALL_FILAMENT_SENSORS
BT_DISABLE_ALL_BUFFERS
INITIALIZE_TOOL_USE_COUNT










; Heat the bed first
M140 S50
M190 S50 ; wait for bed temp

CHECK_CORRECT_TOOL_LOADED TOOL=0

STORE_TOOLHEAD_POSITION X=165 Y=140

G0 Z10 F5000    ; Ensure nozzle is at 3mm over the bed

; Drop Off T0 
T_1


SET_PRINT_STATUS_START
G92 E0
_INITIALIZE_ALL_TOOLS
INITIALIZE_TOOL_USE_COUNT

; Set Temperatures for other tools apart from T0

 SET_TOOL_FOR_PRINT T=1 R=150 S=210  




;Pick up the initial extruder

T1 ;initial extruder


SET_GCODE_OFFSET X=-0.5 Y=0.6 Z=-0.15 move=1
SET_FILAMENT_SENSOR SENSOR=encoder_t1 ENABLE=0




ENABLE_BUFFER BUFFER=TN1 ; Enable Buffer for Initial Toolhead
KTCC_INIT_PRINT_STATS
TEMPADJUSTEXHAUST
;HYPERLAPSE ACTION=START
SET_FILAMENT_SENSOR SENSOR=encoder_t0 ENABLE=0
;END_START
G21 ; set units to millimeters
G90 ; use absolute coordinates
M83 ; use relative distances for extrusion
M117 layer change check
T1

SET_GCODE_OFFSET X=-0.5 Y=0.6 Z=-0.15 move=1
SET_FILAMENT_SENSOR SENSOR=encoder_t1 ENABLE=0
 ; set temperature and wait for it to be reached
M107 ; disable fan
;LAYER_CHANGE
;Z:0.2
;HEIGHT:0.2
; printing object square_calib.stl id:0 copy 0
G1 E-1 F1500 ; retract
; stop printing object square_calib.stl id:0 copy 0
G1 Z1.7 F1800 ; lift
G1 X162.576 Y170.624 F12000 ; move to first layer point
G1 Z.2 F1800 ; move to first layer point
G1 E1 F1500 ;  ; unretract
M204 S500 ; adjust acceleration
;TYPE:Skirt/Brim
;WIDTH:0.55
G1 F1800
G1 X164.817 Y169.553 E.10996 ; skirt
G1 X167 Y169.239 E.09764 ; skirt
G1 X187 Y169.239 E.88544 ; skirt
G1 X189.452 Y169.637 E.10998 ; skirt
G1 X191.652 Y170.788 E.10992 ; skirt
G1 X193.376 Y172.576 E.10996 ; skirt
G1 X194.447 Y174.817 E.10996 ; skirt
G1 X194.761 Y177 E.09764 ; skirt
G1 X194.761 Y197 E.88544 ; skirt
G1 X194.363 Y199.452 E.10998 ; skirt
G1 X193.212 Y201.652 E.10992 ; skirt
G1 X191.424 Y203.376 E.10996 ; skirt
G1 X189.183 Y204.447 E.10996 ; skirt
G1 X187 Y204.761 E.09764 ; skirt
G1 X167 Y204.761 E.88544 ; skirt
G1 X164.548 Y204.363 E.10998 ; skirt
G1 X162.348 Y203.212 E.10992 ; skirt
G1 X160.624 Y201.424 E.10996 ; skirt
G1 X159.553 Y199.183 E.10996 ; skirt
G1 X159.239 Y197 E.09764 ; skirt
G1 X159.239 Y177 E.88544 ; skirt
G1 X159.637 Y174.548 E.10998 ; skirt
G1 X160.788 Y172.348 E.10992 ; skirt
G1 X162.533 Y170.665 E.10733 ; skirt
M204 S5000 ; adjust acceleration
G1 X162.533 Y170.665 F12000 ; move to first skirt point
G1 X162.895 Y171.062 ; move to first skirt point
M204 S500 ; adjust acceleration
G1 F1800
G1 X163.065 Y170.906 E.01021 ; skirt
G1 X165.27 Y169.956 E.10629 ; skirt
G1 X167 Y169.746 E.07715 ; skirt
G1 X187 Y169.746 E.88544 ; skirt
G1 X189.367 Y170.144 E.10626 ; skirt
G1 X191.476 Y171.292 E.10631 ; skirt
G1 X193.094 Y173.065 E.10627 ; skirt
G1 X194.044 Y175.27 E.10629 ; skirt
G1 X194.254 Y177 E.07715 ; skirt
G1 X194.254 Y197 E.88544 ; skirt
G1 X193.856 Y199.367 E.10626 ; skirt
G1 X192.708 Y201.476 E.10631 ; skirt
G1 X190.935 Y203.094 E.10627 ; skirt
G1 X188.73 Y204.044 E.10629 ; skirt
G1 X187 Y204.254 E.07715 ; skirt
G1 X167 Y204.254 E.88544 ; skirt
G1 X164.633 Y203.856 E.10626 ; skirt
G1 X162.524 Y202.708 E.10631 ; skirt
G1 X160.906 Y200.935 E.10627 ; skirt
G1 X159.956 Y198.73 E.10629 ; skirt
G1 X159.746 Y197 E.07715 ; skirt
G1 X159.746 Y177 E.88544 ; skirt
G1 X160.144 Y174.633 E.10626 ; skirt
G1 X161.292 Y172.524 E.10631 ; skirt
G1 X162.85 Y171.102 E.09339 ; skirt
M204 S5000 ; adjust acceleration
;WIPE_START
G1 F9600
G1 X162.895 Y171.062 E-.00894 ; wipe and retract
G1 X163.065 Y170.906 E-.03425 ; wipe and retract
G1 X165.27 Y169.956 E-.35639 ; wipe and retract
G1 X167 Y169.746 E-.25868 ; wipe and retract
G1 X169.302 Y169.746 E-.34174 ; wipe and retract
;WIPE_END
G1 X177.326 Y187.326 Z.537 F12000 ; move to first perimeter point
G1 Z.2 F1800 ; move to first perimeter point
G1 E1 F1500 ;  ; unretract
; printing object square_calib.stl id:0 copy 0
M204 S500 ; adjust acceleration
;TYPE:Perimeter
;WIDTH:0.694037
G1 F1800
G1 X176.674 Y187.326 E.03706 ; perimeter
G1 X176.674 Y186.674 E.03706 ; perimeter
G1 X177.326 Y186.674 E.03706 ; perimeter
G1 X177.326 Y187 E.01853 ; perimeter
G1 X177.326 Y187.266 E.01512 ; perimeter
M204 S5000 ; adjust acceleration
G1 X177.326 Y187.266 F12000 ; move to first perimeter point
G1 X177.905 Y187.905 ; move to first perimeter point
M204 S500 ; adjust acceleration
;WIDTH:0.549999
G1 F1800
G1 X176.095 Y187.905 E.08013 ; perimeter
G1 X176.095 Y186.095 E.08013 ; perimeter
G1 X177.905 Y186.095 E.08013 ; perimeter
G1 X177.905 Y187 E.04007 ; perimeter
G1 X177.905 Y187.845 E.03741 ; perimeter
M204 S5000 ; adjust acceleration
G1 X177.905 Y187.845 F12000 ; move to first perimeter point
G1 X178.412 Y188.412 ; move to first perimeter point
M204 S500 ; adjust acceleration
G1 F1800
G1 X175.588 Y188.412 E.12502 ; perimeter
G1 X175.588 Y185.588 E.12502 ; perimeter
G1 X178.412 Y185.588 E.12502 ; perimeter
G1 X178.412 Y187 E.06251 ; perimeter
G1 X178.412 Y188.352 E.05986 ; perimeter
M204 S5000 ; adjust acceleration
G1 X178.412 Y188.352 F12000 ; move to first perimeter point
G1 X178.919 Y188.919 ; move to first perimeter point
M204 S500 ; adjust acceleration
G1 F1800
G1 X175.081 Y188.919 E.16992 ; perimeter
G1 X175.081 Y185.081 E.16992 ; perimeter
G1 X178.919 Y185.081 E.16992 ; perimeter
G1 X178.919 Y187 E.08496 ; perimeter
G1 X178.919 Y188.859 E.0823 ; perimeter
M204 S5000 ; adjust acceleration
G1 X178.919 Y188.859 F12000 ; move to first perimeter point
G1 X179.426 Y189.426 ; move to first perimeter point
M204 S500 ; adjust acceleration
G1 F1800
G1 X174.574 Y189.426 E.21481 ; perimeter
G1 X174.574 Y184.574 E.21481 ; perimeter
G1 X179.426 Y184.574 E.21481 ; perimeter
G1 X179.426 Y187 E.1074 ; perimeter
G1 X179.426 Y189.366 E.10475 ; perimeter
M204 S5000 ; adjust acceleration
G1 X179.426 Y189.366 F12000 ; move to first perimeter point
G1 X179.933 Y189.933 ; move to first perimeter point
M204 S500 ; adjust acceleration
G1 F1800
G1 X174.067 Y189.933 E.2597 ; perimeter
G1 X174.067 Y184.067 E.2597 ; perimeter
G1 X179.933 Y184.067 E.2597 ; perimeter
G1 X179.933 Y187 E.12985 ; perimeter
G1 X179.933 Y189.873 E.12719 ; perimeter
M204 S5000 ; adjust acceleration
G1 X180.44 Y190.44 F12000 ; move to first perimeter point
M204 S500 ; adjust acceleration
G1 F1800
G1 X173.56 Y190.44 E.30459 ; perimeter
G1 X173.56 Y183.56 E.30459 ; perimeter
G1 X180.44 Y183.56 E.30459 ; perimeter
G1 X180.44 Y187 E.1523 ; perimeter
G1 X180.44 Y190.38 E.14964 ; perimeter
M204 S5000 ; adjust acceleration
G1 X180.947 Y190.947 F12000 ; move to first perimeter point
M204 S500 ; adjust acceleration
G1 F1800
G1 X173.053 Y190.947 E.34948 ; perimeter
G1 X173.053 Y183.053 E.34948 ; perimeter
G1 X180.947 Y183.053 E.34948 ; perimeter
G1 X180.947 Y187 E.17474 ; perimeter
G1 X180.947 Y190.887 E.17209 ; perimeter
M204 S5000 ; adjust acceleration
G1 X180.947 Y190.887 F12000 ; move to first perimeter point
G1 X181.454 Y191.454 ; move to first perimeter point
M204 S500 ; adjust acceleration
G1 F1800
G1 X172.546 Y191.454 E.39437 ; perimeter
G1 X172.546 Y182.546 E.39437 ; perimeter
G1 X181.454 Y182.546 E.39437 ; perimeter
G1 X181.454 Y187 E.19719 ; perimeter
G1 X181.454 Y191.394 E.19453 ; perimeter
M204 S5000 ; adjust acceleration
G1 X181.454 Y191.394 F12000 ; move to first perimeter point
G1 X181.961 Y191.961 ; move to first perimeter point
M204 S500 ; adjust acceleration
G1 F1800
G1 X172.039 Y191.961 E.43927 ; perimeter
G1 X172.039 Y182.039 E.43927 ; perimeter
G1 X181.961 Y182.039 E.43927 ; perimeter
G1 X181.961 Y187 E.21963 ; perimeter
G1 X181.961 Y191.901 E.21698 ; perimeter
M204 S5000 ; adjust acceleration
G1 X181.961 Y191.901 F12000 ; move to first perimeter point
G1 X182.468 Y192.468 ; move to first perimeter point
M204 S500 ; adjust acceleration
G1 F1800
G1 X171.532 Y192.468 E.48416 ; perimeter
G1 X171.532 Y181.532 E.48416 ; perimeter
G1 X182.468 Y181.532 E.48416 ; perimeter
G1 X182.468 Y187 E.24208 ; perimeter
G1 X182.468 Y192.408 E.23942 ; perimeter
M204 S5000 ; adjust acceleration
G1 X182.468 Y192.408 F12000 ; move to first perimeter point
G1 X182.975 Y192.975 ; move to first perimeter point
M204 S500 ; adjust acceleration
G1 F1800
G1 X171.025 Y192.975 E.52905 ; perimeter
G1 X171.025 Y181.025 E.52905 ; perimeter
G1 X182.975 Y181.025 E.52905 ; perimeter
G1 X182.975 Y187 E.26453 ; perimeter
G1 X182.975 Y192.915 E.26187 ; perimeter
M204 S5000 ; adjust acceleration
G1 X182.975 Y192.915 F12000 ; move to first perimeter point
G1 X183.483 Y193.483 ; move to first perimeter point
M204 S500 ; adjust acceleration
G1 F1800
G1 X170.517 Y193.483 E.57403 ; perimeter
G1 X170.517 Y180.517 E.57403 ; perimeter
G1 X183.483 Y180.517 E.57403 ; perimeter
G1 X183.483 Y187 E.28702 ; perimeter
G1 X183.483 Y193.423 E.28436 ; perimeter
M204 S5000 ; adjust acceleration
G1 X183.483 Y193.423 F12000 ; move to first perimeter point
G1 X183.99 Y193.99 ; move to first perimeter point
M204 S500 ; adjust acceleration
G1 F1800
G1 X170.01 Y193.99 E.61892 ; perimeter
G1 X170.01 Y180.01 E.61892 ; perimeter
G1 X183.99 Y180.01 E.61892 ; perimeter
G1 X183.99 Y187 E.30946 ; perimeter
G1 X183.99 Y193.93 E.3068 ; perimeter
M204 S5000 ; adjust acceleration
G1 X183.99 Y193.93 F12000 ; move to first perimeter point
G1 X184.497 Y194.497 ; move to first perimeter point
M204 S500 ; adjust acceleration
G1 F1800
G1 X169.503 Y194.497 E.66381 ; perimeter
G1 X169.503 Y179.503 E.66381 ; perimeter
G1 X184.497 Y179.503 E.66381 ; perimeter
G1 X184.497 Y187 E.33191 ; perimeter
G1 X184.497 Y194.437 E.32925 ; perimeter
M204 S5000 ; adjust acceleration
G1 X184.497 Y194.437 F12000 ; move to first perimeter point
G1 X185.004 Y195.004 ; move to first perimeter point
M204 S500 ; adjust acceleration
G1 F1800
G1 X168.996 Y195.004 E.70871 ; perimeter
G1 X168.996 Y178.996 E.70871 ; perimeter
G1 X185.004 Y178.996 E.70871 ; perimeter
G1 X185.004 Y187 E.35435 ; perimeter
G1 X185.004 Y194.944 E.3517 ; perimeter
M204 S5000 ; adjust acceleration
G1 X185.004 Y194.944 F12000 ; move to first perimeter point
G1 X185.511 Y195.511 ; move to first perimeter point
M204 S500 ; adjust acceleration
G1 F1800
G1 X168.489 Y195.511 E.7536 ; perimeter
G1 X168.489 Y178.489 E.7536 ; perimeter
G1 X185.511 Y178.489 E.7536 ; perimeter
G1 X185.511 Y187 E.3768 ; perimeter
G1 X185.511 Y195.451 E.37414 ; perimeter
M204 S5000 ; adjust acceleration
G1 X185.511 Y195.451 F12000 ; move to first perimeter point
G1 X186.018 Y196.018 ; move to first perimeter point
M204 S500 ; adjust acceleration
G1 F1800
G1 X167.982 Y196.018 E.79849 ; perimeter
G1 X167.982 Y177.982 E.79849 ; perimeter
G1 X186.018 Y177.982 E.79849 ; perimeter
G1 X186.018 Y187 E.39924 ; perimeter
G1 X186.018 Y195.958 E.39659 ; perimeter
M204 S5000 ; adjust acceleration
G1 X186.525 Y196.525 F12000 ; move to first perimeter point
M204 S500 ; adjust acceleration
;TYPE:External perimeter
G1 F1800
G1 X167.475 Y196.525 E.84338 ; perimeter
G1 X167.475 Y177.475 E.84338 ; perimeter
G1 X186.525 Y177.475 E.84338 ; perimeter
G1 X186.525 Y187 E.42169 ; perimeter
G1 X186.525 Y196.465 E.41903 ; perimeter
M204 S5000 ; adjust acceleration
M106 S127.5 ; enable fan
;LAYER_CHANGE
;Z:0.4
;HEIGHT:0.2
;BEFORE_LAYER_CHANGE


SET_GCODE_OFFSET X=-0.5 Y=0.6 Z=-0.15 move=1
SET_FILAMENT_SENSOR SENSOR=encoder_t1 ENABLE=0


G92 E0.0
;0.4


 
  M568 P1 R150 S205 
 
 
 

RSCS_LAYER_CHECK LAYER=1
;WIPE_START
G1 F9600
G1 X186.525 Y196.525 E-.00891 ; wipe and retract
G1 X179.848 Y196.525 E-.99109 ; wipe and retract
;WIPE_END
G1 X179.848 Y196.525 Z.2 F12000 ; layer change
G1 X177.169 Y187.169 Z.4 ; layer change
;AFTER_LAYER_CHANGE
;0.4

SET_GCODE_OFFSET X=-0.5 Y=0.6 Z=-0.15 move=1
SET_FILAMENT_SENSOR SENSOR=encoder_t1 ENABLE=0

 ; set temperature
G1 X177.169 Y187.169 ; move to first layer point
G1 Z.4 F1800 ; move to first layer point
G1 E1 F1500 ;  ; unretract
M204 S2000 ; adjust acceleration
;TYPE:Perimeter
;WIDTH:0.380326
G1 X176.831 Y187.169 E.00996 ; perimeter
G1 X176.831 Y186.831 E.00996 ; perimeter
G1 X177.169 Y186.831 E.00996 ; perimeter
G1 X177.169 Y187.109 E.00819 ; perimeter
M204 S5000 ; adjust acceleration
G1 X177.169 Y187.109 F12000 ; move to first perimeter point
G1 X177.516 Y187.516 ; move to first perimeter point
M204 S2000 ; adjust acceleration
;WIDTH:0.399999
G1 F1500
G1 X176.484 Y187.516 E.03217 ; perimeter
G1 X176.484 Y186.484 E.03217 ; perimeter
G1 X177.516 Y186.484 E.03217 ; perimeter
G1 X177.516 Y187.456 E.0303 ; perimeter
M204 S5000 ; adjust acceleration
G1 X177.873 Y187.873 F12000 ; move to first perimeter point
M204 S2000 ; adjust acceleration
G1 F1500
G1 X176.127 Y187.873 E.05443 ; perimeter
G1 X176.127 Y186.127 E.05443 ; perimeter
G1 X177.873 Y186.127 E.05443 ; perimeter
G1 X177.873 Y187.813 E.05256 ; perimeter
M204 S5000 ; adjust acceleration
G1 X178.23 Y188.23 F12000 ; move to first perimeter point
M204 S2000 ; adjust acceleration
G1 F1500
G1 X175.77 Y188.23 E.07669 ; perimeter
G1 X175.77 Y185.77 E.07669 ; perimeter
G1 X178.23 Y185.77 E.07669 ; perimeter
G1 X178.23 Y188.17 E.07482 ; perimeter
M204 S5000 ; adjust acceleration
G1 X178.23 Y188.17 F12000 ; move to first perimeter point
G1 X178.587 Y188.587 ; move to first perimeter point
M204 S2000 ; adjust acceleration
G1 F1500
G1 X175.413 Y188.587 E.09895 ; perimeter
G1 X175.413 Y185.413 E.09895 ; perimeter
G1 X178.587 Y185.413 E.09895 ; perimeter
G1 X178.587 Y188.527 E.09708 ; perimeter
M204 S5000 ; adjust acceleration
G1 X178.587 Y188.527 F12000 ; move to first perimeter point
G1 X178.944 Y188.944 ; move to first perimeter point
M204 S2000 ; adjust acceleration
G1 F1500
G1 X175.056 Y188.944 E.12121 ; perimeter
G1 X175.056 Y185.056 E.12121 ; perimeter
G1 X178.944 Y185.056 E.12121 ; perimeter
G1 X178.944 Y188.884 E.11934 ; perimeter
M204 S5000 ; adjust acceleration
G1 X178.944 Y188.884 F12000 ; move to first perimeter point
G1 X179.301 Y189.301 ; move to first perimeter point
M204 S2000 ; adjust acceleration
G1 F1500
G1 X174.699 Y189.301 E.14347 ; perimeter
G1 X174.699 Y184.699 E.14347 ; perimeter
G1 X179.301 Y184.699 E.14347 ; perimeter
G1 X179.301 Y189.241 E.1416 ; perimeter
M204 S5000 ; adjust acceleration
G1 X179.301 Y189.241 F12000 ; move to first perimeter point
G1 X179.658 Y189.658 ; move to first perimeter point
M204 S2000 ; adjust acceleration
G1 F1500
G1 X174.342 Y189.658 E.16573 ; perimeter
G1 X174.342 Y184.342 E.16573 ; perimeter
G1 X179.658 Y184.342 E.16573 ; perimeter
G1 X179.658 Y189.598 E.16386 ; perimeter
M204 S5000 ; adjust acceleration
G1 X179.658 Y189.598 F12000 ; move to first perimeter point
G1 X180.016 Y190.016 ; move to first perimeter point
M204 S2000 ; adjust acceleration
G1 F1500
G1 X173.985 Y190.016 E.18802 ; perimeter
G1 X173.985 Y183.985 E.18802 ; perimeter
G1 X180.016 Y183.985 E.18802 ; perimeter
G1 X180.016 Y189.956 E.18615 ; perimeter
M204 S5000 ; adjust acceleration
G1 X180.016 Y189.956 F12000 ; move to first perimeter point
G1 X180.373 Y190.373 ; move to first perimeter point
M204 S2000 ; adjust acceleration
G1 F1500
G1 X173.627 Y190.373 E.21031 ; perimeter
G1 X173.627 Y183.627 E.21031 ; perimeter
G1 X180.373 Y183.627 E.21031 ; perimeter
G1 X180.373 Y190.313 E.20844 ; perimeter
M204 S5000 ; adjust acceleration
G1 X180.373 Y190.313 F12000 ; move to first perimeter point
G1 X180.73 Y190.73 ; move to first perimeter point
M204 S2000 ; adjust acceleration
G1 F1500
G1 X173.27 Y190.73 E.23257 ; perimeter
G1 X173.27 Y183.27 E.23257 ; perimeter
G1 X180.73 Y183.27 E.23257 ; perimeter
G1 X180.73 Y190.67 E.2307 ; perimeter
M204 S5000 ; adjust acceleration
G1 X180.73 Y190.67 F12000 ; move to first perimeter point
G1 X181.087 Y191.087 ; move to first perimeter point
