; generated by PrusaSlicer 2.9.0 on 2025-03-21 at 18:28:45 UTC


;
;

;
;
; 

; external perimeters extrusion width = 0.40mm
; perimeters extrusion width = 0.40mm
; infill extrusion width = 0.45mm
; solid infill extrusion width = 0.45mm
; top infill extrusion width = 0.40mm
; support material extrusion width = 0.45mm
; first layer extrusion width = 0.55mm


; printing object square_calib.stl id:0 copy 0
; stop printing object square_calib.stl id:0 copy 0

;TYPE:Custom
TURN_OFF_HEATERS
TURN_OFF_ALL_FILAMENT_SENSORS
BT_DISABLE_ALL_BUFFERS
INITIALIZE_TOOL_USE_COUNT










; Heat the bed first
M140 S50
M190 S50 ; wait for bed temp

CHECK_CORRECT_TOOL_LOADED TOOL=0

STORE_TOOLHEAD_POSITION X=165 Y=140

G0 Z10 F5000    ; Ensure nozzle is at 3mm over the bed

; Drop Off T0 
T_1


SET_PRINT_STATUS_START
G92 E0
_INITIALIZE_ALL_TOOLS
INITIALIZE_TOOL_USE_COUNT

; Set Temperatures for other tools apart from T0
 SET_TOOL_FOR_PRINT T=0 R=150 S=210 





;Pick up the initial extruder

T0 ;initial extruder


;OFFSET_T0
SET_GCODE_OFFSET X=0 Y=0 Z=-0.15 move=1
SET_FILAMENT_SENSOR SENSOR=encoder_t0 ENABLE=0




ENABLE_BUFFER BUFFER=TN0 ; Enable Buffer for Initial Toolhead
KTCC_INIT_PRINT_STATS
TEMPADJUSTEXHAUST
;HYPERLAPSE ACTION=START
SET_FILAMENT_SENSOR SENSOR=encoder_t0 ENABLE=0
;END_START
G21 ; set units to millimeters
G90 ; use absolute coordinates
M83 ; use relative distances for extrusion
M107 ; disable fan
;LAYER_CHANGE
;Z:0.2
;HEIGHT:0.2
G1 E-8 F1500 ; retract
G1 Z1.7 F1800 ; lift
G1 X124.125 Y182 F12000 ; move to first layer point
G1 Z.2 F1800 ; move to first layer point
G1 E8 F1500 ;  ; unretract
M204 S500 ; adjust acceleration
;TYPE:Skirt/Brim
;WIDTH:0.55
G1 F1800
G1 X126.366 Y180.929 E.10473 ; skirt
G1 X128.549 Y180.616 E.09298 ; skirt
G1 X148.549 Y180.616 E.84328 ; skirt
G1 X151.001 Y181.013 E.10473 ; skirt
G1 X153.201 Y182.165 E.10471 ; skirt
G1 X154.925 Y183.952 E.1047 ; skirt
G1 X155.996 Y186.193 E.10473 ; skirt
G1 X156.31 Y188.376 E.09299 ; skirt
G1 X156.31 Y208.376 E.84328 ; skirt
G1 X155.912 Y210.828 E.10474 ; skirt
G1 X154.761 Y213.029 E.10473 ; skirt
G1 X152.973 Y214.753 E.10473 ; skirt
G1 X150.732 Y215.824 E.10473 ; skirt
G1 X148.549 Y216.137 E.09298 ; skirt
G1 X128.549 Y216.137 E.84328 ; skirt
G1 X126.097 Y215.74 E.10473 ; skirt
G1 X123.897 Y214.588 E.10471 ; skirt
G1 X122.173 Y212.8 E.10473 ; skirt
G1 X121.102 Y210.559 E.10473 ; skirt
G1 X120.788 Y208.376 E.09299 ; skirt
G1 X120.788 Y188.376 E.84328 ; skirt
G1 X121.186 Y185.925 E.1047 ; skirt
G1 X122.337 Y183.724 E.10473 ; skirt
G1 X124.082 Y182.042 E.10219 ; skirt
M204 S5000 ; adjust acceleration
G1 X124.082 Y182.042 F12000 ; move to first skirt point
G1 X124.444 Y182.438 ; move to first skirt point
M204 S500 ; adjust acceleration
G1 F1800
G1 X124.614 Y182.283 E.0097 ; skirt
G1 X126.819 Y181.332 E.10125 ; skirt
G1 X128.549 Y181.123 E.07347 ; skirt
G1 X148.549 Y181.123 E.84328 ; skirt
G1 X150.917 Y181.52 E.10124 ; skirt
G1 X153.025 Y182.668 E.10121 ; skirt
G1 X154.643 Y184.442 E.10124 ; skirt
G1 X155.593 Y186.646 E.10119 ; skirt
G1 X155.803 Y188.376 E.07348 ; skirt
G1 X155.803 Y208.376 E.84328 ; skirt
G1 X155.405 Y210.744 E.10124 ; skirt
G1 X154.257 Y212.852 E.10121 ; skirt
G1 X152.484 Y214.47 E.10121 ; skirt
G1 X150.279 Y215.42 E.10123 ; skirt
G1 X148.549 Y215.63 E.07348 ; skirt
G1 X128.549 Y215.63 E.84328 ; skirt
G1 X126.182 Y215.233 E.1012 ; skirt
G1 X124.073 Y214.084 E.10126 ; skirt
G1 X122.455 Y212.311 E.10121 ; skirt
G1 X121.505 Y210.107 E.10119 ; skirt
G1 X121.296 Y208.376 E.07352 ; skirt
G1 X121.296 Y188.376 E.84328 ; skirt
G1 X121.693 Y186.009 E.1012 ; skirt
G1 X122.841 Y183.901 E.10121 ; skirt
G1 X124.4 Y182.479 E.08897 ; skirt
M204 S5000 ; adjust acceleration
;WIPE_START
G1 F9600
G1 X124.444 Y182.438 E-.00893 ; wipe and retract
G1 X124.614 Y182.283 E-.03415 ; wipe and retract
G1 X126.819 Y181.332 E-.35645 ; wipe and retract
G1 X128.549 Y181.123 E-.25866 ; wipe and retract
G1 X148.549 Y181.123 E-2.96875 ; wipe and retract
G1 X150.917 Y181.52 E-.35641 ; wipe and retract
G1 X153.025 Y182.668 E-.3563 ; wipe and retract
G1 X154.643 Y184.442 E-.3564 ; wipe and retract
G1 X155.593 Y186.646 E-.35625 ; wipe and retract
G1 X155.803 Y188.376 E-.25868 ; wipe and retract
G1 X155.803 Y206.492 E-2.68902 ; wipe and retract
;WIPE_END
; printing object square_calib.stl id:0 copy 0
G1 X147.06 Y206.887 Z.353 F12000 ; move to first perimeter point
G1 Z.2 F1800 ; move to first perimeter point
G1 E8 F1500 ;  ; unretract
M204 S500 ; adjust acceleration
;TYPE:Perimeter
;WIDTH:0.549999
G1 F1800
G1 X130.038 Y206.887 E.71771 ; perimeter
G1 X130.038 Y189.866 E.71767 ; perimeter
G1 X147.06 Y189.866 E.71771 ; perimeter
G1 X147.06 Y198.376 E.35881 ; perimeter
G1 X147.06 Y206.827 E.35633 ; perimeter
M204 S5000 ; adjust acceleration
G1 X147.06 Y206.827 F12000 ; move to first perimeter point
G1 X147.567 Y207.394 ; move to first perimeter point
M204 S500 ; adjust acceleration
G1 F1800
G1 X129.531 Y207.394 E.76047 ; perimeter
G1 X129.531 Y189.358 E.76047 ; perimeter
G1 X147.567 Y189.358 E.76047 ; perimeter
G1 X147.567 Y198.376 E.38023 ; perimeter
G1 X147.567 Y207.334 E.3777 ; perimeter
M204 S5000 ; adjust acceleration
G1 X147.567 Y207.334 F12000 ; move to first perimeter point
G1 X148.074 Y207.901 ; move to first perimeter point
M204 S500 ; adjust acceleration
;TYPE:External perimeter
G1 F1800
G1 X129.024 Y207.901 E.80322 ; perimeter
G1 X129.024 Y188.851 E.80322 ; perimeter
G1 X148.074 Y188.851 E.80322 ; perimeter
G1 X148.074 Y198.376 E.40161 ; perimeter
G1 X148.074 Y207.841 E.39908 ; perimeter
M204 S5000 ; adjust acceleration
;WIPE_START
G1 F9600
G1 X148.074 Y207.901 E-.00891 ; wipe and retract
G1 X129.024 Y207.901 E-2.82773 ; wipe and retract
G1 X129.024 Y188.851 E-2.82773 ; wipe and retract
G1 X144.759 Y188.851 E-2.33563 ; wipe and retract
;WIPE_END
G1 X145.821 Y190.068 Z.228 F12000 ; move to first infill point
G1 Z.2 F1800 ; move to first infill point
G1 E8 F1500 ;  ; unretract
M204 S500 ; adjust acceleration
;TYPE:Solid infill
;WIDTH:0.555318
G1 F1800
G1 X146.629 Y190.876 E.04869 ; infill
G1 X146.629 Y191.601 E.03089 ; infill
G1 X145.324 Y190.297 E.0786 ; infill
G1 X144.6 Y190.297 E.03085 ; infill
G1 X146.629 Y192.326 E.12226 ; infill
G1 X146.629 Y193.05 E.03085 ; infill
G1 X143.875 Y190.297 E.16591 ; infill
G1 X143.15 Y190.297 E.03089 ; infill
G1 X146.629 Y193.775 E.20959 ; infill
G1 X146.629 Y194.5 E.03089 ; infill
G1 X142.426 Y190.297 E.25325 ; infill
G1 X141.701 Y190.297 E.03089 ; infill
G1 X146.629 Y195.224 E.2969 ; infill
G1 X146.629 Y195.949 E.03089 ; infill
G1 X140.976 Y190.297 E.34059 ; infill
G1 X140.252 Y190.297 E.03085 ; infill
G1 X146.629 Y196.674 E.38424 ; infill
G1 X146.629 Y197.398 E.03085 ; infill
G1 X139.527 Y190.297 E.42789 ; infill
G1 X138.803 Y190.297 E.03085 ; infill
G1 X146.629 Y198.123 E.47155 ; infill
G1 X146.629 Y198.848 E.03089 ; infill
G1 X138.078 Y190.297 E.51523 ; infill
G1 X137.353 Y190.297 E.03089 ; infill
G1 X146.629 Y199.572 E.55889 ; infill
G1 X146.629 Y200.297 E.03089 ; infill
G1 X136.629 Y190.297 E.60254 ; infill
G1 X135.904 Y190.297 E.03089 ; infill
G1 X146.629 Y201.021 E.64619 ; infill
G1 X146.629 Y201.746 E.03089 ; infill
G1 X135.179 Y190.297 E.68988 ; infill
G1 X134.455 Y190.297 E.03085 ; infill
G1 X146.629 Y202.471 E.73353 ; infill
G1 X146.629 Y203.195 E.03085 ; infill
G1 X133.73 Y190.297 E.77719 ; infill
G1 X133.005 Y190.297 E.03089 ; infill
G1 X146.629 Y203.92 E.82087 ; infill
G1 X146.629 Y204.645 E.03089 ; infill
G1 X132.281 Y190.297 E.86453 ; infill
G1 X131.556 Y190.297 E.03089 ; infill
G1 X146.629 Y205.369 E.90818 ; infill
G1 X146.629 Y206.094 E.03089 ; infill
G1 X130.831 Y190.297 E.95186 ; infill
G1 X130.469 Y190.297 E.01542 ; infill
G1 X130.469 Y190.659 E.01542 ; infill
G1 X146.267 Y206.456 E.95186 ; infill
G1 X145.542 Y206.456 E.03089 ; infill
G1 X130.469 Y191.384 E.90818 ; infill
G1 X130.469 Y192.108 E.03085 ; infill
G1 X144.817 Y206.456 E.86453 ; infill
G1 X144.093 Y206.456 E.03085 ; infill
G1 X130.469 Y192.833 E.82087 ; infill
G1 X130.469 Y193.557 E.03085 ; infill
G1 X143.368 Y206.456 E.77722 ; infill
G1 X142.643 Y206.456 E.03089 ; infill
G1 X130.469 Y194.282 E.73353 ; infill
G1 X130.469 Y195.007 E.03089 ; infill
G1 X141.919 Y206.456 E.68988 ; infill
G1 X141.194 Y206.456 E.03089 ; infill
G1 X130.469 Y195.731 E.64622 ; infill
G1 X130.469 Y196.456 E.03089 ; infill
G1 X140.469 Y206.456 E.60254 ; infill
G1 X139.745 Y206.456 E.03085 ; infill
G1 X130.469 Y197.181 E.55889 ; infill
G1 X130.469 Y197.905 E.03085 ; infill
G1 X139.02 Y206.456 E.51523 ; infill
G1 X138.295 Y206.456 E.03089 ; infill
G1 X130.469 Y198.63 E.47155 ; infill
G1 X130.469 Y199.355 E.03089 ; infill
G1 X137.571 Y206.456 E.42789 ; infill
G1 X136.846 Y206.456 E.03089 ; infill
G1 X130.469 Y200.079 E.38424 ; infill
G1 X130.469 Y200.804 E.03089 ; infill
G1 X136.122 Y206.456 E.34059 ; infill
G1 X135.397 Y206.456 E.03089 ; infill
G1 X130.469 Y201.529 E.2969 ; infill
G1 X130.469 Y202.253 E.03085 ; infill
G1 X134.672 Y206.456 E.25325 ; infill
G1 X133.948 Y206.456 E.03085 ; infill
G1 X130.469 Y202.978 E.20959 ; infill
G1 X130.469 Y203.702 E.03085 ; infill
G1 X133.223 Y206.456 E.16594 ; infill
G1 X132.498 Y206.456 E.03089 ; infill
G1 X130.469 Y204.427 E.12226 ; infill
G1 X130.469 Y205.152 E.03089 ; infill
G1 X131.774 Y206.456 E.0786 ; infill
G1 X131.049 Y206.456 E.03089 ; infill
G1 X130.241 Y205.648 E.04869 ; infill
M204 S5000 ; adjust acceleration
M106 S127.5 ; enable fan
;LAYER_CHANGE
;Z:0.4
;HEIGHT:0.2
;BEFORE_LAYER_CHANGE


;OFFSET_T0
SET_GCODE_OFFSET X=0 Y=0 Z=-0.15 move=1
SET_FILAMENT_SENSOR SENSOR=encoder_t0 ENABLE=0


G92 E0.0
;0.4


  M568 P0 R150 S205 
 
 
 
 

RSCS_LAYER_CHECK LAYER=1
;WIPE_START
G1 F9600
G1 X131.049 Y206.456 E-.16962 ; wipe and retract
G1 X131.774 Y206.456 E-.10762 ; wipe and retract
G1 X130.469 Y205.152 E-.27384 ; wipe and retract
G1 X130.469 Y204.427 E-.10762 ; wipe and retract
G1 X132.498 Y206.456 E-.42593 ; wipe and retract
G1 X133.223 Y206.456 E-.10762 ; wipe and retract
G1 X130.469 Y203.702 E-.57813 ; wipe and retract
G1 X130.469 Y202.978 E-.10747 ; wipe and retract
G1 X133.948 Y206.456 E-.73021 ; wipe and retract
G1 X134.672 Y206.456 E-.10747 ; wipe and retract
G1 X130.469 Y202.253 E-.8823 ; wipe and retract
G1 X130.469 Y201.529 E-.10747 ; wipe and retract
G1 X135.397 Y206.456 E-1.03439 ; wipe and retract
G1 X136.122 Y206.456 E-.10762 ; wipe and retract
G1 X130.469 Y200.804 E-1.18659 ; wipe and retract
G1 X130.469 Y200.079 E-.10762 ; wipe and retract
G1 X136.846 Y206.456 E-1.33867 ; wipe and retract
G1 X137.571 Y206.456 E-.10762 ; wipe and retract
G1 X135.607 Y204.492 E-.41219 ; wipe and retract
;WIPE_END
G1 X135.607 Y204.492 Z.2 F12000 ; layer change
G1 X147.635 Y207.462 Z.416 ; layer change
;AFTER_LAYER_CHANGE
;0.4

SET_GCODE_OFFSET X=0 Y=0 Z=-0.15 move=1
SET_FILAMENT_SENSOR SENSOR=encoder_t0 ENABLE=0

M104 S205 ; set temperature
G1 X147.635 Y207.462 ; move to first layer point
G1 Z.4 F1800 ; move to first layer point
G1 E8 F1500 ;  ; unretract
M204 S2000 ; adjust acceleration
;TYPE:Perimeter
;WIDTH:0.399999
G1 F3600
G1 X129.463 Y207.462 E.53955 ; perimeter
G1 X129.463 Y189.291 E.53952 ; perimeter
G1 X147.635 Y189.291 E.53955 ; perimeter
G1 X147.635 Y207.402 E.53774 ; perimeter
M204 S5000 ; adjust acceleration
G1 X147.635 Y207.402 F12000 ; move to first perimeter point
G1 X147.992 Y207.819 ; move to first perimeter point
M204 S2000 ; adjust acceleration
G1 F3600
G1 X129.106 Y207.819 E.56075 ; perimeter
G1 X129.106 Y188.933 E.56075 ; perimeter
G1 X147.992 Y188.933 E.56075 ; perimeter
G1 X147.992 Y207.759 E.55897 ; perimeter
M204 S5000 ; adjust acceleration
G1 X147.992 Y207.759 F12000 ; move to first perimeter point
G1 X148.349 Y208.176 ; move to first perimeter point
M204 S2000 ; adjust acceleration
;TYPE:External perimeter
G1 F2700.006
G1 X147.749 Y208.176 E.01781 ; perimeter
G1 X129.349 Y208.176 E.54632 ; perimeter
G1 X128.749 Y208.176 E.01781 ; perimeter
G1 X128.749 Y207.576 E.01781 ; perimeter
G1 X128.749 Y188.576 E.56413 ; perimeter
G1 X147.749 Y188.576 E.56413 ; perimeter
G1 X148.349 Y188.576 E.01781 ; perimeter
G1 X148.349 Y189.176 E.01781 ; perimeter
G1 X148.349 Y207.576 E.54632 ; perimeter
G1 X148.349 Y208.116 E.01603 ; perimeter
M204 S5000 ; adjust acceleration
G1 X148.349 Y208.116 F12000 ; move to first infill point
G1 X129.902 Y189.652 ; move to first infill point
;TYPE:Solid infill
;WIDTH:0.548766
G1 F5439
G1 X129.857 Y189.607 E.00268 ; infill
G1 X129.796 Y189.624 E.00266 ; infill
G1 X129.78 Y189.685 E.00265 ; infill
G1 X129.825 Y189.729 E.00265 ; infill
G1 X129.886 Y189.713 E.00265 ; infill
;WIDTH:0.449999
G1 X129.792 Y190.363 E.02223 ; infill
G1 X130.536 Y189.619 E.03561 ; infill
G1 X131.112 Y189.619 E.0195 ; infill
G1 X129.792 Y190.939 E.06319 ; infill
G1 X129.792 Y191.515 E.0195 ; infill
G1 X131.687 Y189.619 E.09074 ; infill
G1 X132.263 Y189.619 E.0195 ; infill
G1 X129.792 Y192.09 E.11829 ; infill
G1 X129.792 Y192.666 E.0195 ; infill
G1 X132.839 Y189.619 E.14586 ; infill
G1 X133.415 Y189.619 E.0195 ; infill
G1 X129.792 Y193.242 E.17343 ; infill
G1 X129.792 Y193.818 E.0195 ; infill
G1 X133.99 Y189.619 E.20098 ; infill
G1 X134.566 Y189.619 E.0195 ; infill
G1 X129.792 Y194.393 E.22853 ; infill
G1 X129.792 Y194.969 E.0195 ; infill
G1 X135.142 Y189.619 E.2561 ; infill
G1 X135.717 Y189.619 E.01946 ; infill
G1 X129.792 Y195.545 E.28365 ; infill
G1 X129.792 Y196.12 E.01946 ; infill
G1 X136.293 Y189.619 E.3112 ; infill
G1 X136.869 Y189.619 E.0195 ; infill
G1 X129.792 Y196.696 E.33877 ; infill
G1 X129.792 Y197.272 E.0195 ; infill
G1 X137.444 Y189.619 E.36632 ; infill
G1 X138.02 Y189.619 E.0195 ; infill
G1 X129.792 Y197.847 E.39387 ; infill
G1 X129.792 Y198.423 E.0195 ; infill
G1 X138.596 Y189.619 E.42144 ; infill
G1 X139.172 Y189.619 E.0195 ; infill
G1 X129.792 Y198.999 E.44901 ; infill
G1 X129.792 Y199.574 E.01946 ; infill
G1 X139.747 Y189.619 E.47654 ; infill
G1 X140.323 Y189.619 E.0195 ; infill
G1 X129.792 Y200.15 E.50411 ; infill
G1 X129.792 Y200.726 E.0195 ; infill
G1 X140.899 Y189.619 E.53169 ; infill
G1 X141.474 Y189.619 E.01946 ; infill
G1 X129.792 Y201.302 E.55923 ; infill
G1 X129.792 Y201.877 E.01946 ; infill
G1 X142.05 Y189.619 E.58678 ; infill
G1 X142.626 Y189.619 E.0195 ; infill
G1 X129.792 Y202.453 E.61436 ; infill
G1 X129.792 Y203.029 E.0195 ; infill
G1 X143.201 Y189.619 E.6419 ; infill
G1 X143.777 Y189.619 E.0195 ; infill
G1 X129.792 Y203.604 E.66945 ; infill
G1 X129.792 Y204.18 E.0195 ; infill
G1 X144.353 Y189.619 E.69703 ; infill
G1 X144.928 Y189.619 E.01946 ; infill
G1 X129.792 Y204.756 E.72457 ; infill
G1 X129.792 Y205.331 E.01946 ; infill
G1 X145.504 Y189.619 E.75212 ; infill
G1 X146.08 Y189.619 E.0195 ; infill
G1 X129.792 Y205.907 E.7797 ; infill
G1 X129.792 Y206.483 E.0195 ; infill
G1 X146.656 Y189.619 E.80727 ; infill
G1 X147.231 Y189.619 E.01946 ; infill
G1 X129.792 Y207.059 E.83482 ; infill
G1 X129.83 Y207.173 E.00407 ; infill
;WIDTH:0.41646
G1 X129.868 Y207.287 E.00373 ; infill
;WIDTH:0.38292
G1 X129.655 Y207.271 E.00604 ; infill
;WIDTH:0.449999
G1 X130.292 Y207.134 E.02205 ; infill
G1 X147.306 Y190.12 E.81445 ; infill
G1 X147.306 Y190.695 E.01946 ; infill
G1 X130.868 Y207.134 E.7869 ; infill
G1 X131.444 Y207.134 E.0195 ; infill
G1 X147.306 Y191.271 E.75933 ; infill
G1 X147.306 Y191.847 E.0195 ; infill
G1 X132.019 Y207.134 E.73178 ; infill
G1 X132.595 Y207.134 E.0195 ; infill
G1 X147.306 Y192.422 E.70423 ; infill
G1 X147.306 Y192.998 E.0195 ; infill
G1 X133.171 Y207.134 E.67666 ; infill
G1 X133.746 Y207.134 E.01946 ; infill
G1 X147.306 Y193.574 E.64911 ; infill
G1 X147.306 Y194.149 E.01946 ; infill
G1 X134.322 Y207.134 E.62156 ; infill
G1 X134.898 Y207.134 E.0195 ; infill
G1 X147.306 Y194.725 E.59399 ; infill
G1 X147.306 Y195.301 E.0195 ; infill
G1 X135.474 Y207.134 E.56641 ; infill
G1 X136.049 Y207.134 E.01946 ; infill
G1 X147.306 Y195.877 E.53887 ; infill
G1 X147.306 Y196.452 E.01946 ; infill
G1 X136.625 Y207.134 E.51132 ; infill
G1 X137.201 Y207.134 E.0195 ; infill
G1 X147.306 Y197.028 E.48374 ; infill
G1 X147.306 Y197.604 E.0195 ; infill
G1 X137.776 Y207.134 E.4562 ; infill
