; generated by PrusaSlicer 2.9.0 on 2025-02-22 at 01:44:57 UTC


;
;

;
;
; 

; external perimeters extrusion width = 0.68mm
; perimeters extrusion width = 0.68mm
; infill extrusion width = 0.68mm
; solid infill extrusion width = 0.68mm
; top infill extrusion width = 0.55mm
; support material extrusion width = 0.68mm
; first layer extrusion width = 0.68mm

; external perimeters extrusion width = 0.68mm
; perimeters extrusion width = 0.68mm
; infill extrusion width = 0.68mm
; solid infill extrusion width = 0.68mm
; top infill extrusion width = 0.55mm
; support material extrusion width = 0.68mm
; first layer extrusion width = 0.68mm


; printing object Offset_X_Y_dual_extruder_1 id:0 copy 0
; stop printing object Offset_X_Y_dual_extruder_1 id:0 copy 0

;TYPE:Custom
TURN_OFF_HEATERS
TURN_OFF_ALL_FILAMENT_SENSORS
BT_DISABLE_ALL_BUFFERS
INITIALIZE_TOOL_USE_COUNT

; Heat the bed first
M140 S50
M190 S50 ; wait for bed temp

CHECK_CORRECT_TOOL_LOADED TOOL=0

STORE_TOOLHEAD_POSITION X=165 Y=140

G0 Z10 F5000    ; Ensure nozzle is at 3mm over the bed

; Drop Off T0 
T_1


SET_PRINT_STATUS_START
G92 E0
_INITIALIZE_ALL_TOOLS
INITIALIZE_TOOL_USE_COUNT

; Set Temperatures for other tools apart from T0
 SET_TOOL_FOR_PRINT T=0 R=150 S=210 
 SET_TOOL_FOR_PRINT T=1 R=150 S=210  




;Pick up the initial extruder

T0 ;initial extruder
M568 P0 S210 A1 ; Preheat T0 to 210°C
G4 S30 ; Wait 30 seconds for preheat
ENABLE_BUFFER BUFFER=TN0 ; Enable Buffer for Initial Toolhead
KTCC_INIT_PRINT_STATS
TEMPADJUSTEXHAUST
;HYPERLAPSE ACTION=START
SET_FILAMENT_SENSOR SENSOR=encoder_t0 ENABLE=0
SET_FILAMENT_SENSOR SENSOR=encoder_t1 ENABLE=0
;END_START
G21 ; set units to millimeters
G90 ; use absolute coordinates
M83 ; use relative distances for extrusion
M117 layer change check
T0
M568 P0 S210 A1 ; Preheat T0 to 210°C
G4 S30 ; Wait 30 seconds for preheat

OFFSET_T0
;SET_GCODE_OFFSET X=0 Y=0 Z=-2 move=1
M117 SET FILAMENT SENSOR OFF 
SET_FILAMENT_SENSOR SENSOR=encoder_t0 ENABLE=0
M107 ; disable fan
;LAYER_CHANGE
;Z:0.32
;HEIGHT:0.32
; printing object Offset_X_Y_dual_extruder_1 id:0 copy 0
G1 E-8 F1500 ; retract
; stop printing object Offset_X_Y_dual_extruder_1 id:0 copy 0
G1 Z1.82 F1800 ; lift
G1 X184.373 Y230.856 F24000 ; move to first layer point
G1 Z.32 F1800 ; move to first layer point
G1 E8 F1500 ;  ; unretract
;HEIGHT:0.32
;TYPE:Wipe tower
;WIDTH:0.5
G1 X184.373 Y234.856 E0.2295 F2700
G1 X155.373 E1.6641
G1 Y230.856 E0.2295
G1 X184.373 E1.6641
G1 Y234.856
G1 X183.373
;--------------------
; CP EMPTY GRID START
; layer #1
G1 Y234.356 E0.0287
G1 X155.873 E1.5781
G1 Y233.856 E0.0287
G1 X183.873 E1.6068
G1 Y233.356 E0.0287
G1 X155.873 E1.6068
G1 Y232.856 E0.0287
G1 X183.873 E1.6068
G1 Y232.356 E0.0287
G1 X155.873 E1.6068
G1 Y231.856 E0.0287
G1 X183.873 E1.6068
G1 Y231.356 E0.0287
G1 X155.873 E1.6068
G1 Y230.856 E0.0287
; CP EMPTY GRID END
;------------------






G1 X154.873 Y230.356
G1 X184.873 E1.7215
G1 Y235.356 E0.2869
G1 X154.873 E1.7215
G1 Y230.356 E0.2869
G1 X154.442 Y229.925
G1 X185.304 E1.7710
G1 Y235.787 E0.3364
G1 X154.442 E1.7710
G1 Y229.925 E0.3364
G1 X154.010 Y229.493
G1 X185.736 E1.8205
G1 Y236.219 E0.3859
G1 X154.010 E1.8205
G1 Y229.493 E0.3859
G1 X153.579 Y229.062
G1 X186.167 E1.8700
G1 Y236.650 E0.4354
G1 X153.579 E1.8700
G1 Y229.062 E0.4354
G1 X153.148 Y228.631
G1 X186.598 E1.9195
G1 Y237.081 E0.4849
G1 X153.148 E1.9195
G1 Y228.631 E0.4849
G1 X152.716 Y228.199
G1 X187.030 E1.9690
G1 Y237.513 E0.5344
G1 X152.716 E1.9690
G1 Y228.199 E0.5344
G1 X152.285 Y227.768
G1 X187.461 E2.0185
G1 Y237.944 E0.5839
G1 X152.285 E2.0185
G1 Y227.768 E0.5839
G1 X151.854 Y227.337
G1 X187.892 E2.0680
G1 Y238.375 E0.6334
G1 X151.854 E2.0680
G1 Y227.337 E0.6334
G1 X151.422 Y226.905
G1 X188.324 E2.1175
G1 Y238.807 E0.6829
G1 X151.422 E2.1175
G1 Y226.905 E0.6829
G1 X150.991 Y226.474
G1 X188.755 E2.1670
G1 Y239.238 E0.7324
G1 X150.991 E2.1670
G1 Y226.474 E0.7324
G1 X150.560 Y226.043
G1 X189.186 E2.2165
G1 Y239.669 E0.7819
G1 X150.560 E2.2165
G1 Y226.043 E0.7819
G1 X150.128 Y225.611
G1 X189.618 E2.2660
G1 Y240.101 E0.8314
G1 X150.128 E2.2660
G1 Y225.611 E0.8314
G1 X149.697 Y225.180
G1 X190.049 E2.3156
G1 Y240.532 E0.8810
G1 X149.697 E2.3156
G1 Y225.180 E0.8810

M204 S5000 ; adjust acceleration
;WIPE_START
G1 F19200
G1 X149.697 Y240.532 E-1.13941 ; wipe and retract
;WIPE_END
G1 E-6.86059 F1500 ; retract
M204 S8000 ; adjust acceleration
G1 X161.939 Y259.095 Z.708 F24000 ; move to first skirt point
G1 Z.32 F1800 ; move to first skirt point
G1 E8 F1500 ;  ; unretract
M204 S1500 ; adjust acceleration
;TYPE:Skirt/Brim
;WIDTH:0.68
;HEIGHT:0.32
G1 F2700
G1 X136.491 Y268.28 E2.20041 ; skirt
G1 X133.804 Y268.751 E.22187 ; skirt
G1 X115.404 Y268.751 E1.4965 ; skirt
G1 X112.927 Y268.353 E.20404 ; skirt
G1 X110.698 Y267.201 E.20407 ; skirt
G1 X108.942 Y265.409 E.20406 ; skirt
G1 X107.835 Y263.158 E.20402 ; skirt
G1 X107.487 Y260.834 E.19112 ; skirt
G1 X107.487 Y194.634 E5.38413 ; skirt
G1 X107.884 Y192.157 E.20403 ; skirt
G1 X109.037 Y189.928 E.20411 ; skirt
G1 X110.828 Y188.172 E.204 ; skirt
G1 X113.08 Y187.065 E.20409 ; skirt
G1 X115.404 Y186.717 E.19112 ; skirt
G1 X181.604 Y186.717 E5.38413 ; skirt
G1 X184.081 Y187.114 E.20403 ; skirt
G1 X186.309 Y188.267 E.20403 ; skirt
G1 X188.065 Y190.058 E.204 ; skirt
G1 X189.234 Y192.524 E.22196 ; skirt
G1 X197.68 Y223.07 E2.57757 ; skirt
G1 X197.966 Y225.18 E.17318 ; skirt
G1 X197.966 Y240.532 E1.2486 ; skirt
G1 X197.568 Y243.009 E.20404 ; skirt
G1 X196.416 Y245.237 E.204 ; skirt
G1 X194.624 Y246.993 E.20406 ; skirt
G1 X192.737 Y247.979 E.17316 ; skirt
G1 X161.995 Y259.075 E2.65817 ; skirt
M204 S5000 ; adjust acceleration
M204 S8000 ; adjust acceleration
G1 X161.995 Y259.075 F24000 ; move to first skirt point
G1 X161.787 Y258.5 ; move to first skirt point
M204 S1500 ; adjust acceleration
G1 F2700
G1 X136.284 Y267.705 E2.20517 ; skirt
G1 X133.804 Y268.139 E.20477 ; skirt
G1 X115.404 Y268.139 E1.4965 ; skirt
G1 X113.027 Y267.742 E.196 ; skirt
G1 X110.909 Y266.593 E.19598 ; skirt
G1 X109.28 Y264.818 E.19594 ; skirt
G1 X108.317 Y262.61 E.19592 ; skirt
G1 X108.098 Y260.834 E.14554 ; skirt
G1 X108.098 Y194.634 E5.38413 ; skirt
G1 X108.495 Y192.257 E.196 ; skirt
G1 X109.644 Y190.139 E.19598 ; skirt
G1 X111.419 Y188.51 E.19594 ; skirt
G1 X113.627 Y187.547 E.19592 ; skirt
G1 X115.404 Y187.328 E.14562 ; skirt
G1 X181.604 Y187.328 E5.38413 ; skirt
G1 X183.98 Y187.725 E.19592 ; skirt
G1 X186.098 Y188.874 E.19598 ; skirt
G1 X187.727 Y190.649 E.19594 ; skirt
G1 X188.645 Y192.687 E.18179 ; skirt
G1 X197.09 Y223.233 E2.57754 ; skirt
G1 X197.354 Y225.18 E.1598 ; skirt
G1 X197.354 Y240.532 E1.2486 ; skirt
G1 X196.957 Y242.908 E.19592 ; skirt
G1 X195.809 Y245.026 E.19594 ; skirt
G1 X194.034 Y246.655 E.19594 ; skirt
G1 X192.529 Y247.404 E.13672 ; skirt
G1 X161.844 Y258.479 E2.65323 ; skirt
M204 S5000 ; adjust acceleration
;WIPE_START
G1 F19200
G1 X161.787 Y258.5 E-.00451 ; wipe and retract
G1 X136.284 Y267.705 E-2.01232 ; wipe and retract
G1 X133.804 Y268.139 E-.18686 ; wipe and retract
G1 X115.404 Y268.139 E-1.36563 ; wipe and retract
G1 X113.027 Y267.742 E-.17886 ; wipe and retract
G1 X110.909 Y266.593 E-.17884 ; wipe and retract
G1 X109.28 Y264.818 E-.17881 ; wipe and retract
G1 X108.317 Y262.61 E-.17878 ; wipe and retract
G1 X108.098 Y260.834 E-.13281 ; wipe and retract
G1 X108.098 Y212.563 E-3.58258 ; wipe and retract
;WIPE_END
M204 S8000 ; adjust acceleration
G1 X132.936 Y212.151 Z.754 F24000 ; move to first perimeter point
G1 Z.32 F1800 ; move to first perimeter point
G1 E8 F1500 ;  ; unretract
; printing object Offset_X_Y_dual_extruder_1 id:0 copy 0
M204 S1500 ; adjust acceleration
;TYPE:Perimeter
;WIDTH:0.68
G1 F2700
G2 X132.652 Y212.799 I.659 J.674 E.05899 ; perimeter
G1 X132.652 Y259.682 E3.81305 ; perimeter
G1 X116.555 Y259.682 E1.30919 ; perimeter
G1 X116.555 Y195.785 E5.19682 ; perimeter
G1 X180.452 Y195.785 E5.19682 ; perimeter
G1 X180.452 Y203.834 E.65464 ; perimeter
G1 X180.452 Y211.882 E.65455 ; perimeter
G1 X133.569 Y211.882 E3.81305 ; perimeter
G2 X132.98 Y212.11 I.026 J.943 E.05238 ; perimeter
M204 S5000 ; adjust acceleration
M204 S8000 ; adjust acceleration
G1 X132.98 Y212.11 F24000 ; move to first perimeter point
G1 X133.378 Y212.576 ; move to first perimeter point
M204 S1500 ; adjust acceleration
;TYPE:External perimeter
G1 F2700
G2 X133.264 Y212.799 I.224 J.256 E.02086 ; perimeter
G1 X133.264 Y260.294 E3.86283 ; perimeter
G1 X115.944 Y260.294 E1.40866 ; perimeter
G1 X115.944 Y195.174 E5.29629 ; perimeter
G1 X181.064 Y195.174 E5.29629 ; perimeter
G1 X181.064 Y203.834 E.70433 ; perimeter
G1 X181.064 Y212.494 E.70433 ; perimeter
G1 X133.569 Y212.494 E3.86283 ; perimeter
G2 X133.427 Y212.541 I.033 J.338 E.01227 ; perimeter
M204 S5000 ; adjust acceleration
;WIPE_START
G1 F19200
G1 X133.378 Y212.576 E-.00447 ; wipe and retract
G2 X133.264 Y212.799 I.225 J.256 E-.01904 ; wipe and retract
G1 X133.264 Y260.294 E-3.52502 ; wipe and retract
G1 X115.944 Y260.294 E-1.28547 ; wipe and retract
G1 X115.944 Y217.636 E-3.166 ; wipe and retract
;WIPE_END
M204 S8000 ; adjust acceleration
G1 X178.965 Y196.029 Z1.483 F24000 ; move to first infill point
G1 Z.32 F1800 ; move to first infill point
G1 E8 F1500 ;  ; unretract
M204 S1500 ; adjust acceleration
;TYPE:Solid infill
;WIDTH:0.683462
G1 F2700
G1 X179.933 Y196.997 E.11197 ; infill
G1 X179.933 Y197.867 E.07116 ; infill
G1 X178.37 Y196.305 E.18074 ; infill
G1 X177.501 Y196.305 E.07108 ; infill
G1 X179.933 Y198.736 E.28125 ; infill
G1 X179.933 Y199.606 E.07116 ; infill
G1 X176.631 Y196.305 E.38189 ; infill
G1 X175.762 Y196.305 E.07108 ; infill
G1 X179.933 Y200.475 E.48241 ; infill
G1 X179.933 Y201.345 E.07116 ; infill
G1 X174.892 Y196.305 E.58304 ; infill
G1 X174.023 Y196.305 E.07108 ; infill
G1 X179.933 Y202.214 E.68356 ; infill
G1 X179.933 Y203.084 E.07116 ; infill
G1 X173.154 Y196.305 E.78413 ; infill
G1 X172.284 Y196.305 E.07116 ; infill
G1 X179.933 Y203.953 E.88471 ; infill
G1 X179.933 Y204.822 E.07108 ; infill
G1 X171.415 Y196.305 E.98523 ; infill
G1 X170.545 Y196.305 E.07116 ; infill
G1 X179.933 Y205.692 E1.08586 ; infill
G1 X179.933 Y206.561 E.07108 ; infill
G1 X169.676 Y196.305 E1.18638 ; infill
G1 X168.806 Y196.305 E.07116 ; infill
G1 X179.933 Y207.431 E1.28702 ; infill
G1 X179.933 Y208.3 E.07108 ; infill
G1 X167.937 Y196.305 E1.38753 ; infill
G1 X167.068 Y196.305 E.07108 ; infill
G1 X179.933 Y209.17 E1.48811 ; infill
G1 X179.933 Y210.039 E.07108 ; infill
G1 X166.198 Y196.305 E1.58869 ; infill
G1 X165.329 Y196.305 E.07108 ; infill
G1 X179.933 Y210.909 E1.68926 ; infill
G1 X179.933 Y211.363 E.03713 ; infill
G1 X179.517 Y211.363 E.03403 ; infill
G1 X164.459 Y196.305 E1.74178 ; infill
G1 X163.59 Y196.305 E.07108 ; infill
G1 X178.648 Y211.363 E1.74178 ; infill
G1 X177.778 Y211.363 E.07116 ; infill
G1 X162.72 Y196.305 E1.74178 ; infill
G1 X161.851 Y196.305 E.07108 ; infill
G1 X176.909 Y211.363 E1.74178 ; infill
G1 X176.04 Y211.363 E.07108 ; infill
G1 X160.981 Y196.305 E1.74183 ; infill
G1 X160.112 Y196.305 E.07108 ; infill
G1 X175.17 Y211.363 E1.74178 ; infill
G1 X174.301 Y211.363 E.07108 ; infill
G1 X159.243 Y196.305 E1.74178 ; infill
G1 X158.373 Y196.305 E.07116 ; infill
G1 X173.431 Y211.363 E1.74178 ; infill
G1 X172.562 Y211.363 E.07108 ; infill
G1 X157.504 Y196.305 E1.74178 ; infill
G1 X156.634 Y196.305 E.07116 ; infill
G1 X171.692 Y211.363 E1.74178 ; infill
G1 X170.823 Y211.363 E.07108 ; infill
G1 X155.765 Y196.305 E1.74178 ; infill
G1 X154.895 Y196.305 E.07116 ; infill
G1 X169.953 Y211.363 E1.74178 ; infill
G1 X169.084 Y211.363 E.07108 ; infill
G1 X154.026 Y196.305 E1.74178 ; infill
G1 X153.156 Y196.305 E.07116 ; infill
G1 X168.215 Y211.363 E1.74183 ; infill
G1 X167.345 Y211.363 E.07116 ; infill
G1 X152.287 Y196.305 E1.74178 ; infill
G1 X151.418 Y196.305 E.07108 ; infill
G1 X166.476 Y211.363 E1.74178 ; infill
G1 X165.606 Y211.363 E.07116 ; infill
G1 X150.548 Y196.305 E1.74178 ; infill
G1 X149.679 Y196.305 E.07108 ; infill
G1 X164.737 Y211.363 E1.74178 ; infill
G1 X163.867 Y211.363 E.07116 ; infill
G1 X148.809 Y196.305 E1.74178 ; infill
G1 X147.94 Y196.305 E.07108 ; infill
G1 X162.998 Y211.363 E1.74178 ; infill
G1 X162.128 Y211.363 E.07116 ; infill
G1 X147.07 Y196.305 E1.74178 ; infill
G1 X146.201 Y196.305 E.07108 ; infill
G1 X161.259 Y211.363 E1.74178 ; infill
G1 X160.39 Y211.363 E.07108 ; infill
G1 X145.331 Y196.305 E1.74183 ; infill
G1 X144.462 Y196.305 E.07108 ; infill
G1 X159.52 Y211.363 E1.74178 ; infill
G1 X158.651 Y211.363 E.07108 ; infill
G1 X143.593 Y196.305 E1.74178 ; infill
G1 X142.723 Y196.305 E.07116 ; infill
G1 X157.781 Y211.363 E1.74178 ; infill
G1 X156.912 Y211.363 E.07108 ; infill
G1 X141.854 Y196.305 E1.74178 ; infill
G1 X140.984 Y196.305 E.07116 ; infill
G1 X156.042 Y211.363 E1.74178 ; infill
G1 X155.173 Y211.363 E.07108 ; infill
G1 X140.115 Y196.305 E1.74178 ; infill
G1 X139.245 Y196.305 E.07116 ; infill
G1 X154.303 Y211.363 E1.74178 ; infill
G1 X153.434 Y211.363 E.07108 ; infill
G1 X138.376 Y196.305 E1.74178 ; infill
G1 X137.506 Y196.305 E.07116 ; infill
G1 X152.565 Y211.363 E1.74183 ; infill
G1 X151.695 Y211.363 E.07116 ; infill
G1 X136.637 Y196.305 E1.74178 ; infill
G1 X135.768 Y196.305 E.07108 ; infill
G1 X150.826 Y211.363 E1.74178 ; infill
G1 X149.956 Y211.363 E.07116 ; infill
G1 X134.898 Y196.305 E1.74178 ; infill
G1 X134.029 Y196.305 E.07108 ; infill
G1 X149.087 Y211.363 E1.74178 ; infill
G1 X148.217 Y211.363 E.07116 ; infill
G1 X133.159 Y196.305 E1.74178 ; infill
G1 X132.29 Y196.305 E.07108 ; infill
G1 X147.348 Y211.363 E1.74178 ; infill
G1 X146.478 Y211.363 E.07116 ; infill
G1 X131.42 Y196.305 E1.74178 ; infill
G1 X130.551 Y196.305 E.07108 ; infill
G1 X145.609 Y211.363 E1.74178 ; infill
G1 X144.74 Y211.363 E.07108 ; infill
G1 X129.681 Y196.305 E1.74183 ; infill
G1 X128.812 Y196.305 E.07108 ; infill
G1 X143.87 Y211.363 E1.74178 ; infill
G1 X143.001 Y211.363 E.07108 ; infill
G1 X127.943 Y196.305 E1.74178 ; infill
G1 X127.073 Y196.305 E.07116 ; infill
G1 X142.131 Y211.363 E1.74178 ; infill
G1 X141.262 Y211.363 E.07108 ; infill
G1 X126.204 Y196.305 E1.74178 ; infill
M568 P1 A2 ;Predictive Heating
G1 X125.334 Y196.305 E.07116 ; infill
G1 X140.392 Y211.363 E1.74178 ; infill
G1 X139.523 Y211.363 E.07108 ; infill
G1 X124.465 Y196.305 E1.74178 ; infill
G1 X123.595 Y196.305 E.07116 ; infill
G1 X138.653 Y211.363 E1.74178 ; infill
G1 X137.784 Y211.363 E.07108 ; infill
G1 X122.726 Y196.305 E1.74178 ; infill
G1 X121.856 Y196.305 E.07116 ; infill
G1 X136.915 Y211.363 E1.74183 ; infill
G1 X136.045 Y211.363 E.07116 ; infill
G1 X120.987 Y196.305 E1.74178 ; infill
G1 X120.118 Y196.305 E.07108 ; infill
G1 X135.176 Y211.363 E1.74178 ; infill
G1 X134.306 Y211.363 E.07116 ; infill
G1 X119.248 Y196.305 E1.74178 ; infill
G1 X118.379 Y196.305 E.07108 ; infill
G1 X133.451 Y211.377 E1.7434 ; infill
G2 X132.797 Y211.592 I.066 J1.3 E.05699 ; infill
G1 X117.509 Y196.305 E1.76832 ; infill
G1 X117.075 Y196.305 E.0355 ; infill
G1 X117.075 Y196.739 E.0355 ; infill
G1 X132.367 Y212.031 E1.76884 ; infill
G2 X132.143 Y212.677 I1.062 J.73 E.0566 ; infill
G1 X117.075 Y197.609 E1.74293 ; infill
G1 X117.075 Y198.478 E.07108 ; infill
G1 X132.133 Y213.536 E1.74178 ; infill
G1 X132.133 Y214.406 E.07116 ; infill
G1 X117.075 Y199.348 E1.74178 ; infill
G1 X117.075 Y200.217 E.07108 ; infill
G1 X132.133 Y215.275 E1.74178 ; infill
G1 X132.133 Y216.145 E.07116 ; infill
G1 X117.075 Y201.086 E1.74183 ; infill
G1 X117.075 Y201.956 E.07116 ; infill
G1 X132.133 Y217.014 E1.74178 ; infill
G1 X132.133 Y217.883 E.07108 ; infill
G1 X117.075 Y202.825 E1.74178 ; infill
G1 X117.075 Y203.695 E.07116 ; infill
G1 X132.133 Y218.753 E1.74178 ; infill
G1 X132.133 Y219.622 E.07108 ; infill
G1 X117.075 Y204.564 E1.74178 ; infill
G1 X117.075 Y205.434 E.07116 ; infill
G1 X132.133 Y220.492 E1.74178 ; infill
G1 X132.133 Y221.361 E.07108 ; infill
G1 X117.075 Y206.303 E1.74178 ; infill
G1 X117.075 Y207.173 E.07116 ; infill
G1 X132.133 Y222.231 E1.74178 ; infill
G1 X132.133 Y223.1 E.07108 ; infill
G1 X117.075 Y208.042 E1.74178 ; infill
G1 X117.075 Y208.911 E.07108 ; infill
