; generated by SuperSlicer 2.5.59.8 on 2025-01-24 at 13:52:43 UTC


;
;

;
;
; TODO: check the size of the extruder and the y-bar clearance. Optimize & test supports.

; external perimeters extrusion width = 0.84mm
; perimeters extrusion width = 0.84mm
; infill extrusion width = 0.84mm
; solid infill extrusion width = 0.84mm
; top infill extrusion width = 0.84mm
; first layer extrusion width = 0.84mm

; object:{"name":"bottom_left_sawtooth_3mm","id":"bottom_left_sawtooth_3mm.stl id:0 copy 0","object_center":[250.000000,250.000000,0.000000],"boundingbox_center":[250.000000,250.000000,1.500000],"boundingbox_size":[299.875000,347.000000,3.000000]}
; Total objects to print: 1
M486 T1
; plater:{"center":[250.000000,250.000000,0.000000],"boundingbox_center":[250.000000,250.000000,1.500000],"boundingbox_size":[299.875000,347.000000,3.000000]}

M107
M140 S55 ; set bed temperature
G10 P0 R205 ; sets the standby temperature
;TYPE:Custom
; M190 S0
; M109 S0 ; uncomment to remove set&wait temp gcode added automatically after this start gcode
print_start EXTRUDER=215 BED=55 CHAMBER=15
M109 S215
M107
G21 ; set units to millimeters
G90 ; use absolute coordinates
M83 ; use relative distances for extrusion
T0
M190 S55 ; set bed temperature and wait for it to be reached
;LAYER_CHANGE
;Z:0.3
;HEIGHT:0.3
;BEFORE_LAYER_CHANGE
;0.3


G1 Z0.3 F18000
;AFTER_LAYER_CHANGE
;0.3
G92 E0
G1 E-0.75 F3000
G1 Z0.7 F18000
M204 P1000 T1000
G1 X111.903 Y83.286
G1 Z0.3
G1 E0.75 F1800
;TYPE:Skirt
;WIDTH:0.78
M107
G1 X95.903 Y114.411 E3.12366
G1 X95.373 Y116.6 E0.20106
G1 X95.373 Y326.4 E18.72591
G1 X95.949 Y328.676 E0.20952
G1 X111.949 Y358.301 E3.00521
G1 X112.754 Y359.389 E0.12085
G1 X179.254 Y426.764 E8.4495
G1 X180.756 Y427.793 E0.16251
G1 X182.662 Y428.189 E0.17379
G1 X369.462 Y428.189 E16.67302
G1 X370.781 Y428.004 E0.11882
G1 X372.505 Y427.099 E0.17379
G1 X393.63 Y409.724 E2.44137
G1 X394.463 Y408.839 E0.10845
G1 X395.263 Y407.064 E0.17379
G1 X404.513 Y365.439 E3.80591
G1 X404.626 Y364.429 E0.09069
G1 X404.727 Y348 E1.46643
G1 X404.727 Y94 E22.67103
G1 X404.626 Y76.572 E1.55554
G1 X404.349 Y74.994 E0.14301
G1 X403.337 Y73.331 E0.17379
G1 X401.747 Y72.208 E0.17379
G1 X399.84 Y71.811 E0.17379
G1 X371.232 Y71.793 E2.55346
G1 X153.198 Y71.811 E19.46085
G1 X152.088 Y71.943 E0.09975
G1 X115.047 Y80.818 E3.39976
G1 X113.127 Y81.771 E0.19131
G1 X111.96 Y83.216 E0.16576
M107
G1 X112.54 Y83.613 F18000
M107
G1 F1800
G1 X96.54 Y114.738 E3.12366
G1 X96.089 Y116.6 E0.17102
G1 X96.089 Y326.4 E18.72591
G1 X96.578 Y328.336 E0.17821
G1 X112.578 Y357.961 E3.00521
G1 X113.263 Y358.886 E0.10279
G1 X179.763 Y426.261 E8.4495
G1 X180.912 Y427.078 E0.12584
G1 X182.662 Y427.473 E0.16013
G1 X369.462 Y427.473 E16.67302
G1 X370.447 Y427.353 E0.08857
G1 X372.05 Y426.546 E0.16013
G1 X393.175 Y409.171 E2.44137
G1 X394.564 Y406.909 E0.23695
G1 X403.814 Y365.284 E3.80591
G1 X403.911 Y364.425 E0.07714
G1 X404.011 Y348 E1.46604
G1 X404.011 Y94 E22.67103
G1 X403.911 Y76.577 E1.55517
G1 X403.796 Y75.64 E0.08423
G1 X403 Y74.032 E0.16013
G1 X401.59 Y72.923 E0.16013
G1 X399.84 Y72.527 E0.16013
G1 X371.232 Y72.509 E2.55342
G1 X153.199 Y72.527 E19.46077
G1 X152.255 Y72.639 E0.08485
G1 X115.213 Y81.514 E3.39976
G1 X113.691 Y82.237 E0.15042
G1 X112.597 Y83.544 E0.1521
M107
G1 X113.176 Y83.94 F18000
M107
G1 F1800
G1 X97.176 Y115.065 E3.12366
G1 X96.805 Y116.6 E0.14098
G1 X96.805 Y326.4 E18.72591
G1 X97.208 Y327.996 E0.1469
G1 X113.208 Y357.621 E3.00521
G1 X113.773 Y358.384 E0.08473
G1 X180.273 Y425.759 E8.4495
G1 X181.084 Y426.364 E0.09035
G1 X182.662 Y426.758 E0.1452
G1 X369.462 Y426.758 E16.67302
G1 X371.595 Y425.993 E0.20224
G1 X392.72 Y408.618 E2.44137
G1 X393.865 Y406.753 E0.19532
G1 X403.195 Y364.42 E3.86915
G1 X403.295 Y348 E1.46565
G1 X403.295 Y94 E22.67103
G1 X403.195 Y76.581 E1.5548
G1 X402.625 Y74.728 E0.17306
G1 X401.418 Y73.637 E0.1452
G1 X399.84 Y73.242 E0.1452
G1 X371.232 Y73.224 E2.55338
G1 X153.2 Y73.242 E19.46069
G1 X152.422 Y73.335 E0.06994
G1 X115.38 Y82.21 E3.39976
G1 X114.248 Y82.716 E0.11069
G1 X113.235 Y83.872 E0.13716
M107
G1 E-0.75 F3000
M204 P1500 T1000
G1 Z0.7 F18000
; printing object bottom_left_sawtooth_3mm.stl id:0 copy 0
M486 S0
; acceleration to travel
M204 P1500 T1500
G1 X107.155 Y117.077
; decel to extrusion
M204 P1500 T1000
G1 X103.102 Y139.213
; end travel
M204 P1000 T1500
G1 Z0.3
G1 E0.75 F1800
;TYPE:External perimeter
;WIDTH:0.84
M107
G1 X103.304 Y139.524 E0.0358
G1 X103.722 Y139.997 E0.06115
G1 X104.232 Y140.392 E0.06232
G1 X104.806 Y140.683 E0.06231
G1 X105.413 Y140.859 E0.06115
G1 X105.78 Y140.909 E0.0358
G1 X106.15 Y140.92 E0.0358
G1 X106.778 Y140.847 E0.06115
G1 X107.392 Y140.654 E0.06231
G1 X107.949 Y140.354 E0.06116
G1 X108.246 Y140.133 E0.03579
G1 X108.509 Y139.891 E0.03464
G1 X108.746 Y139.622 E0.03464
G1 X108.96 Y139.32 E0.0358
G1 X109.241 Y138.767 E0.05999
G1 X109.358 Y138.416 E0.0358
G1 X109.439 Y138.055 E0.0358
G1 X109.484 Y137.425 E0.06115
G1 X109.411 Y136.797 E0.06116
G1 X109.315 Y136.44 E0.03579
G1 X109.186 Y136.105 E0.03464
G1 X109.023 Y135.787 E0.03464
G1 X108.821 Y135.476 E0.0358
G1 X108.403 Y135.003 E0.06115
G1 X107.893 Y134.608 E0.06232
G1 X107.319 Y134.317 E0.06232
G1 X106.712 Y134.141 E0.06115
G1 X106.345 Y134.091 E0.0358
G1 X105.975 Y134.08 E0.0358
G1 X105.667 Y134.116 E0.02999
G1 X105.347 Y134.153 E0.03115
G1 X104.733 Y134.346 E0.06231
G1 X104.176 Y134.646 E0.06116
G1 X103.879 Y134.867 E0.0358
G1 X103.607 Y135.117 E0.03579
G1 X103.217 Y135.6 E0.05999
G1 X103.029 Y135.918 E0.0358
G1 X102.881 Y136.244 E0.03464
G1 X102.767 Y136.584 E0.03464
G1 X102.686 Y136.945 E0.0358
G1 X102.642 Y137.563 E0.05999
G1 X102.669 Y137.932 E0.0358
G1 X102.735 Y138.296 E0.03579
G1 X102.934 Y138.884 E0.06
G1 X103.061 Y139.133 E0.02709
M107
;WIPE_START
M204 P1500 T1500
G1 X102.811 Y139.739 F18000
;WIPE_END
G1 E-0.75 F3000
G1 Z0.7 F18000
; acceleration to travel
G1 X140.526 Y104.83
; decel to extrusion
M204 P1500 T1000
G1 X165.669 Y81.557
; end travel
M204 P1000 T1500
G1 Z0.3
G1 E0.75 F1800
M107
G1 X165.735 Y81.921 E0.03579
G1 X165.934 Y82.509 E0.06
G1 X166.102 Y82.838 E0.03579
G1 X166.304 Y83.149 E0.0358
G1 X166.722 Y83.622 E0.06115
G1 X167.222 Y84.009 E0.06115
G1 X167.545 Y84.191 E0.0358
G1 X167.884 Y84.337 E0.0358
G1 X168.484 Y84.497 E0.05999
G1 X168.848 Y84.539 E0.03551
G1 X169.153 Y84.545 E0.02945
G1 X169.778 Y84.472 E0.06086
G1 X170.392 Y84.279 E0.06231
G1 X170.949 Y83.979 E0.06115
G1 X171.246 Y83.758 E0.0358
G1 X171.509 Y83.516 E0.03462
G1 X171.742 Y83.252 E0.03405
G1 X171.915 Y83.013 E0.0286
G1 X172.096 Y82.707 E0.03436
G1 X172.244 Y82.381 E0.03464
G1 X172.358 Y82.041 E0.03464
G1 X172.439 Y81.68 E0.0358
G1 X172.483 Y81.062 E0.05999
G1 X172.456 Y80.693 E0.0358
G1 X172.39 Y80.329 E0.03579
G1 X172.191 Y79.741 E0.06
G1 X172.023 Y79.412 E0.03579
G1 X171.821 Y79.101 E0.0358
G1 X171.403 Y78.628 E0.06115
G1 X170.903 Y78.241 E0.06117
G1 X170.58 Y78.059 E0.03584
G1 X170.238 Y77.912 E0.03601
G1 X169.623 Y77.755 E0.06134
G1 X168.989 Y77.725 E0.06141
G1 X168.682 Y77.747 E0.02985
G1 X168.353 Y77.781 E0.03194
G1 X167.735 Y77.971 E0.06258
G1 X167.176 Y78.271 E0.0613
G1 X166.879 Y78.492 E0.03581
G1 X166.607 Y78.742 E0.0358
G1 X166.217 Y79.225 E0.05999
G1 X166.029 Y79.543 E0.0358
G1 X165.881 Y79.869 E0.03464
G1 X165.767 Y80.209 E0.03464
G1 X165.686 Y80.57 E0.0358
G1 X165.642 Y81.188 E0.05999
G1 X165.662 Y81.468 E0.02709
M107
;WIPE_START
M204 P1500 T1500
G1 X165.198 Y81.929 F18000
;WIPE_END
G1 E-0.75 F3000
G1 Z0.7 F18000
; acceleration to travel
G1 X287.407 Y79.866
; decel to extrusion
M204 P1500 T1000
G1 X368.879 Y78.492
; end travel
M204 P1000 T1500
G1 Z0.3
G1 E0.75 F1800
M107
G1 X368.607 Y78.742 E0.03579
G1 X368.217 Y79.225 E0.05999
G1 X368.029 Y79.543 E0.0358
G1 X367.876 Y79.88 E0.0358
G1 X367.703 Y80.476 E0.05999
G1 X367.653 Y80.842 E0.0358
G1 X367.642 Y81.212 E0.0358
G1 X367.714 Y81.828 E0.05999
G1 X367.81 Y82.185 E0.0358
G1 X367.939 Y82.52 E0.03464
G1 X368.102 Y82.838 E0.03464
G1 X368.304 Y83.149 E0.0358
G1 X368.722 Y83.622 E0.06116
G1 X369.222 Y84.009 E0.06115
G1 X369.545 Y84.191 E0.03579
G1 X369.884 Y84.337 E0.0358
G1 X370.484 Y84.497 E0.05999
G1 X370.848 Y84.539 E0.03551
G1 X371.153 Y84.545 E0.02945
G1 X371.778 Y84.472 E0.06086
G1 X372.392 Y84.279 E0.06232
G1 X372.949 Y83.979 E0.06116
G1 X373.246 Y83.758 E0.03579
G1 X373.518 Y83.508 E0.03579
G1 X373.908 Y83.025 E0.05999
G1 X374.096 Y82.707 E0.0358
G1 X374.249 Y82.37 E0.0358
G1 X374.422 Y81.774 E0.05999
G1 X374.472 Y81.408 E0.0358
G1 X374.483 Y81.038 E0.0358
G1 X374.411 Y80.422 E0.05999
G1 X374.315 Y80.065 E0.0358
G1 X374.186 Y79.73 E0.03464
G1 X374.023 Y79.412 E0.03464
G1 X373.821 Y79.101 E0.0358
G1 X373.403 Y78.628 E0.06116
G1 X372.903 Y78.241 E0.06117
G1 X372.58 Y78.059 E0.03583
G1 X372.238 Y77.912 E0.03601
G1 X371.623 Y77.755 E0.06134
G1 X370.989 Y77.725 E0.06141
G1 X370.682 Y77.747 E0.02984
G1 X370.353 Y77.781 E0.03194
G1 X369.735 Y77.971 E0.06258
G1 X369.176 Y78.271 E0.06131
G1 X368.951 Y78.438 E0.0271
M107
;WIPE_START
M204 P1500 T1500
G1 X368.313 Y78.293 F18000
;WIPE_END
G1 E-0.75 F3000
G1 Z0.7 F18000
; acceleration to travel
G1 X386.277 Y90.559
; decel to extrusion
M204 P1500 T1000
G1 X398.254 Y98.736
; end travel
M204 P1000 T1500
G1 Z0.3
G1 E0.75 F1800
M107
G1 X398.527 Y98.454 E0.03804
G1 X399.006 Y97.662 E0.08945
G1 X399.155 Y97.335 E0.03481
G1 X399.324 Y96.754 E0.05857
G1 X399.372 Y96.399 E0.03458
G1 X399.383 Y96.042 E0.03459
G1 X399.312 Y95.441 E0.05857
G1 X399.22 Y95.096 E0.03458
G1 X399.095 Y94.771 E0.03362
G1 X398.939 Y94.466 E0.03315
G1 X398.618 Y93.948 E0.05897
G1 X398.408 Y93.665 E0.03408
G1 X397.91 Y93.248 E0.06285
G1 X397.582 Y93.061 E0.03657
G1 X397.241 Y92.913 E0.03593
G1 X396.641 Y92.753 E0.06002
G1 X396.277 Y92.711 E0.03552
G1 X395.972 Y92.705 E0.02945
G1 X395.667 Y92.741 E0.0297
G1 X395.347 Y92.778 E0.03116
G1 X394.733 Y92.971 E0.06231
G1 X394.176 Y93.271 E0.06116
G1 X393.879 Y93.492 E0.0358
G1 X393.607 Y93.742 E0.03579
G1 X393.217 Y94.225 E0.06
G1 X393.029 Y94.543 E0.0358
G1 X392.876 Y94.88 E0.0358
G1 X392.703 Y95.476 E0.05999
G1 X392.653 Y95.842 E0.0358
G1 X392.642 Y96.212 E0.0358
G1 X392.714 Y96.828 E0.05999
G1 X392.81 Y97.185 E0.0358
G1 X392.939 Y97.52 E0.03464
G1 X393.102 Y97.838 E0.03464
G1 X393.304 Y98.149 E0.0358
G1 X393.722 Y98.622 E0.06116
G1 X394.222 Y99.009 E0.06116
G1 X394.545 Y99.191 E0.03579
G1 X394.884 Y99.337 E0.03579
G1 X395.484 Y99.497 E0.06
G1 X395.848 Y99.539 E0.03551
G1 X396.153 Y99.545 E0.02945
G1 X396.778 Y99.472 E0.06086
G1 X397.393 Y99.278 E0.06242
G1 X397.955 Y98.973 E0.06185
G1 X398.183 Y98.792 E0.02819
M107
;WIPE_START
M204 P1500 T1500
G1 X398.829 Y98.907 F18000
;WIPE_END
G1 E-0.75 F3000
G1 Z0.7 F18000
; acceleration to travel
G1 X398.183 Y248.987
; decel to extrusion
M204 P1500 T1000
G1 X397.753 Y349.04
; end travel
M204 P1000 T1500
G1 Z0.3
G1 E0.75 F1800
M107
G1 X398.065 Y348.831 E0.03624
G1 X398.534 Y348.366 E0.06393
G1 X398.673 Y348.085 E0.03038
G1 X398.83 Y347.87 E0.02573
G1 X399.106 Y347.326 E0.05897
G1 X399.275 Y346.743 E0.05871
G1 X399.322 Y346.395 E0.03397
G1 X399.333 Y346.044 E0.03398
G1 X399.262 Y345.441 E0.05871
G1 X399.076 Y344.851 E0.05986
G1 X398.638 Y344.062 E0.08734
G1 X398.42 Y343.751 E0.03675
G1 X397.942 Y343.329 E0.06168
G1 X397.622 Y343.138 E0.03601
G1 X397.291 Y342.985 E0.03533
G1 X396.702 Y342.815 E0.05932
G1 X396.341 Y342.766 E0.0352
G1 X395.988 Y342.755 E0.03413
G1 X395.637 Y342.781 E0.03412
G1 X395.279 Y342.846 E0.03519
G1 X394.698 Y343.042 E0.05928
G1 X394.374 Y343.208 E0.03518
G1 X394.069 Y343.406 E0.0352
G1 X393.602 Y343.819 E0.06034
G1 X393.213 Y344.321 E0.06141
G1 X392.926 Y344.887 E0.0614
G1 X392.752 Y345.486 E0.06034
G1 X392.703 Y345.847 E0.0352
G1 X392.692 Y346.21 E0.03518
G1 X392.765 Y346.83 E0.06033
G1 X392.955 Y347.435 E0.06141
G1 X393.25 Y347.984 E0.06035
G1 X393.468 Y348.276 E0.03519
G1 X393.714 Y348.544 E0.03518
G1 X394.191 Y348.929 E0.05928
G1 X394.504 Y349.114 E0.03519
G1 X394.835 Y349.265 E0.03519
G1 X395.424 Y349.435 E0.05928
G1 X395.784 Y349.484 E0.03519
G1 X396.137 Y349.495 E0.03414
G1 X396.488 Y349.469 E0.03413
G1 X396.846 Y349.404 E0.03519
G1 X397.428 Y349.207 E0.05936
G1 X397.673 Y349.081 E0.02671
M107
;WIPE_START
M204 P1500 T1500
G1 X398.281 Y349.325 F18000
;WIPE_END
G1 E-0.75 F3000
G1 Z0.7 F18000
; acceleration to travel
G1 X370.93 Y391.797
; decel to extrusion
M204 P1500 T1000
G1 X352.696 Y420.112
; end travel
M204 P1000 T1500
G1 Z0.3
G1 E0.75 F1800
;TYPE:Internal perimeter
M107
G1 X353.057 Y419.878 E0.0416
G1 X353.628 Y419.373 E0.07376
G1 X354.095 Y418.77 E0.07376
G1 X354.324 Y418.362 E0.04524
G1 X354.509 Y417.933 E0.04524
G1 X354.699 Y417.224 E0.07101
G1 X354.751 Y416.766 E0.04456
G1 X354.759 Y416.372 E0.03811
G1 X354.671 Y415.622 E0.07305
G1 X354.434 Y414.868 E0.07651
G1 X354.073 Y414.196 E0.07376
G1 X353.794 Y413.821 E0.04524
G1 X353.477 Y413.477 E0.04524
G1 X352.906 Y413.016 E0.07102
G1 X352.503 Y412.778 E0.04525
G1 X352.078 Y412.584 E0.04523
G1 X351.373 Y412.38 E0.071
G1 X350.909 Y412.317 E0.04525
G1 X350.47 Y412.304 E0.04251
G1 X350.032 Y412.336 E0.04249
G1 X349.572 Y412.419 E0.04525
G1 X348.876 Y412.654 E0.07101
G1 X348.46 Y412.867 E0.04523
G1 X348.068 Y413.122 E0.04525
G1 X347.497 Y413.627 E0.07376
G1 X347.03 Y414.23 E0.07376
G1 X346.801 Y414.638 E0.04524
G1 X346.616 Y415.067 E0.04524
G1 X346.426 Y415.776 E0.07101
G1 X346.374 Y416.234 E0.04456
G1 X346.366 Y416.628 E0.03811
G1 X346.454 Y417.378 E0.07305
G1 X346.691 Y418.132 E0.07651
G1 X347.052 Y418.804 E0.07376
G1 X347.331 Y419.179 E0.04524
G1 X347.648 Y419.523 E0.04524
G1 X348.219 Y419.984 E0.07102
G1 X348.622 Y420.222 E0.04525
G1 X349.047 Y420.416 E0.04523
G1 X349.752 Y420.62 E0.071
G1 X350.216 Y420.683 E0.04525
G1 X350.655 Y420.696 E0.04251
G1 X351.093 Y420.664 E0.04249
G1 X351.553 Y420.581 E0.04525
G1 X352.249 Y420.346 E0.07101
G1 X352.618 Y420.157 E0.04016
M107
M204 P1000 T1000
G1 X352.276 Y419.461 F18000
;TYPE:External perimeter
M107
G1 F1800
G1 X352.586 Y419.259 E0.0358
G1 X353.06 Y418.84 E0.06116
G1 X353.447 Y418.34 E0.06115
G1 X353.628 Y418.018 E0.0358
G1 X353.775 Y417.678 E0.0358
G1 X353.935 Y417.079 E0.05999
G1 X353.976 Y416.714 E0.03551
G1 X353.982 Y416.41 E0.02946
G1 X353.909 Y415.785 E0.06085
G1 X353.716 Y415.17 E0.06232
G1 X353.417 Y414.614 E0.06115
G1 X353.196 Y414.317 E0.0358
G1 X352.945 Y414.045 E0.0358
G1 X352.463 Y413.655 E0.05999
G1 X352.144 Y413.467 E0.0358
G1 X351.808 Y413.313 E0.03579
G1 X351.212 Y413.141 E0.05999
G1 X350.845 Y413.091 E0.0358
G1 X350.487 Y413.08 E0.03464
G1 X350.13 Y413.107 E0.03463
G1 X349.766 Y413.173 E0.0358
G1 X349.179 Y413.371 E0.05999
G1 X348.849 Y413.539 E0.03579
G1 X348.539 Y413.741 E0.0358
G1 X348.065 Y414.16 E0.06116
G1 X347.678 Y414.66 E0.06115
G1 X347.497 Y414.982 E0.0358
G1 X347.35 Y415.322 E0.0358
G1 X347.19 Y415.921 E0.05999
G1 X347.149 Y416.286 E0.03551
G1 X347.143 Y416.59 E0.02946
G1 X347.216 Y417.215 E0.06085
G1 X347.409 Y417.83 E0.06232
G1 X347.708 Y418.386 E0.06115
G1 X347.929 Y418.683 E0.0358
G1 X348.18 Y418.955 E0.0358
G1 X348.662 Y419.345 E0.05999
G1 X348.981 Y419.533 E0.0358
G1 X349.317 Y419.687 E0.03579
G1 X349.913 Y419.859 E0.05999
G1 X350.28 Y419.909 E0.0358
G1 X350.638 Y419.92 E0.03464
G1 X350.995 Y419.893 E0.03463
G1 X351.359 Y419.827 E0.0358
G1 X351.946 Y419.629 E0.05999
G1 X352.196 Y419.502 E0.02708
M107
;WIPE_START
M204 P1500 T1000
G1 X352.801 Y419.751 F18000
;WIPE_END
G1 E-0.75 F3000
G1 Z0.7 F18000
; acceleration to travel
M204 P1500 T1500
G1 X258.958 Y418.096
; decel to extrusion
M204 P1500 T1000
G1 X196.396 Y416.993
; end travel
M204 P1000 T1500
G1 Z0.3
G1 E0.75 F1800
;TYPE:Internal perimeter
M107
G1 X196.399 Y417.03 E0.00364
G1 X196.482 Y417.491 E0.04524
G1 X196.726 Y418.213 E0.07376
G1 X197.101 Y418.877 E0.07376
G1 X197.388 Y419.246 E0.04524
G1 X197.692 Y419.563 E0.04251
G1 X198.028 Y419.846 E0.0425
G1 X198.415 Y420.108 E0.04524
G1 X199.102 Y420.44 E0.07377
G1 X199.832 Y420.634 E0.07305
G1 X200.223 Y420.683 E0.03811
G1 X200.655 Y420.696 E0.04183
G1 X201.093 Y420.664 E0.04249
G1 X201.553 Y420.581 E0.04525
G1 X202.249 Y420.346 E0.07101
G1 X202.665 Y420.133 E0.04523
G1 X203.057 Y419.878 E0.04525
G1 X203.607 Y419.392 E0.07102
