; generated by SuperSlicer 2.5.59.8 on 2025-01-23 at 15:07:05 UTC


;
;

;
;
; TODO: check the size of the extruder and the y-bar clearance. Optimize & test supports.

; external perimeters extrusion width = 0.84mm
; perimeters extrusion width = 0.84mm
; infill extrusion width = 0.84mm
; solid infill extrusion width = 0.84mm
; top infill extrusion width = 0.84mm
; first layer extrusion width = 0.84mm

; object:{"name":"bottom_right_sawtooth_3mm","id":"bottom_right_sawtooth_3mm.stl id:0 copy 0","object_center":[250.000000,250.000000,0.000000],"boundingbox_center":[250.000000,250.000000,1.500000],"boundingbox_size":[299.875000,355.875000,3.000000]}
; Total objects to print: 1
M486 T1
; plater:{"center":[250.000000,250.000000,0.000000],"boundingbox_center":[250.000000,250.000000,1.500000],"boundingbox_size":[299.875000,355.875000,3.000000]}

M107
M140 S55 ; set bed temperature
G10 P0 R205 ; sets the standby temperature
;TYPE:Custom
; M190 S0
; M109 S0 ; uncomment to remove set&wait temp gcode added automatically after this start gcode
print_start EXTRUDER=215 BED=55 CHAMBER=15
M109 S215
M107
G21 ; set units to millimeters
G90 ; use absolute coordinates
M83 ; use relative distances for extrusion
T0
M190 S55 ; set bed temperature and wait for it to be reached
;LAYER_CHANGE
;Z:0.3
;HEIGHT:0.3
;BEFORE_LAYER_CHANGE
;0.3


G1 Z0.3 F18000
;AFTER_LAYER_CHANGE
;0.3
G92 E0
G1 E-0.75 F3000
G1 Z0.7 F18000
M204 P1000 T1000
G1 X124.697 Y123.766
G1 Z0.3
G1 E0.75 F1800
;TYPE:Skirt
;WIDTH:0.78
M107
G1 X112.763 Y135.789 E1.51195
G1 X96.423 Y156.171 E2.33168
G1 X95.769 Y157.256 E0.11308
G1 X95.373 Y159.162 E0.17379
G1 X95.373 Y378.962 E19.61847
G1 X95.611 Y380.452 E0.13467
G1 X111.611 Y429.327 E4.59019
G1 X112.641 Y431.083 E0.1817
G1 X114.224 Y432.217 E0.17379
G1 X116.128 Y432.626 E0.17379
G1 X129.996 Y432.726 E1.2378
G1 X342.765 Y432.727 E18.99095
G1 X358.161 Y432.626 E1.37419
G1 X359.442 Y432.443 E0.11549
G1 X391.9 Y423.193 E3.01245
G1 X393.022 Y422.712 E0.10898
G1 X394.463 Y421.402 E0.17379
G1 X395.263 Y419.626 E0.17379
G1 X404.513 Y378.001 E3.80591
G1 X404.626 Y377.006 E0.08939
G1 X404.727 Y366.062 E0.97685
G1 X404.727 Y107.062 E23.11731
G1 X404.626 Y89.136 E1.6001
G1 X403.925 Y86.668 E0.229
G1 X393.55 Y69.668 E1.77761
G1 X391.369 Y67.769 E0.25811
G1 X389.462 Y67.373 E0.17379
G1 X182.662 Y67.373 E18.45814
G1 X180.887 Y67.715 E0.16134
G1 X179.263 Y68.789 E0.17379
G1 X124.76 Y123.702 E6.90573
M107
G1 X125.268 Y124.206 F18000
M107
G1 F1800
G1 X113.271 Y136.293 E1.51999
G1 X96.982 Y156.618 E2.32487
G1 X96.484 Y157.412 E0.08368
G1 X96.089 Y159.162 E0.16013
G1 X96.089 Y378.962 E19.61847
G1 X96.291 Y380.23 E0.11455
G1 X112.291 Y429.105 E4.59019
G1 X112.983 Y430.384 E0.12985
G1 X114.386 Y431.503 E0.16013
G1 X116.133 Y431.911 E0.16013
G1 X130.03 Y432.011 E1.24042
G1 X342.765 Y432.011 E18.98787
G1 X358.156 Y431.911 E1.37377
G1 X359.246 Y431.755 E0.09824
G1 X391.704 Y422.505 E3.01245
G1 X393.799 Y421.094 E0.22543
G1 X394.564 Y419.471 E0.16013
G1 X403.814 Y377.846 E3.80591
G1 X403.911 Y377 E0.07603
G1 X404.011 Y366.062 E0.97627
G1 X404.011 Y107.062 E23.11731
G1 X403.911 Y89.14 E1.59974
G1 X403.315 Y87.04 E0.19478
G1 X392.94 Y70.04 E1.77761
G1 X391.213 Y68.484 E0.2075
G1 X389.462 Y68.089 E0.16013
G1 X182.662 Y68.089 E18.45814
G1 X181.285 Y68.329 E0.12484
G1 X179.771 Y69.293 E0.16013
G1 X125.331 Y124.142 E6.89769
M107
G1 X125.839 Y124.646 F18000
M107
G1 F1800
G1 X113.779 Y136.797 E1.52802
G1 X97.54 Y157.065 E2.31805
G1 X96.805 Y159.162 E0.19841
G1 X96.805 Y378.962 E19.61847
G1 X96.971 Y380.007 E0.09442
G1 X112.971 Y428.882 E4.59019
G1 X113.363 Y429.691 E0.08025
G1 X114.563 Y430.79 E0.1452
G1 X116.138 Y431.195 E0.1452
G1 X130.03 Y431.295 E1.23996
G1 X342.765 Y431.295 E18.98787
G1 X358.151 Y431.195 E1.37335
G1 X359.049 Y431.067 E0.08098
G1 X391.508 Y421.817 E3.01245
G1 X393.138 Y420.771 E0.17289
G1 X393.865 Y419.316 E0.1452
G1 X403.195 Y376.993 E3.86825
G1 X403.295 Y366.062 E0.97568
G1 X403.295 Y107.062 E23.11731
G1 X403.195 Y89.144 E1.59938
G1 X402.704 Y87.413 E0.16057
G1 X392.329 Y70.413 E1.77761
G1 X391.041 Y69.199 E0.15801
G1 X389.462 Y68.805 E0.1452
G1 X182.662 Y68.805 E18.45814
G1 X181.671 Y68.954 E0.08952
G1 X180.279 Y69.797 E0.1452
G1 X125.903 Y124.583 E6.88966
M107
G1 E-0.75 F3000
M204 P1500 T1000
G1 Z0.7 F18000
; printing object bottom_right_sawtooth_3mm.stl id:0 copy 0
M486 S0
; acceleration to travel
M204 P1500 T1500
G1 X112.389 Y155.997
; decel to extrusion
M204 P1500 T1000
G1 X103.379 Y176.941
; end travel
M204 P1000 T1500
G1 Z0.3
G1 E0.75 F1800
;TYPE:External perimeter
;WIDTH:0.84
M107
G1 X103.165 Y177.242 E0.0358
G1 X102.884 Y177.795 E0.05999
G1 X102.767 Y178.146 E0.0358
G1 X102.686 Y178.507 E0.0358
G1 X102.642 Y179.126 E0.05999
G1 X102.669 Y179.495 E0.0358
G1 X102.735 Y179.859 E0.03579
G1 X102.934 Y180.446 E0.06
G1 X103.102 Y180.776 E0.0358
G1 X103.304 Y181.086 E0.0358
G1 X103.714 Y181.551 E0.05999
G1 X103.997 Y181.789 E0.0358
G1 X104.303 Y181.997 E0.0358
G1 X104.873 Y182.272 E0.06116
G1 X105.495 Y182.438 E0.06232
G1 X106.126 Y182.483 E0.06115
G1 X106.495 Y182.456 E0.0358
G1 X106.859 Y182.39 E0.0358
G1 X107.446 Y182.192 E0.05997
G1 X107.77 Y182.026 E0.03521
G1 X108.03 Y181.861 E0.02975
G1 X108.501 Y181.462 E0.05971
G1 X108.746 Y181.184 E0.0358
G1 X108.96 Y180.883 E0.03579
G1 X109.241 Y180.33 E0.05999
G1 X109.358 Y179.979 E0.0358
G1 X109.439 Y179.618 E0.0358
G1 X109.484 Y178.987 E0.06116
G1 X109.411 Y178.359 E0.06116
G1 X109.315 Y178.002 E0.03579
G1 X109.186 Y177.668 E0.03464
G1 X109.023 Y177.349 E0.03464
G1 X108.821 Y177.039 E0.0358
G1 X108.411 Y176.574 E0.05999
G1 X108.13 Y176.338 E0.03551
G1 X107.88 Y176.164 E0.02945
G1 X107.319 Y175.879 E0.06086
G1 X106.712 Y175.703 E0.06115
G1 X106.345 Y175.653 E0.03581
G1 X105.975 Y175.642 E0.0358
G1 X105.667 Y175.678 E0.02999
G1 X105.347 Y175.716 E0.03116
G1 X104.744 Y175.905 E0.06115
G1 X104.411 Y176.067 E0.0358
G1 X104.097 Y176.262 E0.0358
G1 X103.624 Y176.663 E0.05999
G1 X103.439 Y176.873 E0.02709
M107
;WIPE_START
M204 P1500 T1500
G1 X102.784 Y176.864 F18000
;WIPE_END
G1 E-0.75 F3000
G1 Z0.7 F18000
; acceleration to travel
G1 X162.104 Y115.752
; decel to extrusion
M204 P1500 T1000
G1 X201.65 Y75.01
; end travel
M204 P1000 T1500
G1 Z0.3
G1 E0.75 F1800
;TYPE:Internal perimeter
M107
G1 X201.231 Y74.917 E0.0416
G1 X200.498 Y74.864 E0.07101
G1 X200.032 Y74.899 E0.04524
G1 X199.572 Y74.982 E0.04524
G1 X198.876 Y75.217 E0.07101
G1 X198.46 Y75.43 E0.04524
G1 X198.068 Y75.685 E0.04524
G1 X197.518 Y76.171 E0.07101
G1 X197.221 Y76.523 E0.04456
G1 X196.997 Y76.847 E0.03811
G1 X196.654 Y77.52 E0.07307
G1 X196.442 Y78.252 E0.07376
G1 X196.379 Y78.716 E0.04524
G1 X196.365 Y79.183 E0.04524
G1 X196.45 Y79.912 E0.07101
G1 X196.572 Y80.364 E0.04524
G1 X196.73 Y80.774 E0.0425
G1 X196.93 Y81.165 E0.0425
G1 X197.185 Y81.557 E0.04524
G1 X197.69 Y82.128 E0.07375
G1 X198.292 Y82.595 E0.07376
G1 X198.7 Y82.824 E0.04524
G1 X199.13 Y83.009 E0.04524
G1 X199.866 Y83.206 E0.07375
G1 X200.655 Y83.263 E0.07651
G1 X201.412 Y83.175 E0.07376
G1 X201.864 Y83.053 E0.04524
G1 X202.3 Y82.885 E0.04524
G1 X202.964 Y82.51 E0.07375
G1 X203.567 Y81.999 E0.0765
G1 X204.047 Y81.406 E0.07375
G1 X204.284 Y81.003 E0.04525
G1 X204.467 Y80.604 E0.04246
G1 X204.603 Y80.197 E0.0415
G1 X204.687 Y79.838 E0.0357
G1 X204.746 Y79.409 E0.04186
G1 X204.76 Y78.942 E0.04524
G1 X204.671 Y78.185 E0.07375
G1 X204.443 Y77.457 E0.07376
G1 X204.239 Y77.037 E0.04524
G1 X203.992 Y76.639 E0.04524
G1 X203.517 Y76.079 E0.07101
G1 X203.166 Y75.77 E0.04524
G1 X202.785 Y75.5 E0.04524
G1 X202.13 Y75.167 E0.07101
G1 X201.737 Y75.035 E0.04017
M107
M204 P1000 T1000
G1 X201.479 Y75.767 F18000
;TYPE:External perimeter
M107
G1 F1800
G1 X201.118 Y75.686 E0.0358
G1 X200.499 Y75.642 E0.05999
G1 X200.13 Y75.669 E0.0358
G1 X199.766 Y75.735 E0.03579
G1 X199.179 Y75.933 E0.05999
G1 X198.849 Y76.102 E0.0358
G1 X198.539 Y76.304 E0.0358
G1 X198.074 Y76.714 E0.05999
G1 X197.838 Y76.995 E0.03551
G1 X197.664 Y77.245 E0.02946
G1 X197.379 Y77.806 E0.06086
G1 X197.203 Y78.413 E0.06116
G1 X197.153 Y78.78 E0.03579
G1 X197.142 Y79.15 E0.0358
G1 X197.214 Y79.766 E0.05999
G1 X197.31 Y80.123 E0.0358
G1 X197.439 Y80.457 E0.03464
G1 X197.602 Y80.776 E0.03464
G1 X197.804 Y81.086 E0.0358
G1 X198.222 Y81.56 E0.06115
G1 X198.722 Y81.947 E0.06115
G1 X199.045 Y82.128 E0.0358
G1 X199.385 Y82.275 E0.0358
G1 X199.995 Y82.438 E0.06115
G1 X200.638 Y82.484 E0.06232
G1 X201.266 Y82.411 E0.06116
G1 X201.623 Y82.315 E0.03579
G1 X201.968 Y82.182 E0.0358
G1 X202.519 Y81.871 E0.06115
G1 X203.01 Y81.455 E0.06232
G1 X203.408 Y80.963 E0.06115
G1 X203.596 Y80.644 E0.0358
G1 X203.744 Y80.319 E0.03462
G1 X203.856 Y79.985 E0.03405
G1 X203.924 Y79.697 E0.0286
G1 X203.972 Y79.345 E0.03437
G1 X203.983 Y78.975 E0.0358
G1 X203.909 Y78.347 E0.06115
G1 X203.72 Y77.744 E0.06115
G1 X203.558 Y77.411 E0.0358
G1 X203.363 Y77.097 E0.0358
G1 X202.962 Y76.624 E0.05999
G1 X202.684 Y76.379 E0.03579
G1 X202.383 Y76.165 E0.0358
G1 X201.83 Y75.884 E0.05999
G1 X201.564 Y75.795 E0.02709
M107
;WIPE_START
M204 P1500 T1000
G1 X201.319 Y75.189 F18000
;WIPE_END
G1 E-0.75 F3000
G1 Z0.7 F18000
; acceleration to travel
M204 P1500 T1500
G1 X301.585 Y75.345
; decel to extrusion
M204 P1500 T1000
G1 X368.429 Y75.45
; end travel
M204 P1000 T1500
G1 Z0.3
G1 E0.75 F1800
;TYPE:Internal perimeter
M107
G1 X368.068 Y75.685 E0.04161
G1 X367.497 Y76.19 E0.07376
G1 X367.03 Y76.793 E0.07376
G1 X366.801 Y77.2 E0.04523
G1 X366.616 Y77.629 E0.04524
G1 X366.426 Y78.339 E0.07102
G1 X366.374 Y78.796 E0.04456
G1 X366.366 Y79.19 E0.03811
G1 X366.454 Y79.94 E0.07306
G1 X366.691 Y80.695 E0.07649
G1 X367.052 Y81.366 E0.07377
G1 X367.331 Y81.741 E0.04524
G1 X367.629 Y82.065 E0.04251
G1 X367.959 Y82.355 E0.0425
G1 X368.34 Y82.625 E0.04524
G1 X368.995 Y82.958 E0.07101
G1 X369.438 Y83.106 E0.04524
G1 X369.894 Y83.208 E0.04524
G1 X370.655 Y83.263 E0.07376
G1 X371.412 Y83.175 E0.07376
G1 X371.864 Y83.053 E0.04523
G1 X372.3 Y82.885 E0.04525
G1 X372.964 Y82.51 E0.07375
G1 X373.567 Y81.999 E0.0765
G1 X374.047 Y81.406 E0.07376
G1 X374.284 Y81.003 E0.04524
G1 X374.479 Y80.578 E0.04523
G1 X374.683 Y79.873 E0.07102
G1 X374.746 Y79.409 E0.04524
G1 X374.76 Y78.942 E0.04524
G1 X374.671 Y78.185 E0.07375
G1 X374.434 Y77.43 E0.0765
G1 X374.073 Y76.759 E0.07376
G1 X373.794 Y76.384 E0.04524
G1 X373.477 Y76.04 E0.04524
G1 X372.906 Y75.578 E0.07102
G1 X372.503 Y75.341 E0.04525
G1 X372.104 Y75.158 E0.0425
G1 X371.687 Y75.019 E0.0425
G1 X371.231 Y74.917 E0.04524
G1 X370.498 Y74.864 E0.07102
G1 X370.032 Y74.899 E0.04524
G1 X369.572 Y74.982 E0.04523
G1 X368.876 Y75.217 E0.07102
G1 X368.507 Y75.406 E0.04016
M107
M204 P1000 T1000
G1 X368.849 Y76.102 F18000
;TYPE:External perimeter
M107
G1 F1800
G1 X368.539 Y76.304 E0.0358
G1 X368.065 Y76.722 E0.06115
G1 X367.678 Y77.222 E0.06116
G1 X367.497 Y77.545 E0.03579
G1 X367.35 Y77.884 E0.0358
G1 X367.19 Y78.484 E0.05999
G1 X367.149 Y78.848 E0.03551
G1 X367.143 Y79.153 E0.02945
G1 X367.216 Y79.778 E0.06086
G1 X367.409 Y80.392 E0.06231
G1 X367.708 Y80.949 E0.06116
G1 X367.929 Y81.246 E0.0358
G1 X368.172 Y81.509 E0.03464
G1 X368.441 Y81.746 E0.03464
G1 X368.742 Y81.96 E0.0358
G1 X369.295 Y82.241 E0.05999
G1 X369.646 Y82.358 E0.0358
G1 X370.007 Y82.439 E0.0358
G1 X370.638 Y82.484 E0.06115
G1 X371.266 Y82.411 E0.06116
G1 X371.623 Y82.315 E0.03579
G1 X371.968 Y82.182 E0.0358
G1 X372.519 Y81.871 E0.06115
G1 X373.01 Y81.455 E0.06232
G1 X373.408 Y80.963 E0.06116
G1 X373.596 Y80.644 E0.0358
G1 X373.749 Y80.308 E0.03579
G1 X373.922 Y79.712 E0.05999
G1 X373.972 Y79.345 E0.0358
G1 X373.983 Y78.975 E0.0358
G1 X373.909 Y78.347 E0.06115
G1 X373.716 Y77.733 E0.06231
G1 X373.417 Y77.176 E0.06115
G1 X373.196 Y76.879 E0.0358
G1 X372.945 Y76.607 E0.0358
G1 X372.463 Y76.217 E0.05999
G1 X372.144 Y76.029 E0.0358
G1 X371.818 Y75.881 E0.03464
G1 X371.479 Y75.767 E0.03463
G1 X371.118 Y75.686 E0.0358
G1 X370.499 Y75.642 E0.06
G1 X370.13 Y75.669 E0.0358
G1 X369.766 Y75.735 E0.03579
G1 X369.179 Y75.933 E0.06
G1 X368.929 Y76.061 E0.02709
M107
;WIPE_START
M204 P1500 T1000
G1 X368.324 Y75.811 F18000
;WIPE_END
G1 E-0.75 F3000
G1 Z0.7 F18000
; acceleration to travel
M204 P1500 T1500
G1 X359.644 Y84.539
; decel to extrusion
M204 P1500 T1000
G1 X353.858 Y90.358
; end travel
M204 P1000 T1500
G1 Z0.3
G1 E0.75 F1800
;TYPE:Internal perimeter
M107
G1 X353.858 Y73.358 E1.64457
G1 X388.267 Y73.358 E3.32869
G1 X388.267 Y90.358 E1.64457
G1 X398.642 Y90.358 E1.00368
G1 X398.644 Y105.783 E1.49223
G1 X397.985 Y105.388 E0.0743
G1 X397.587 Y105.205 E0.0424
G1 X397.174 Y105.067 E0.04212
G1 X396.723 Y104.967 E0.04465
G1 X395.971 Y104.912 E0.07295
G1 X395.195 Y105.003 E0.07558
G1 X394.45 Y105.237 E0.07559
G1 X393.786 Y105.594 E0.07291
G1 X393.418 Y105.867 E0.04431
G1 X393.076 Y106.182 E0.04496
G1 X392.619 Y106.748 E0.07034
G1 X392.385 Y107.145 E0.04462
G1 X392.193 Y107.565 E0.04463
G1 X391.991 Y108.263 E0.07031
G1 X391.929 Y108.72 E0.04463
G1 X391.916 Y109.147 E0.04134
G1 X391.939 Y109.507 E0.03491
G1 X392.011 Y109.956 E0.04397
G1 X392.237 Y110.675 E0.07294
G1 X392.594 Y111.339 E0.07295
G1 X392.87 Y111.709 E0.04463
G1 X393.164 Y112.029 E0.042
G1 X393.49 Y112.315 E0.042
G1 X393.866 Y112.582 E0.04463
G1 X394.514 Y112.912 E0.0703
G1 X394.951 Y113.058 E0.04463
G1 X395.402 Y113.158 E0.04463
G1 X396.154 Y113.213 E0.07295
G1 X396.903 Y113.125 E0.07295
G1 X397.349 Y113.005 E0.04466
G1 X397.756 Y112.848 E0.04221
G1 X398.148 Y112.646 E0.04267
G1 X398.644 Y112.315 E0.05769
G1 X398.642 Y128.267 E1.5432
G1 X389.392 Y128.267 E0.89485
G1 X389.392 Y172.858 E4.31374
G1 X398.642 Y172.858 E0.89484
G1 X398.642 Y210.767 E3.66728
G1 X389.392 Y210.767 E0.89484
G1 X389.392 Y255.358 E4.31374
G1 X398.642 Y255.358 E0.89484
G1 X398.642 Y293.267 E3.66728
G1 X389.392 Y293.267 E0.89484
G1 X389.392 Y337.858 E4.31374
G1 X398.642 Y337.858 E0.89485
G1 X398.643 Y360.725 E2.21213
G1 X398.008 Y360.344 E0.07166
G1 X397.579 Y360.147 E0.04566
G1 X396.873 Y359.942 E0.07115
G1 X396.409 Y359.879 E0.04525
G1 X395.942 Y359.865 E0.04524
G1 X395.185 Y359.954 E0.07375
G1 X394.43 Y360.191 E0.0765
G1 X393.759 Y360.552 E0.07377
G1 X393.384 Y360.831 E0.04524
G1 X393.04 Y361.148 E0.04523
G1 X392.578 Y361.719 E0.07102
G1 X392.341 Y362.122 E0.04524
G1 X392.146 Y362.547 E0.04524
G1 X391.942 Y363.252 E0.07102
G1 X391.879 Y363.716 E0.04524
G1 X391.865 Y364.183 E0.04524
G1 X391.954 Y364.94 E0.07375
G1 X392.191 Y365.695 E0.07651
G1 X392.552 Y366.366 E0.07376
G1 X392.831 Y366.741 E0.04524
G1 X393.148 Y367.085 E0.04523
G1 X393.719 Y367.547 E0.07102
G1 X394.122 Y367.784 E0.04524
G1 X394.547 Y367.979 E0.04524
G1 X395.252 Y368.183 E0.07102
G1 X395.716 Y368.246 E0.04524
G1 X396.183 Y368.26 E0.04524
G1 X396.94 Y368.171 E0.07376
G1 X397.698 Y367.933 E0.07678
G1 X398.644 Y367.419 E0.10416
G1 X398.642 Y375.767 E0.80759
G1 X389.392 Y375.767 E0.89486
G1 X389.392 Y417.392 E4.02678
G1 X356.934 Y417.392 E3.14001
G1 X356.934 Y426.642 E0.89484
G1 X344.352 Y426.642 E1.21718
G1 X344.74 Y425.978 E0.0744
G1 X344.92 Y425.587 E0.0417
G1 X345.058 Y425.174 E0.04213
G1 X345.158 Y424.723 E0.04465
G1 X345.213 Y423.971 E0.07295
G1 X345.122 Y423.195 E0.07558
G1 X344.888 Y422.45 E0.07559
G1 X344.531 Y421.786 E0.07295
G1 X344.255 Y421.416 E0.04463
G1 X343.943 Y421.076 E0.04463
G1 X343.377 Y420.619 E0.07031
G1 X342.98 Y420.385 E0.04462
G1 X342.56 Y420.193 E0.04463
G1 X341.862 Y419.991 E0.07031
G1 X341.405 Y419.929 E0.04464
G1 X340.944 Y419.915 E0.04463
G1 X340.222 Y420 E0.0703
G1 X339.777 Y420.119 E0.04463
G1 X339.346 Y420.285 E0.04464
G1 X338.714 Y420.643 E0.0703
G1 X338.349 Y420.926 E0.04463
G1 X338.017 Y421.245 E0.04463
G1 X337.572 Y421.82 E0.0703
G1 X337.346 Y422.222 E0.04463
G1 X337.163 Y422.646 E0.04463
G1 X336.969 Y423.375 E0.07295
G1 X336.912 Y424.154 E0.07559
G1 X337 Y424.903 E0.07294
G1 X337.12 Y425.349 E0.04467
G1 X337.277 Y425.756 E0.04222
G1 X337.479 Y426.148 E0.04267
G1 X337.809 Y426.642 E0.05754
G1 X323.608 Y426.642 E1.37382
G1 X323.608 Y417.392 E0.89484
G1 X288.184 Y417.392 E3.42696
G1 X288.184 Y426.642 E0.89484
G1 X254.858 Y426.642 E3.22389
G1 X254.858 Y417.392 E0.89484
G1 X219.434 Y417.392 E3.42696
G1 X219.434 Y426.642 E0.89484
G1 X186.108 Y426.642 E3.22389
