; generated by SuperSlicer 2.5.59.8 on 2025-01-25 at 22:12:38 UTC


;
;

;
;
; TODO: check the size of the extruder and the y-bar clearance. Optimize & test supports.

; external perimeters extrusion width = 0.84mm
; perimeters extrusion width = 0.84mm
; infill extrusion width = 0.84mm
; solid infill extrusion width = 0.84mm
; top infill extrusion width = 0.84mm
; first layer extrusion width = 0.84mm

; object:{"name":"top_right_sawtooth_3mm","id":"top_right_sawtooth_3mm.stl id:0 copy 0","object_center":[250.000000,250.000000,0.000000],"boundingbox_center":[250.000000,250.000000,1.500000],"boundingbox_size":[291.000000,346.625000,3.000000]}
; Total objects to print: 1
M486 T1
; plater:{"center":[250.000000,250.000000,0.000000],"boundingbox_center":[250.000000,250.000000,1.500000],"boundingbox_size":[291.000000,346.625000,3.000000]}

M107
M140 S55 ; set bed temperature
G10 P0 R205 ; sets the standby temperature
;TYPE:Custom
; M190 S0
; M109 S0 ; uncomment to remove set&wait temp gcode added automatically after this start gcode
print_start EXTRUDER=215 BED=55 CHAMBER=15
M109 S215
M107
G21 ; set units to millimeters
G90 ; use absolute coordinates
M83 ; use relative distances for extrusion
M190 S55 ; set bed temperature and wait for it to be reached
;LAYER_CHANGE
;Z:0.3
;HEIGHT:0.3
;BEFORE_LAYER_CHANGE
;0.3


G1 Z0.3 F18000
;AFTER_LAYER_CHANGE
;0.3
G92 E0
G1 E-0.75 F3000
G1 Z0.7 F18000
M204 P1000 T1000
G1 X110.488 Y90.377
G1 Z0.3
G1 E0.75 F1800
;TYPE:Skirt
;WIDTH:0.78
M107
G1 X109.177 Y92.74 E0.24123
G1 X99.927 Y133.99 E3.77324
G1 X99.811 Y135.033 E0.09371
G1 X99.811 Y423.217 E25.72213
G1 X100.089 Y424.821 E0.1453
G1 X101.102 Y426.484 E0.17379
G1 X102.694 Y427.606 E0.17379
G1 X104.6 Y428.002 E0.17379
G1 X379.025 Y428.002 E24.49408
G1 X380.712 Y427.694 E0.15308
G1 X382.357 Y426.652 E0.17379
G1 X383.451 Y425.042 E0.17379
G1 X399.826 Y385.417 E3.82687
G1 X400.189 Y383.588 E0.16644
G1 X400.189 Y173.788 E18.72591
G1 X399.604 Y171.493 E0.21136
G1 X383.229 Y141.493 E3.0506
G1 X382.384 Y140.374 E0.12509
G1 X331.584 Y90.374 E6.36204
G1 X310.973 Y73.114 E2.39959
G1 X309.806 Y72.394 E0.12231
G1 X307.9 Y71.998 E0.17379
G1 X131.1 Y71.998 E15.78046
G1 X129.374 Y72.32 E0.1567
G1 X127.738 Y73.377 E0.17379
G1 X110.553 Y90.313 E2.15366
M107
G1 X111.055 Y90.823 F18000
M107
G1 F1800
G1 X110.991 Y90.886 E0.00803
G1 X109.875 Y92.896 E0.20518
G1 X100.625 Y134.146 E3.77324
G1 X100.527 Y135.034 E0.07971
G1 X100.527 Y423.216 E25.72202
G1 X100.642 Y424.175 E0.0862
G1 X101.439 Y425.782 E0.16013
G1 X102.85 Y426.891 E0.16013
G1 X104.6 Y427.286 E0.16013
G1 X379.025 Y427.286 E24.49408
G1 X380.193 Y427.115 E0.10534
G1 X381.756 Y426.235 E0.16013
G1 X382.79 Y424.768 E0.16013
G1 X399.165 Y385.143 E3.82687
G1 X399.473 Y383.588 E0.14157
G1 X399.473 Y173.788 E18.72591
G1 X398.975 Y171.836 E0.17977
G1 X382.6 Y141.836 E3.0506
G1 X381.882 Y140.884 E0.1064
G1 X331.082 Y90.884 E6.36204
G1 X310.513 Y73.663 E2.39443
G1 X309.65 Y73.109 E0.09155
G1 X307.9 Y72.714 E0.16013
G1 X131.1 Y72.714 E15.78046
G1 X129.765 Y72.939 E0.12088
G1 X128.241 Y73.886 E0.16013
G1 X111.119 Y90.76 E2.14563
M107
G1 X111.621 Y91.27 F18000
M107
G1 F1800
G1 X111.493 Y91.396 E0.01607
G1 X110.574 Y93.053 E0.16913
G1 X101.324 Y134.303 E3.77324
G1 X101.242 Y135.034 E0.06571
G1 X101.242 Y423.216 E25.7219
G1 X101.814 Y425.087 E0.17462
G1 X103.022 Y426.176 E0.1452
G1 X104.6 Y426.57 E0.1452
G1 X379.025 Y426.57 E24.49408
G1 X381.161 Y425.803 E0.2026
G1 X382.128 Y424.495 E0.1452
G1 X398.503 Y384.87 E3.82687
G1 X398.758 Y383.588 E0.1167
G1 X398.758 Y173.788 E18.72591
G1 X398.347 Y172.179 E0.14819
G1 X381.972 Y142.179 E3.0506
G1 X381.38 Y141.394 E0.08771
G1 X330.58 Y91.394 E6.36204
G1 X310.054 Y74.212 E2.38927
G1 X307.9 Y73.43 E0.20456
G1 X131.1 Y73.43 E15.78046
G1 X130.144 Y73.569 E0.08625
G1 X128.743 Y74.396 E0.1452
G1 X111.685 Y91.206 E2.1376
M107
G1 E-0.75 F3000
M204 P1500 T1000
G1 Z0.7 F18000
; printing object top_right_sawtooth_3mm.stl id:0 copy 0
M486 S0
; acceleration to travel
M204 P1500 T1500
G1 X111.989 Y129.606
; decel to extrusion
M204 P1500 T1000
G1 X112.191 Y155.205
; end travel
M204 P1000 T1500
G1 Z0.3
G1 E0.75 F1800
;TYPE:External perimeter
;WIDTH:0.84
M107
G1 X112.337 Y154.866 E0.0358
G1 X112.497 Y154.266 E0.05999
G1 X112.539 Y153.902 E0.03551
G1 X112.545 Y153.597 E0.02945
G1 X112.472 Y152.972 E0.06086
G1 X112.279 Y152.358 E0.06231
G1 X111.979 Y151.801 E0.06115
G1 X111.758 Y151.504 E0.0358
G1 X111.508 Y151.232 E0.03579
G1 X111.025 Y150.842 E0.05999
G1 X110.707 Y150.654 E0.0358
G1 X110.381 Y150.506 E0.03464
G1 X110.041 Y150.392 E0.03464
G1 X109.68 Y150.311 E0.0358
G1 X109.062 Y150.267 E0.05999
G1 X108.693 Y150.294 E0.0358
G1 X108.329 Y150.36 E0.03579
G1 X107.741 Y150.559 E0.06
G1 X107.412 Y150.727 E0.03579
G1 X107.101 Y150.929 E0.0358
G1 X106.628 Y151.347 E0.06115
G1 X106.241 Y151.847 E0.06117
G1 X106.059 Y152.17 E0.03584
G1 X105.912 Y152.512 E0.03601
G1 X105.755 Y153.127 E0.06134
G1 X105.725 Y153.764 E0.06172
G1 X105.78 Y154.394 E0.06117
G1 X105.971 Y155.015 E0.06288
G1 X106.271 Y155.574 E0.0613
G1 X106.492 Y155.871 E0.03581
G1 X106.742 Y156.143 E0.0358
G1 X107.225 Y156.533 E0.05999
G1 X107.543 Y156.721 E0.0358
G1 X107.869 Y156.869 E0.03464
G1 X108.209 Y156.983 E0.03464
G1 X108.57 Y157.064 E0.0358
G1 X109.188 Y157.108 E0.05999
G1 X109.557 Y157.081 E0.0358
G1 X109.921 Y157.015 E0.03579
G1 X110.509 Y156.816 E0.06
G1 X110.838 Y156.648 E0.03579
G1 X111.149 Y156.446 E0.0358
G1 X111.622 Y156.028 E0.06115
G1 X112.009 Y155.528 E0.06115
G1 X112.146 Y155.284 E0.02709
M107
;WIPE_START
M204 P1500 T1500
G1 X112.789 Y155.157 F18000
;WIPE_END
G1 E-0.75 F3000
G1 Z0.7 F18000
; acceleration to travel
G1 X129.212 Y110.156
; decel to extrusion
M204 P1500 T1000
G1 X140.16 Y80.155
; end travel
M204 P1000 T1500
G1 Z0.3
G1 E0.75 F1800
;TYPE:Internal perimeter
M107
G1 X140.125 Y80.144 E0.00364
G1 X139.668 Y80.042 E0.04524
G1 X138.908 Y79.987 E0.07376
G1 X138.515 Y80.033 E0.03825
G1 X138.15 Y80.075 E0.03551
G1 X137.699 Y80.197 E0.04524
G1 X137.289 Y80.355 E0.0425
G1 X136.897 Y80.555 E0.0425
G1 X136.506 Y80.81 E0.04524
G1 X135.934 Y81.315 E0.07376
G1 X135.45 Y81.94 E0.0765
G1 X135.092 Y82.645 E0.0765
G1 X134.88 Y83.377 E0.07376
G1 X134.817 Y83.841 E0.04524
G1 X134.803 Y84.308 E0.04524
G1 X134.891 Y85.065 E0.07375
G1 X135.128 Y85.82 E0.0765
G1 X135.489 Y86.491 E0.07377
G1 X135.769 Y86.866 E0.04524
G1 X136.085 Y87.21 E0.04523
G1 X136.656 Y87.672 E0.07102
G1 X137.059 Y87.909 E0.04524
G1 X137.459 Y88.092 E0.0425
G1 X137.875 Y88.231 E0.0425
G1 X138.332 Y88.333 E0.04524
G1 X139.064 Y88.386 E0.07101
G1 X139.53 Y88.351 E0.04524
G1 X139.991 Y88.268 E0.04523
G1 X140.713 Y88.024 E0.07376
G1 X141.401 Y87.635 E0.07649
G1 X142.005 Y87.124 E0.0765
G1 X142.484 Y86.531 E0.07377
G1 X142.722 Y86.128 E0.04523
G1 X142.916 Y85.703 E0.04523
G1 X143.12 Y84.998 E0.07102
G1 X143.183 Y84.534 E0.04524
G1 X143.197 Y84.067 E0.04524
G1 X143.109 Y83.31 E0.07375
G1 X142.872 Y82.555 E0.0765
G1 X142.511 Y81.884 E0.07377
G1 X142.231 Y81.509 E0.04523
G1 X141.934 Y81.185 E0.0425
G1 X141.604 Y80.895 E0.04251
G1 X141.222 Y80.625 E0.04524
G1 X140.568 Y80.292 E0.07101
G1 X140.246 Y80.184 E0.03289
M107
M204 P1000 T1000
G1 X139.916 Y80.892 F18000
;TYPE:External perimeter
M107
G1 F1800
G1 X139.555 Y80.811 E0.0358
G1 X138.925 Y80.766 E0.06115
G1 X138.605 Y80.803 E0.03116
G1 X138.297 Y80.839 E0.03
G1 X137.94 Y80.935 E0.03579
G1 X137.605 Y81.064 E0.03464
G1 X137.287 Y81.227 E0.03464
G1 X136.976 Y81.429 E0.0358
G1 X136.503 Y81.847 E0.06116
G1 X136.108 Y82.357 E0.06232
G1 X135.817 Y82.931 E0.06232
G1 X135.641 Y83.538 E0.06115
G1 X135.591 Y83.905 E0.0358
G1 X135.58 Y84.275 E0.0358
G1 X135.653 Y84.903 E0.06115
G1 X135.846 Y85.517 E0.06231
G1 X136.146 Y86.074 E0.06116
G1 X136.367 Y86.371 E0.0358
G1 X136.617 Y86.643 E0.03579
G1 X137.1 Y87.033 E0.05999
G1 X137.418 Y87.221 E0.0358
G1 X137.744 Y87.369 E0.03464
G1 X138.084 Y87.483 E0.03464
G1 X138.445 Y87.564 E0.0358
G1 X139.063 Y87.608 E0.05999
G1 X139.432 Y87.581 E0.0358
G1 X139.796 Y87.515 E0.03579
G1 X140.395 Y87.313 E0.06116
G1 X140.956 Y86.996 E0.06231
G1 X141.448 Y86.58 E0.06232
G1 X141.845 Y86.088 E0.06116
G1 X142.033 Y85.769 E0.03579
G1 X142.187 Y85.433 E0.03579
G1 X142.359 Y84.837 E0.06
G1 X142.409 Y84.47 E0.0358
G1 X142.42 Y84.1 E0.0358
G1 X142.347 Y83.472 E0.06115
G1 X142.154 Y82.858 E0.06231
G1 X141.854 Y82.301 E0.06116
G1 X141.633 Y82.004 E0.03579
G1 X141.391 Y81.741 E0.03464
G1 X141.122 Y81.504 E0.03464
G1 X140.82 Y81.29 E0.0358
G1 X140.267 Y81.009 E0.05999
G1 X140.002 Y80.92 E0.02709
M107
;WIPE_START
M204 P1500 T1000
G1 X139.757 Y80.314 F18000
;WIPE_END
G1 E-0.75 F3000
G1 Z0.7 F18000
; acceleration to travel
M204 P1500 T1500
G1 X227.35 Y84.227
; decel to extrusion
M204 P1500 T1000
G1 X285.746 Y86.836
; end travel
M204 P1000 T1500
G1 Z0.3
G1 E0.75 F1800
;TYPE:Internal perimeter
M107
G1 X285.769 Y86.866 E0.00363
G1 X286.085 Y87.21 E0.04523
G1 X286.656 Y87.672 E0.07102
G1 X287.059 Y87.909 E0.04524
G1 X287.459 Y88.092 E0.0425
G1 X287.875 Y88.231 E0.04251
G1 X288.332 Y88.333 E0.04525
G1 X289.064 Y88.386 E0.07101
G1 X289.53 Y88.351 E0.04524
G1 X289.991 Y88.268 E0.04523
G1 X290.713 Y88.024 E0.07376
G1 X291.401 Y87.635 E0.0765
G1 X292.005 Y87.124 E0.0765
G1 X292.484 Y86.531 E0.07377
G1 X292.722 Y86.128 E0.04522
G1 X292.916 Y85.703 E0.04523
G1 X293.12 Y84.998 E0.07102
G1 X293.183 Y84.534 E0.04524
G1 X293.197 Y84.067 E0.04524
G1 X293.109 Y83.31 E0.07375
G1 X292.872 Y82.555 E0.0765
G1 X292.511 Y81.884 E0.07377
G1 X292.231 Y81.509 E0.04523
G1 X291.934 Y81.185 E0.0425
G1 X291.604 Y80.895 E0.04251
G1 X291.222 Y80.625 E0.04524
G1 X290.568 Y80.292 E0.07101
G1 X290.125 Y80.144 E0.04524
G1 X289.668 Y80.042 E0.04524
G1 X288.908 Y79.987 E0.07376
G1 X288.515 Y80.033 E0.03826
G1 X288.15 Y80.075 E0.03551
G1 X287.699 Y80.197 E0.04523
G1 X287.289 Y80.355 E0.0425
G1 X286.897 Y80.555 E0.04251
G1 X286.506 Y80.81 E0.04524
G1 X285.934 Y81.315 E0.07376
G1 X285.45 Y81.94 E0.0765
G1 X285.092 Y82.645 E0.0765
G1 X284.88 Y83.377 E0.07376
G1 X284.817 Y83.841 E0.04524
G1 X284.803 Y84.308 E0.04524
G1 X284.891 Y85.065 E0.07375
G1 X285.128 Y85.82 E0.0765
G1 X285.489 Y86.491 E0.07376
G1 X285.692 Y86.764 E0.0329
M107
M204 P1000 T1000
G1 X286.367 Y86.371 F18000
;TYPE:External perimeter
M107
G1 F1800
G1 X286.617 Y86.643 E0.03579
G1 X287.1 Y87.033 E0.05999
G1 X287.418 Y87.221 E0.0358
G1 X287.744 Y87.369 E0.03463
G1 X288.084 Y87.483 E0.03464
G1 X288.445 Y87.564 E0.0358
G1 X289.063 Y87.608 E0.05999
G1 X289.432 Y87.581 E0.0358
G1 X289.796 Y87.515 E0.03579
G1 X290.395 Y87.313 E0.06116
G1 X290.956 Y86.996 E0.06232
G1 X291.448 Y86.58 E0.06232
G1 X291.845 Y86.088 E0.06117
G1 X292.033 Y85.769 E0.03579
G1 X292.187 Y85.433 E0.03579
G1 X292.359 Y84.837 E0.06
G1 X292.409 Y84.47 E0.0358
G1 X292.42 Y84.1 E0.0358
G1 X292.347 Y83.472 E0.06115
G1 X292.154 Y82.858 E0.06231
G1 X291.854 Y82.301 E0.06116
G1 X291.633 Y82.004 E0.0358
G1 X291.391 Y81.741 E0.03464
G1 X291.122 Y81.504 E0.03464
G1 X290.82 Y81.29 E0.0358
G1 X290.267 Y81.009 E0.05999
G1 X289.916 Y80.892 E0.0358
G1 X289.555 Y80.811 E0.0358
G1 X288.925 Y80.766 E0.06115
G1 X288.605 Y80.803 E0.03116
G1 X288.297 Y80.839 E0.03
G1 X287.94 Y80.935 E0.03579
G1 X287.605 Y81.064 E0.03464
G1 X287.286 Y81.227 E0.03464
G1 X286.976 Y81.429 E0.0358
G1 X286.503 Y81.847 E0.06115
G1 X286.108 Y82.357 E0.06232
G1 X285.817 Y82.931 E0.06232
G1 X285.641 Y83.538 E0.06115
G1 X285.591 Y83.905 E0.0358
G1 X285.58 Y84.275 E0.0358
G1 X285.653 Y84.903 E0.06115
G1 X285.846 Y85.517 E0.06231
G1 X286.146 Y86.074 E0.06116
G1 X286.313 Y86.299 E0.0271
M107
;WIPE_START
M204 P1500 T1000
G1 X286.168 Y86.937 F18000
;WIPE_END
G1 E-0.75 F3000
G1 Z0.7 F18000
; acceleration to travel
M204 P1500 T1500
G1 X277.845 Y91.765
; decel to extrusion
M204 P1500 T1000
G1 X272.296 Y94.983
; end travel
M204 P1000 T1500
G1 Z0.3
G1 E0.75 F1800
;TYPE:Internal perimeter
M107
G1 X272.296 Y77.983 E1.64457
G1 X306.704 Y77.983 E3.32869
G1 X306.704 Y94.983 E1.64457
G1 X327.029 Y94.983 E1.96623
G1 X327.029 Y138.424 E4.20247
G1 X333.588 Y144.983 E0.89733
G1 X377.829 Y144.983 E4.27986
G1 X377.829 Y174.983 E2.90219
G1 X394.204 Y174.983 E1.58411
G1 X394.204 Y182.971 E0.77278
G1 X393.639 Y183.022 E0.05488
G1 X393.581 Y182.697 E0.03197
G1 X393.346 Y182.001 E0.07101
G1 X393.133 Y181.585 E0.04523
G1 X392.878 Y181.193 E0.04525
G1 X392.392 Y180.643 E0.07102
G1 X392.034 Y180.341 E0.04524
G1 X391.671 Y180.095 E0.04249
G1 X391.289 Y179.891 E0.04183
G1 X390.926 Y179.739 E0.03811
G1 X390.196 Y179.544 E0.07307
G1 X389.408 Y179.487 E0.0765
G1 X388.622 Y179.579 E0.07649
G1 X387.895 Y179.807 E0.07376
G1 X387.474 Y180.011 E0.04524
G1 X387.077 Y180.258 E0.04524
G1 X386.495 Y180.751 E0.07375
G1 X386.016 Y181.344 E0.07376
G1 X385.778 Y181.747 E0.04525
G1 X385.584 Y182.172 E0.04523
G1 X385.38 Y182.877 E0.071
G1 X385.317 Y183.341 E0.04526
G1 X385.304 Y183.78 E0.04251
G1 X385.336 Y184.218 E0.04249
G1 X385.419 Y184.678 E0.04525
G1 X385.654 Y185.374 E0.07101
G1 X385.867 Y185.79 E0.04523
G1 X386.122 Y186.182 E0.04525
G1 X386.608 Y186.732 E0.07102
G1 X386.966 Y187.034 E0.04524
G1 X387.329 Y187.28 E0.04249
G1 X387.711 Y187.484 E0.04183
G1 X388.074 Y187.636 E0.03811
G1 X388.804 Y187.831 E0.07306
G1 X389.564 Y187.886 E0.07376
G1 X390.03 Y187.851 E0.04523
G1 X390.491 Y187.768 E0.04524
G1 X391.213 Y187.524 E0.07376
G1 X391.877 Y187.149 E0.07376
G1 X392.246 Y186.862 E0.04524
G1 X392.563 Y186.558 E0.04251
G1 X392.846 Y186.222 E0.0425
G1 X393.108 Y185.835 E0.04524
G1 X393.44 Y185.148 E0.07377
G1 X393.665 Y184.305 E0.08441
G1 X394.204 Y184.376 E0.05267
G1 X394.204 Y212.392 E2.71029
G1 X377.829 Y212.392 E1.58411
G1 X377.829 Y344.983 E12.82681
G1 X394.204 Y344.983 E1.58411
G1 X394.204 Y362.971 E1.74017
G1 X393.639 Y363.022 E0.05488
G1 X393.581 Y362.697 E0.03197
G1 X393.346 Y362.001 E0.07101
G1 X393.133 Y361.585 E0.04523
G1 X392.878 Y361.193 E0.04525
G1 X392.373 Y360.622 E0.07376
G1 X391.77 Y360.155 E0.07376
G1 X391.362 Y359.926 E0.04524
G1 X390.933 Y359.741 E0.04524
G1 X390.224 Y359.551 E0.07101
G1 X389.766 Y359.499 E0.04456
G1 X389.372 Y359.491 E0.03811
G1 X388.622 Y359.579 E0.07305
G1 X387.868 Y359.816 E0.07651
G1 X387.196 Y360.177 E0.07376
G1 X386.821 Y360.456 E0.04524
G1 X386.477 Y360.773 E0.04524
G1 X386.016 Y361.344 E0.07102
G1 X385.778 Y361.747 E0.04525
G1 X385.584 Y362.172 E0.04523
G1 X385.38 Y362.877 E0.071
G1 X385.317 Y363.341 E0.04525
G1 X385.304 Y363.78 E0.04251
G1 X385.336 Y364.218 E0.04249
G1 X385.419 Y364.678 E0.04525
G1 X385.654 Y365.374 E0.07101
G1 X385.867 Y365.79 E0.04523
G1 X386.122 Y366.182 E0.04525
G1 X386.627 Y366.753 E0.07376
G1 X387.23 Y367.22 E0.07376
G1 X387.638 Y367.449 E0.04524
G1 X388.067 Y367.634 E0.04524
G1 X388.776 Y367.824 E0.07101
G1 X389.234 Y367.876 E0.04456
G1 X389.628 Y367.884 E0.03811
G1 X390.378 Y367.796 E0.07305
G1 X391.132 Y367.559 E0.07651
G1 X391.804 Y367.198 E0.07376
G1 X392.179 Y366.919 E0.04524
G1 X392.523 Y366.602 E0.04524
G1 X392.984 Y366.031 E0.07102
G1 X393.222 Y365.628 E0.04525
G1 X393.416 Y365.203 E0.04523
G1 X393.671 Y364.322 E0.08873
G1 X394.204 Y364.397 E0.05212
G1 X394.204 Y382.392 E1.74078
G1 X377.829 Y382.392 E1.58411
G1 X377.829 Y422.017 E3.8333
G1 X105.796 Y422.017 E26.31642
G1 X105.796 Y406.375 E1.51318
G1 X106.781 Y407.172 E0.12263
G1 X107.184 Y407.409 E0.04524
G1 X107.61 Y407.604 E0.04524
G1 X108.315 Y407.808 E0.07101
G1 X108.778 Y407.871 E0.04524
G1 X109.246 Y407.885 E0.04524
G1 X109.975 Y407.8 E0.071
G1 X110.426 Y407.678 E0.04524
G1 X110.836 Y407.52 E0.04251
G1 X111.228 Y407.32 E0.0425
G1 X111.619 Y407.065 E0.04524
G1 X112.191 Y406.56 E0.07376
G1 X112.658 Y405.957 E0.07376
G1 X112.887 Y405.55 E0.04523
G1 X113.072 Y405.121 E0.04524
G1 X113.261 Y404.411 E0.07102
G1 X113.314 Y403.954 E0.04456
G1 X113.321 Y403.56 E0.03811
G1 X113.234 Y402.81 E0.07306
G1 X112.997 Y402.055 E0.0765
G1 X112.636 Y401.384 E0.07377
G1 X112.356 Y401.009 E0.04523
G1 X112.04 Y400.665 E0.04524
G1 X111.468 Y400.203 E0.07102
G1 X111.066 Y399.966 E0.04523
G1 X110.64 Y399.771 E0.04524
G1 X109.935 Y399.567 E0.07102
G1 X109.472 Y399.504 E0.04524
G1 X109.004 Y399.49 E0.04524
G1 X108.275 Y399.575 E0.07101
G1 X107.824 Y399.697 E0.04524
G1 X107.414 Y399.855 E0.0425
