; generated by SuperSlicer 2.5.59.8 on 2025-01-24 at 14:01:41 UTC


;
;

;
;
; TODO: check the size of the extruder and the y-bar clearance. Optimize & test supports.

; external perimeters extrusion width = 0.84mm
; perimeters extrusion width = 0.84mm
; infill extrusion width = 0.84mm
; solid infill extrusion width = 0.84mm
; top infill extrusion width = 0.84mm
; first layer extrusion width = 0.84mm

; object:{"name":"top_left_sawtooth_3mm","id":"top_left_sawtooth_3mm.stl id:0 copy 0","object_center":[250.000000,250.000000,0.000000],"boundingbox_center":[250.000000,250.000000,1.500000],"boundingbox_size":[291.000000,347.000000,3.000000]}
; Total objects to print: 1
M486 T1
; plater:{"center":[250.000000,250.000000,0.000000],"boundingbox_center":[250.000000,250.000000,1.500000],"boundingbox_size":[291.000000,347.000000,3.000000]}

M107
M140 S55 ; set bed temperature
G10 P0 R205 ; sets the standby temperature
;TYPE:Custom
; M190 S0
; M109 S0 ; uncomment to remove set&wait temp gcode added automatically after this start gcode
print_start EXTRUDER=215 BED=55 CHAMBER=15
M109 S215
M107
G21 ; set units to millimeters
G90 ; use absolute coordinates
M83 ; use relative distances for extrusion
M190 S55 ; set bed temperature and wait for it to be reached
;LAYER_CHANGE
;Z:0.3
;HEIGHT:0.3
;BEFORE_LAYER_CHANGE
;0.3


G1 Z0.3 F18000
;AFTER_LAYER_CHANGE
;0.3
G92 E0
G1 E-0.75 F3000
G1 Z0.7 F18000
M204 P1000 T1000
G1 X109.999 Y73.753
G1 Z0.3
G1 E0.75 F1800
;TYPE:Skirt
;WIDTH:0.78
M107
G1 X109.184 Y75.521 E0.17379
G1 X99.934 Y115.521 E3.66446
G1 X99.811 Y116.6 E0.09693
G1 X99.811 Y406.025 E25.83292
G1 X100.597 Y408.654 E0.24488
G1 X101.974 Y410.03 E0.17379
G1 X128.474 Y427.405 E2.82836
G1 X131.1 Y428.189 E0.2446
G1 X307.9 Y428.189 E15.78046
G1 X309.306 Y427.978 E0.12686
G1 X311.012 Y427.04 E0.17379
G1 X331.584 Y409.438 E2.41662
G1 X382.384 Y359.438 E6.36204
G1 X383.216 Y358.342 E0.12284
G1 X399.591 Y328.717 E3.02126
G1 X400.189 Y326.4 E0.21355
G1 X400.189 Y126.6 E17.83335
G1 X399.951 Y125.109 E0.13472
G1 X383.576 Y75.109 E4.69604
G1 X382.523 Y73.329 E0.18466
G1 X380.931 Y72.207 E0.17379
G1 X379.025 Y71.811 E0.17379
G1 X113.85 Y71.811 E23.66846
G1 X111.451 Y72.455 E0.22171
G1 X110.066 Y73.693 E0.16576
M107
G1 X110.661 Y74.066 F18000
M107
G1 F1800
G1 X109.881 Y75.682 E0.16013
G1 X100.631 Y115.682 E3.66446
G1 X100.527 Y116.6 E0.08245
G1 X100.527 Y406.025 E25.83292
G1 X101.12 Y408.142 E0.19619
G1 X102.366 Y409.431 E0.16013
G1 X128.866 Y426.806 E2.82836
G1 X131.1 Y427.473 E0.20805
G1 X307.9 Y427.473 E15.78046
G1 X308.96 Y427.333 E0.09543
G1 X310.547 Y426.496 E0.16013
G1 X331.082 Y408.928 E2.41214
G1 X381.882 Y358.928 E6.36204
G1 X382.59 Y357.996 E0.10449
G1 X398.965 Y328.371 E3.02126
G1 X399.473 Y326.4 E0.18164
G1 X399.473 Y126.6 E17.83335
G1 X399.271 Y125.332 E0.11459
G1 X382.896 Y75.332 E4.69604
G1 X382.186 Y74.03 E0.13238
G1 X380.775 Y72.922 E0.16013
G1 X379.025 Y72.527 E0.16013
G1 X113.85 Y72.527 E23.66846
G1 X112.058 Y72.942 E0.16414
G1 X110.731 Y74.01 E0.1521
M107
G1 X111.318 Y74.395 F18000
M107
G1 F1800
G1 X110.579 Y75.843 E0.1452
G1 X101.329 Y115.843 E3.66446
G1 X101.242 Y116.6 E0.06796
G1 X101.242 Y406.025 E25.83292
G1 X101.655 Y407.638 E0.14862
G1 X102.759 Y408.833 E0.1452
G1 X129.259 Y426.208 E2.82836
G1 X131.1 Y426.758 E0.1715
G1 X307.9 Y426.758 E15.78046
G1 X310.082 Y425.952 E0.20759
G1 X330.58 Y408.418 E2.40766
G1 X381.38 Y358.418 E6.36204
G1 X381.964 Y357.649 E0.08613
G1 X398.339 Y328.024 E3.02126
G1 X398.758 Y326.4 E0.14973
G1 X398.758 Y126.6 E17.83335
G1 X398.591 Y125.555 E0.09446
G1 X382.216 Y75.555 E4.69604
G1 X381.811 Y74.726 E0.08235
G1 X380.603 Y73.636 E0.1452
G1 X379.025 Y73.242 E0.1452
G1 X113.85 Y73.242 E23.66846
G1 X112.652 Y73.463 E0.10875
G1 X111.392 Y74.343 E0.13716
M107
G1 E-0.75 F3000
M204 P1500 T1000
G1 Z0.7 F18000
; printing object top_left_sawtooth_3mm.stl id:0 copy 0
M486 S0
; acceleration to travel
M204 P1500 T1500
G1 X126.947 Y77.057
; decel to extrusion
M204 P1500 T1000
G1 X137.317 Y78.867
; end travel
M204 P1000 T1500
G1 Z0.3
G1 E0.75 F1800
;TYPE:External perimeter
;WIDTH:0.84
M107
G1 X137.045 Y79.117 E0.03579
G1 X136.655 Y79.6 E0.05999
G1 X136.467 Y79.918 E0.0358
G1 X136.313 Y80.255 E0.0358
G1 X136.141 Y80.851 E0.05999
G1 X136.091 Y81.217 E0.0358
G1 X136.08 Y81.587 E0.0358
G1 X136.153 Y82.215 E0.06115
G1 X136.346 Y82.83 E0.06231
G1 X136.646 Y83.386 E0.06116
G1 X136.867 Y83.683 E0.03579
G1 X137.117 Y83.955 E0.0358
G1 X137.6 Y84.345 E0.05999
G1 X137.918 Y84.533 E0.0358
G1 X138.255 Y84.687 E0.03579
G1 X138.851 Y84.859 E0.06
G1 X139.217 Y84.909 E0.03579
G1 X139.572 Y84.92 E0.03435
G1 X139.864 Y84.901 E0.02829
G1 X140.227 Y84.843 E0.03551
G1 X140.83 Y84.654 E0.06115
G1 X141.386 Y84.354 E0.06115
G1 X141.683 Y84.133 E0.0358
G1 X141.955 Y83.883 E0.03579
G1 X142.345 Y83.4 E0.05999
G1 X142.533 Y83.082 E0.0358
G1 X142.687 Y82.745 E0.0358
G1 X142.859 Y82.149 E0.05999
G1 X142.909 Y81.783 E0.0358
G1 X142.92 Y81.413 E0.0358
G1 X142.847 Y80.785 E0.06115
G1 X142.654 Y80.17 E0.06231
G1 X142.354 Y79.614 E0.06116
G1 X142.133 Y79.317 E0.03579
G1 X141.883 Y79.045 E0.0358
G1 X141.4 Y78.655 E0.05999
G1 X141.082 Y78.467 E0.0358
G1 X140.745 Y78.313 E0.03579
G1 X140.149 Y78.141 E0.06
G1 X139.783 Y78.091 E0.03579
G1 X139.428 Y78.08 E0.03435
G1 X139.136 Y78.099 E0.02829
G1 X138.773 Y78.157 E0.03551
G1 X138.17 Y78.346 E0.06115
G1 X137.614 Y78.646 E0.06115
G1 X137.389 Y78.813 E0.02709
M107
;WIPE_START
M204 P1500 T1500
G1 X136.751 Y78.668 F18000
;WIPE_END
G1 E-0.75 F3000
G1 Z0.7 F18000
; acceleration to travel
G1 X121.98 Y112.057
; decel to extrusion
M204 P1500 T1000
G1 X112.133 Y134.317
; end travel
M204 P1000 T1500
G1 Z0.3
G1 E0.75 F1800
M107
G1 X111.883 Y134.045 E0.03579
G1 X111.4 Y133.655 E0.05999
G1 X111.082 Y133.467 E0.0358
G1 X110.745 Y133.313 E0.0358
G1 X110.149 Y133.141 E0.05999
G1 X109.783 Y133.091 E0.0358
G1 X109.413 Y133.08 E0.0358
G1 X109.105 Y133.116 E0.02999
G1 X108.785 Y133.153 E0.03116
G1 X108.17 Y133.346 E0.06231
G1 X107.614 Y133.646 E0.06116
G1 X107.317 Y133.867 E0.03579
G1 X107.045 Y134.117 E0.0358
G1 X106.655 Y134.6 E0.05999
G1 X106.467 Y134.918 E0.0358
G1 X106.313 Y135.255 E0.03579
G1 X106.141 Y135.851 E0.06
G1 X106.091 Y136.217 E0.03579
G1 X106.08 Y136.572 E0.03435
G1 X106.099 Y136.864 E0.02829
G1 X106.157 Y137.227 E0.03551
G1 X106.346 Y137.83 E0.06115
G1 X106.646 Y138.386 E0.06115
G1 X106.867 Y138.683 E0.0358
G1 X107.117 Y138.955 E0.03579
G1 X107.6 Y139.345 E0.05999
G1 X107.918 Y139.533 E0.0358
G1 X108.255 Y139.687 E0.0358
G1 X108.851 Y139.859 E0.05999
G1 X109.217 Y139.909 E0.0358
G1 X109.587 Y139.92 E0.0358
G1 X110.215 Y139.847 E0.06115
G1 X110.83 Y139.654 E0.06231
G1 X111.386 Y139.354 E0.06116
G1 X111.683 Y139.133 E0.03579
G1 X111.955 Y138.883 E0.0358
G1 X112.345 Y138.4 E0.05999
G1 X112.533 Y138.082 E0.0358
G1 X112.687 Y137.745 E0.03579
G1 X112.859 Y137.149 E0.06
G1 X112.909 Y136.783 E0.03579
G1 X112.92 Y136.428 E0.03435
G1 X112.901 Y136.136 E0.02829
G1 X112.843 Y135.773 E0.03551
G1 X112.654 Y135.17 E0.06115
G1 X112.354 Y134.614 E0.06115
G1 X112.187 Y134.389 E0.02709
M107
;WIPE_START
M204 P1500 T1500
G1 X112.332 Y133.751 F18000
;WIPE_END
G1 E-0.75 F3000
G1 Z0.7 F18000
; acceleration to travel
G1 X109.605 Y283.624
; decel to extrusion
M204 P1500 T1000
G1 X107.787 Y383.539
; end travel
M204 P1000 T1500
G1 Z0.3
G1 E0.75 F1800
M107
G1 X107.476 Y383.741 E0.0358
G1 X107.003 Y384.16 E0.06115
G1 X106.616 Y384.66 E0.06115
G1 X106.434 Y384.982 E0.03579
G1 X106.288 Y385.322 E0.0358
G1 X106.128 Y385.921 E0.05999
G1 X106.085 Y386.295 E0.03636
G1 X106.097 Y386.855 E0.05427
G1 X106.154 Y387.212 E0.03491
G1 X106.227 Y387.495 E0.02829
G1 X106.352 Y387.84 E0.03551
G1 X106.646 Y388.386 E0.05999
G1 X106.867 Y388.683 E0.03579
G1 X107.117 Y388.955 E0.03579
G1 X107.6 Y389.345 E0.06
G1 X107.918 Y389.533 E0.0358
G1 X108.255 Y389.687 E0.03579
G1 X108.851 Y389.859 E0.05999
G1 X109.217 Y389.909 E0.0358
G1 X109.575 Y389.92 E0.03464
G1 X109.932 Y389.893 E0.03463
G1 X110.296 Y389.827 E0.0358
G1 X110.884 Y389.629 E0.06
G1 X111.213 Y389.461 E0.03579
G1 X111.524 Y389.259 E0.0358
G1 X111.997 Y388.84 E0.06115
G1 X112.384 Y388.34 E0.06115
G1 X112.566 Y388.018 E0.03579
G1 X112.712 Y387.678 E0.0358
G1 X112.872 Y387.079 E0.05999
G1 X112.915 Y386.705 E0.03636
G1 X112.903 Y386.145 E0.05427
G1 X112.846 Y385.788 E0.03491
G1 X112.773 Y385.505 E0.02829
G1 X112.648 Y385.16 E0.03551
G1 X112.354 Y384.614 E0.05999
G1 X112.133 Y384.317 E0.03579
G1 X111.883 Y384.045 E0.03579
G1 X111.4 Y383.655 E0.05999
G1 X111.082 Y383.467 E0.03581
G1 X110.745 Y383.313 E0.03579
G1 X110.149 Y383.141 E0.05998
G1 X109.783 Y383.091 E0.0358
G1 X109.425 Y383.08 E0.03464
G1 X109.068 Y383.107 E0.03464
G1 X108.704 Y383.173 E0.03579
G1 X108.116 Y383.371 E0.05999
G1 X107.867 Y383.498 E0.02709
M107
;WIPE_START
M204 P1500 T1500
G1 X107.261 Y383.249 F18000
;WIPE_END
G1 E-0.75 F3000
G1 Z0.7 F18000
; acceleration to travel
G1 X125.121 Y405.421
; decel to extrusion
M204 P1500 T1000
G1 X137.027 Y420.203
; end travel
M204 P1000 T1500
G1 Z0.3
G1 E0.75 F1800
;TYPE:Internal perimeter
M107
G1 X137.059 Y420.222 E0.00364
G1 X137.485 Y420.416 E0.04524
G1 X138.19 Y420.62 E0.071
G1 X138.653 Y420.683 E0.04525
G1 X139.092 Y420.696 E0.04251
G1 X139.53 Y420.664 E0.04249
G1 X139.991 Y420.581 E0.04524
G1 X140.686 Y420.346 E0.07101
G1 X141.102 Y420.133 E0.04523
G1 X141.494 Y419.878 E0.04525
G1 X142.066 Y419.373 E0.07376
G1 X142.55 Y418.748 E0.0765
G1 X142.908 Y418.043 E0.0765
G1 X143.12 Y417.31 E0.07376
G1 X143.183 Y416.847 E0.04525
G1 X143.197 Y416.379 E0.04524
G1 X143.109 Y415.622 E0.07375
G1 X142.872 Y414.868 E0.0765
G1 X142.511 Y414.196 E0.07376
G1 X142.231 Y413.821 E0.04524
G1 X141.915 Y413.477 E0.04524
G1 X141.344 Y413.016 E0.07102
G1 X140.941 Y412.778 E0.04525
G1 X140.515 Y412.584 E0.04524
G1 X139.81 Y412.38 E0.071
G1 X139.347 Y412.317 E0.04525
G1 X138.908 Y412.304 E0.04251
G1 X138.47 Y412.336 E0.04249
G1 X138.009 Y412.419 E0.04524
G1 X137.314 Y412.654 E0.07101
G1 X136.898 Y412.867 E0.04523
G1 X136.506 Y413.122 E0.04525
G1 X135.934 Y413.627 E0.07376
G1 X135.45 Y414.252 E0.0765
G1 X135.092 Y414.957 E0.0765
G1 X134.88 Y415.69 E0.07376
G1 X134.817 Y416.153 E0.04525
G1 X134.803 Y416.621 E0.04524
G1 X134.891 Y417.378 E0.07375
G1 X135.128 Y418.132 E0.0765
G1 X135.489 Y418.804 E0.07376
G1 X135.769 Y419.179 E0.04524
G1 X136.085 Y419.523 E0.04524
G1 X136.656 Y419.984 E0.07102
G1 X136.949 Y420.157 E0.03289
M107
M204 P1000 T1000
G1 X137.418 Y419.533 F18000
;TYPE:External perimeter
M107
G1 F1800
G1 X137.755 Y419.687 E0.0358
G1 X138.351 Y419.859 E0.05999
G1 X138.717 Y419.909 E0.0358
G1 X139.075 Y419.92 E0.03464
G1 X139.432 Y419.893 E0.03463
G1 X139.796 Y419.827 E0.0358
G1 X140.384 Y419.629 E0.05999
G1 X140.713 Y419.461 E0.03579
G1 X141.024 Y419.259 E0.0358
G1 X141.497 Y418.84 E0.06115
G1 X141.892 Y418.331 E0.06232
G1 X142.184 Y417.757 E0.06232
G1 X142.359 Y417.149 E0.06115
G1 X142.409 Y416.783 E0.0358
G1 X142.42 Y416.413 E0.0358
G1 X142.347 Y415.785 E0.06115
G1 X142.154 Y415.17 E0.06232
G1 X141.854 Y414.614 E0.06115
G1 X141.633 Y414.317 E0.0358
G1 X141.383 Y414.045 E0.0358
G1 X140.9 Y413.655 E0.05999
G1 X140.582 Y413.467 E0.0358
G1 X140.245 Y413.313 E0.0358
G1 X139.649 Y413.141 E0.05999
G1 X139.283 Y413.091 E0.0358
G1 X138.925 Y413.08 E0.03464
G1 X138.568 Y413.107 E0.03463
G1 X138.204 Y413.173 E0.0358
G1 X137.616 Y413.371 E0.05999
G1 X137.287 Y413.539 E0.03579
G1 X136.976 Y413.741 E0.0358
G1 X136.503 Y414.16 E0.06115
G1 X136.108 Y414.669 E0.06232
G1 X135.816 Y415.243 E0.06232
G1 X135.641 Y415.851 E0.06115
G1 X135.591 Y416.217 E0.0358
G1 X135.58 Y416.587 E0.0358
G1 X135.653 Y417.215 E0.06115
G1 X135.846 Y417.83 E0.06232
G1 X136.146 Y418.386 E0.06115
G1 X136.367 Y418.683 E0.0358
G1 X136.617 Y418.955 E0.0358
G1 X137.1 Y419.345 E0.05999
G1 X137.341 Y419.487 E0.02709
M107
;WIPE_START
M204 P1500 T1000
G1 X137.455 Y420.132 F18000
;WIPE_END
G1 E-0.75 F3000
G1 Z0.7 F18000
; acceleration to travel
M204 P1500 T1500
G1 X229.662 Y420.12
; decel to extrusion
M204 P1500 T1000
G1 X291.134 Y420.112
; end travel
M204 P1000 T1500
G1 Z0.3
G1 E0.75 F1800
;TYPE:Internal perimeter
M107
G1 X291.494 Y419.878 E0.04161
G1 X292.066 Y419.373 E0.07376
G1 X292.55 Y418.748 E0.07651
G1 X292.908 Y418.043 E0.0765
G1 X293.12 Y417.31 E0.07376
G1 X293.183 Y416.847 E0.04525
G1 X293.197 Y416.379 E0.04523
G1 X293.109 Y415.622 E0.07376
G1 X292.872 Y414.868 E0.0765
G1 X292.511 Y414.196 E0.07376
G1 X292.231 Y413.821 E0.04523
G1 X291.915 Y413.477 E0.04524
G1 X291.344 Y413.016 E0.07102
G1 X290.941 Y412.778 E0.04525
G1 X290.515 Y412.584 E0.04524
G1 X289.81 Y412.38 E0.07099
G1 X289.347 Y412.317 E0.04525
G1 X288.908 Y412.304 E0.04251
G1 X288.47 Y412.336 E0.04249
G1 X288.009 Y412.419 E0.04524
G1 X287.314 Y412.654 E0.07101
G1 X286.898 Y412.867 E0.04523
G1 X286.506 Y413.122 E0.04525
G1 X285.934 Y413.627 E0.07376
G1 X285.45 Y414.252 E0.07651
G1 X285.092 Y414.957 E0.0765
G1 X284.88 Y415.69 E0.07376
G1 X284.817 Y416.153 E0.04525
G1 X284.803 Y416.621 E0.04523
G1 X284.891 Y417.378 E0.07376
G1 X285.128 Y418.132 E0.0765
G1 X285.489 Y418.804 E0.07376
G1 X285.769 Y419.179 E0.04523
G1 X286.085 Y419.523 E0.04524
G1 X286.656 Y419.984 E0.07102
G1 X287.059 Y420.222 E0.04525
G1 X287.485 Y420.416 E0.04524
G1 X288.19 Y420.62 E0.07099
G1 X288.653 Y420.683 E0.04525
G1 X289.092 Y420.696 E0.04251
G1 X289.53 Y420.664 E0.04249
G1 X289.991 Y420.581 E0.04524
G1 X290.686 Y420.346 E0.07101
G1 X291.056 Y420.157 E0.04017
M107
M204 P1000 T1000
G1 X290.713 Y419.461 F18000
;TYPE:External perimeter
M107
G1 F1800
G1 X291.024 Y419.259 E0.0358
G1 X291.497 Y418.84 E0.06115
G1 X291.892 Y418.331 E0.06232
G1 X292.183 Y417.757 E0.06232
G1 X292.359 Y417.149 E0.06115
G1 X292.409 Y416.783 E0.0358
G1 X292.42 Y416.413 E0.03579
G1 X292.347 Y415.785 E0.06115
G1 X292.154 Y415.17 E0.06232
G1 X291.854 Y414.614 E0.06116
G1 X291.633 Y414.317 E0.03579
G1 X291.383 Y414.045 E0.0358
G1 X290.9 Y413.655 E0.05999
G1 X290.582 Y413.467 E0.0358
G1 X290.245 Y413.313 E0.0358
G1 X289.649 Y413.141 E0.05998
G1 X289.283 Y413.091 E0.0358
G1 X288.925 Y413.08 E0.03464
G1 X288.568 Y413.107 E0.03463
G1 X288.204 Y413.173 E0.0358
G1 X287.616 Y413.371 E0.05999
G1 X287.287 Y413.539 E0.03579
G1 X286.976 Y413.741 E0.0358
G1 X286.503 Y414.16 E0.06115
G1 X286.108 Y414.669 E0.06232
G1 X285.817 Y415.243 E0.06232
G1 X285.641 Y415.851 E0.06115
G1 X285.591 Y416.217 E0.0358
G1 X285.58 Y416.587 E0.03579
G1 X285.653 Y417.215 E0.06115
G1 X285.846 Y417.83 E0.06232
G1 X286.146 Y418.386 E0.06116
G1 X286.367 Y418.683 E0.03579
G1 X286.617 Y418.955 E0.0358
G1 X287.1 Y419.345 E0.05999
G1 X287.418 Y419.533 E0.0358
G1 X287.755 Y419.687 E0.0358
G1 X288.351 Y419.859 E0.05998
G1 X288.717 Y419.909 E0.0358
G1 X289.075 Y419.92 E0.03464
G1 X289.432 Y419.893 E0.03463
G1 X289.796 Y419.827 E0.0358
G1 X290.384 Y419.629 E0.05999
G1 X290.633 Y419.502 E0.02709
M107
;WIPE_START
M204 P1500 T1000
G1 X291.239 Y419.751 F18000
;WIPE_END
G1 E-0.75 F3000
G1 Z0.7 F18000
; acceleration to travel
M204 P1500 T1500
G1 X201.785 Y218.753
; decel to extrusion
M204 P1500 T1000
G1 X142.149 Y84.754
; end travel
M204 P1000 T1500
G1 Z0.3
G1 E0.75 F1800
;TYPE:Internal perimeter
M107
G1 X142.179 Y84.731 E0.00363
G1 X142.523 Y84.415 E0.04523
G1 X142.984 Y83.844 E0.07102
G1 X143.222 Y83.441 E0.04524
G1 X143.416 Y83.015 E0.04524
G1 X143.62 Y82.31 E0.07102
G1 X143.683 Y81.847 E0.04524
G1 X143.697 Y81.379 E0.04525
G1 X143.609 Y80.622 E0.07375
G1 X143.372 Y79.868 E0.0765
G1 X143.011 Y79.196 E0.07377
G1 X142.731 Y78.821 E0.04523
G1 X142.415 Y78.477 E0.04524
G1 X142.083 Y78.209 E0.04124
G1 X142.229 Y77.796 E0.04245
G1 X171.579 Y77.796 E2.83932
G1 X171.579 Y87.421 E0.93112
G1 X211.587 Y87.421 E3.87034
G1 X211.587 Y77.796 E0.93112
G1 X240.329 Y77.796 E2.7805
G1 X240.329 Y87.421 E0.93112
G1 X280.337 Y87.421 E3.87034
G1 X280.337 Y77.796 E0.93112
G1 X309.079 Y77.796 E2.7805
G1 X309.079 Y87.421 E0.93112
G1 X349.087 Y87.421 E3.87035
G1 X349.087 Y77.796 E0.93112
G1 X362.334 Y77.796 E1.28153
G1 X361.477 Y78.585 E0.11276
G1 X361.016 Y79.156 E0.07102
G1 X360.778 Y79.559 E0.04525
G1 X360.584 Y79.985 E0.04524
G1 X360.38 Y80.69 E0.07099
G1 X360.317 Y81.153 E0.04525
G1 X360.304 Y81.592 E0.04251
