; generated by Slic3r 1.1.7 on 2016-11-01 at 15:41:09

; perimeters extrusion width = 0.50mm
; infill extrusion width = 0.52mm
; solid infill extrusion width = 0.52mm
; top infill extrusion width = 0.52mm

G21 ; set units to millimeters
M107
M190 S50 ; wait for bed temperature to be reached
M104 S210 ; set temperature
G28 X0 Y0; home all axes
M109 S210 ; wait for temperature to be reached
G90 ; use absolute coordinates
G92 E0
M82 ; use absolute distances for extrusion
G1 F1800.000 E-1.00000
G92 E0
G1 Z0.500 F7800.000
G1 X83.912 Y109.131 F7800.000
G1 E1.00000 F1800.000
G1 X86.087 Y108.270 E1.43418 F1080.000
G1 X87.492 Y108.124 E1.69632
G1 X117.500 Y108.091 E7.26486
G1 X227.500 Y108.091 E27.67762
G1 X229.806 Y108.488 E28.11180
G1 X231.846 Y109.633 E28.54597 F1080.000
G1 X233.385 Y111.395 E28.98015
G1 X234.246 Y113.571 E29.41433
G1 X234.393 Y114.983 E29.67788
G1 X234.393 Y134.983 E33.38929
G1 X233.996 Y137.289 E33.82347
G1 X232.850 Y139.329 E34.25765
G1 X231.088 Y140.869 E34.69183
G1 X228.913 Y141.730 E35.12600
G1 X227.504 Y141.876 E35.38885
G1 X167.500 Y141.909 E46.52379
G1 X87.500 Y141.909 E61.36944
G1 X85.194 Y141.512 E61.80362
G1 X83.154 Y140.367 E62.23779
G1 X81.615 Y138.605 E62.67197
G1 X80.754 Y136.429 E63.10615
G1 X80.607 Y135.017 E63.36970
G1 X80.607 Y115.017 E67.08111
G1 X81.004 Y112.711 E67.51529
G1 X82.150 Y110.671 E67.94947
G1 X83.855 Y109.181 E68.36973
G1 F1800.000 E67.36973
G92 E0
G1 X163.893 Y131.409 F7800.000
G1 E1.00000 F1800.000
G1 X151.107 Y131.409 E3.37259 F540.000
G1 X151.107 Y118.624 E5.74519
G1 X163.893 Y118.624 E8.11778
G1 X163.893 Y131.334 E10.47646
G1 X163.000 Y130.517 F7800.000
G1 X152.000 Y130.517 E12.51773 F378.000
G1 X152.000 Y119.517 E14.55901
G1 X163.000 Y119.517 E16.60029
G1 X163.000 Y130.442 E18.62765
G1 X163.000 Y131.017 F7800.000
G1 X166.107 Y133.624 F7800.000
G1 X148.893 Y133.624 E21.82217 F540.000
G1 X148.893 Y116.409 E25.01669
G1 X166.107 Y116.409 E28.21122
G1 X166.107 Y133.549 E31.39182
G1 X167.000 Y134.517 F7800.000
G1 X148.000 Y134.517 E34.91766 F378.000
G1 X148.000 Y115.517 E38.44350
G1 X167.000 Y115.517 E41.96934
G1 X167.000 Y134.442 E45.48127
G1 X166.567 Y134.267 F7800.000
G1 X164.887 Y132.403 F7800.000
G1 X164.339 Y132.517 E45.64315 F360.000
G1 X150.661 Y132.517 E49.60308
G1 X150.113 Y132.403 E49.76496
G1 X150.000 Y131.856 E49.92685
G1 X150.000 Y118.178 E53.88677
G1 X150.113 Y117.630 E54.04866
G1 X150.661 Y117.517 E54.21054
G1 X164.339 Y117.517 E58.17047
G1 X164.887 Y117.630 E58.33235
G1 X165.000 Y118.178 E58.49423
G1 X165.000 Y131.856 E62.45416
G1 X164.902 Y132.330 E62.59433
G1 F1800.000 E61.59433
G92 E0
G1 X133.893 Y131.376 F7800.000
G1 E1.00000 F1800.000
G1 X121.107 Y131.376 E3.37259 F540.000
G1 X121.107 Y118.591 E5.74519
G1 X133.893 Y118.591 E8.11778
G1 X133.893 Y131.301 E10.47646
G1 X133.000 Y130.483 F7800.000
G1 X122.000 Y130.483 E12.51773 F378.000
G1 X122.000 Y119.483 E14.55901
G1 X133.000 Y119.483 E16.60029
G1 X133.000 Y130.408 E18.62765
G1 X133.000 Y130.983 F7800.000
G1 X136.107 Y133.591 F7800.000
G1 X118.893 Y133.591 E21.82217 F540.000
G1 X118.893 Y116.376 E25.01669
G1 X136.107 Y116.376 E28.21122
G1 X136.107 Y133.516 E31.39182
G1 X137.000 Y134.483 F7800.000
G1 X118.000 Y134.483 E34.91766 F378.000
G1 X118.000 Y115.483 E38.44350
G1 X137.000 Y115.483 E41.96934
G1 X137.000 Y134.408 E45.48127
G1 X136.567 Y134.233 F7800.000
G1 X134.887 Y132.370 F7800.000
G1 X134.339 Y132.483 E45.64315 F360.000
G1 X120.661 Y132.483 E49.60308
G1 X120.113 Y132.370 E49.76496
G1 X120.000 Y131.822 E49.92685
G1 X120.000 Y118.144 E53.88677
G1 X120.113 Y117.597 E54.04866
G1 X120.661 Y117.483 E54.21054
G1 X134.339 Y117.483 E58.17047
G1 X134.887 Y117.597 E58.33235
G1 X135.000 Y118.144 E58.49423
G1 X135.000 Y131.822 E62.45416
G1 X134.902 Y132.297 E62.59433
G1 F1800.000 E61.59433
G92 E0
G1 X103.893 Y131.409 F7800.000
G1 E1.00000 F1800.000
G1 X91.107 Y131.409 E3.37259 F540.000
G1 X91.107 Y118.624 E5.74519
G1 X103.893 Y118.624 E8.11778
G1 X103.893 Y131.334 E10.47646
G1 X103.000 Y130.517 F7800.000
G1 X92.000 Y130.517 E12.51773 F378.000
G1 X92.000 Y119.517 E14.55901
G1 X103.000 Y119.517 E16.60029
G1 X103.000 Y130.442 E18.62765
G1 X103.000 Y131.017 F7800.000
G1 X106.107 Y133.624 F7800.000
G1 X88.893 Y133.624 E21.82217 F540.000
G1 X88.893 Y116.409 E25.01669
G1 X106.107 Y116.409 E28.21122
G1 X106.107 Y133.549 E31.39182
G1 X107.000 Y134.517 F7800.000
G1 X88.000 Y134.517 E34.91766 F378.000
G1 X88.000 Y115.517 E38.44350
G1 X107.000 Y115.517 E41.96934
G1 X107.000 Y134.442 E45.48127
G1 X106.567 Y134.267 F7800.000
G1 X104.887 Y132.403 F7800.000
G1 X104.339 Y132.517 E45.64315 F360.000
G1 X90.661 Y132.517 E49.60308
G1 X90.113 Y132.403 E49.76496
G1 X90.000 Y131.856 E49.92685
G1 X90.000 Y118.178 E53.88677
G1 X90.113 Y117.630 E54.04866
G1 X90.661 Y117.517 E54.21054
G1 X104.339 Y117.517 E58.17047
G1 X104.887 Y117.630 E58.33235
G1 X105.000 Y118.178 E58.49423
G1 X105.000 Y131.856 E62.45416
G1 X104.902 Y132.330 E62.59433
G1 F1800.000 E61.59433
G92 E0
G1 X181.107 Y131.376 F7800.000
G1 E1.00000 F1800.000
G1 X181.107 Y118.591 E3.37259 F540.000
G1 X193.893 Y118.591 E5.74519
G1 X193.893 Y131.376 E8.11778
G1 X181.182 Y131.376 E10.47646
G1 X182.000 Y130.483 F7800.000
G1 X182.000 Y119.483 E12.51773 F378.000
G1 X193.000 Y119.483 E14.55901
G1 X193.000 Y130.483 E16.60029
G1 X182.075 Y130.483 E18.62765
G1 X181.500 Y130.483 F7800.000
G1 X178.893 Y133.591 F7800.000
G1 X178.893 Y116.376 E21.82217 F540.000
G1 X196.107 Y116.376 E25.01669
G1 X196.107 Y133.591 E28.21122
G1 X178.968 Y133.591 E31.39182
G1 X178.000 Y134.483 F7800.000
G1 X178.000 Y115.483 E34.91766 F378.000
G1 X197.000 Y115.483 E38.44350
G1 X197.000 Y134.483 E41.96934
G1 X178.075 Y134.483 E45.48127
G1 X178.250 Y134.050 F7800.000
G1 X180.113 Y132.370 F7800.000
G1 X180.000 Y131.822 E45.64315 F360.000
G1 X180.000 Y118.144 E49.60308
G1 X180.113 Y117.597 E49.76496
G1 X180.661 Y117.483 E49.92685
G1 X194.339 Y117.483 E53.88677
G1 X194.887 Y117.597 E54.04866
G1 X195.000 Y118.144 E54.21054
G1 X195.000 Y131.822 E58.17047
G1 X194.887 Y132.370 E58.33235
G1 X194.339 Y132.483 E58.49423
G1 X180.661 Y132.483 E62.45416
G1 X180.187 Y132.385 E62.59433
G1 F1800.000 E61.59433
G92 E0
G1 X211.107 Y131.376 F7800.000
G1 E1.00000 F1800.000
G1 X211.107 Y118.591 E3.37259 F540.000
G1 X223.893 Y118.591 E5.74519
G1 X223.893 Y131.376 E8.11778
G1 X211.182 Y131.376 E10.47646
G1 X212.000 Y130.483 F7800.000
G1 X212.000 Y119.483 E12.51773 F378.000
G1 X223.000 Y119.483 E14.55901
G1 X223.000 Y130.483 E16.60029
G1 X212.075 Y130.483 E18.62765
G1 X211.500 Y130.483 F7800.000
G1 X208.893 Y133.591 F7800.000
G1 X208.893 Y116.376 E21.82217 F540.000
G1 X226.107 Y116.376 E25.01669
G1 X226.107 Y133.591 E28.21122
G1 X208.968 Y133.591 E31.39182
G1 X208.000 Y134.483 F7800.000
G1 X208.000 Y115.483 E34.91766 F378.000
G1 X227.000 Y115.483 E38.44350
G1 X227.000 Y134.483 E41.96934
G1 X208.075 Y134.483 E45.48127
G1 X208.250 Y134.050 F7800.000
G1 X210.113 Y132.370 F7800.000
G1 X210.000 Y131.822 E45.64315 F360.000
G1 X210.000 Y118.144 E49.60308
G1 X210.113 Y117.597 E49.76496
G1 X210.661 Y117.483 E49.92685
G1 X224.339 Y117.483 E53.88677
G1 X224.887 Y117.597 E54.04866
G1 X225.000 Y118.144 E54.21054
G1 X225.000 Y131.822 E58.17047
G1 X224.887 Y132.370 E58.33235
G1 X224.339 Y132.483 E58.49423
G1 X210.661 Y132.483 E62.45416
G1 X210.187 Y132.385 E62.59433
G1 F1800.000 E61.59433
G92 E0
G1 Z0.900 F7800.000
G1 X163.750 Y131.267 F7800.000
G1 E1.00000 F1800.000
G1 X151.250 Y131.267 E2.03938 F1800.000
G1 X151.250 Y118.767 E3.07876
G1 X163.750 Y118.767 E4.11814
G1 X163.750 Y131.192 E5.15128
G1 X163.250 Y130.767 F7800.000
G1 X151.750 Y130.767 E6.10751 F1800.000
G1 X151.750 Y119.267 E7.06374
G1 X163.250 Y119.267 E8.01997
G1 X163.250 Y130.692 E8.96996
G1 X162.750 Y130.267 F7800.000
G1 X152.250 Y130.267 E9.84304 F1260.000
G1 X152.250 Y119.767 E10.71612
G1 X162.750 Y119.767 E11.58920
G1 X162.750 Y130.192 E12.45604
G1 X162.750 Y130.767 F7800.000
G1 X166.250 Y133.767 F7800.000
G1 X148.750 Y133.767 E13.91117 F1800.000
G1 X148.750 Y116.267 E15.36630
G1 X166.250 Y116.267 E16.82143
G1 X166.250 Y133.692 E18.27033
G1 X166.750 Y134.267 F7800.000
G1 X148.250 Y134.267 E19.80861 F1800.000
G1 X148.250 Y115.767 E21.34689
G1 X166.750 Y115.767 E22.88517
G1 X166.750 Y134.192 E24.41721
G1 X167.250 Y134.767 F7800.000
G1 X147.750 Y134.767 E26.03865 F1260.000
G1 X147.750 Y115.267 E27.66008
G1 X167.250 Y115.267 E29.28151
G1 X167.250 Y134.692 E30.89670
G1 X166.817 Y134.517 F7800.000
G1 X165.903 Y133.380 F7800.000
G1 X165.863 Y133.420 E30.90159 F3600.000
G1 X165.118 Y133.420 E30.96599
G1 X165.903 Y132.635 E31.06194
G1 X165.903 Y131.889 E31.12634
G1 X164.373 Y133.420 E31.31336
G1 X163.628 Y133.420 E31.37775
G1 X165.903 Y131.144 E31.65584
G1 X165.903 Y130.399 E31.72023
G1 X162.882 Y133.420 E32.08939
G1 X162.137 Y133.420 E32.15378
G1 X165.903 Y129.654 E32.61401
G1 X165.903 Y128.909 E32.67840
G1 X164.097 Y130.715 E32.89914
G1 X164.097 Y129.970 E32.96353
G1 X165.903 Y128.164 E33.18427
G1 X165.903 Y127.418 E33.24866
G1 X164.097 Y129.225 E33.46940
G1 X164.097 Y128.479 E33.53379
G1 X165.903 Y126.673 E33.75453
G1 X165.903 Y125.928 E33.81892
G1 X164.097 Y127.734 E34.03966
G1 X164.097 Y126.989 E34.10405
G1 X165.903 Y125.183 E34.32479
G1 X165.903 Y124.438 E34.38918
G1 X164.097 Y126.244 E34.60992
G1 X164.097 Y125.499 E34.67431
G1 X165.903 Y123.693 E34.89505
G1 X165.903 Y122.947 E34.95944
G1 X164.097 Y124.754 E35.18018
G1 X164.097 Y124.008 E35.24457
G1 X165.903 Y122.202 E35.46531
G1 X165.903 Y121.457 E35.52970
G1 X164.097 Y123.263 E35.75044
G1 X164.097 Y122.518 E35.81484
G1 X165.903 Y120.712 E36.03557
G1 X165.903 Y119.967 E36.09997
G1 X164.097 Y121.773 E36.32070
G1 X164.097 Y121.028 E36.38510
G1 X165.903 Y119.222 E36.60583
G1 X165.903 Y118.476 E36.67023
G1 X164.097 Y120.283 E36.89096
G1 X164.097 Y119.537 E36.95536
G1 X165.903 Y117.731 E37.17609
G1 X165.903 Y116.986 E37.24049
G1 X164.097 Y118.792 E37.46122
G1 X163.724 Y118.420 E37.50676
G1 X165.531 Y116.613 E37.72749
G1 X164.785 Y116.613 E37.79189
G1 X162.979 Y118.420 E38.01263
G1 X162.234 Y118.420 E38.07702
G1 X164.040 Y116.613 E38.29776
G1 X163.295 Y116.613 E38.36215
G1 X161.489 Y118.420 E38.58289
G1 X160.744 Y118.420 E38.64728
G1 X162.550 Y116.613 E38.86802
G1 X161.805 Y116.613 E38.93241
G1 X159.998 Y118.420 E39.15315
G1 X159.253 Y118.420 E39.21754
G1 X161.060 Y116.613 E39.43828
G1 X160.314 Y116.613 E39.50267
G1 X158.508 Y118.420 E39.72341
G1 X157.763 Y118.420 E39.78780
G1 X159.569 Y116.613 E40.00854
G1 X158.824 Y116.613 E40.07293
G1 X157.018 Y118.420 E40.29367
G1 X156.273 Y118.420 E40.35806
G1 X158.079 Y116.613 E40.57880
G1 X157.334 Y116.613 E40.64319
G1 X155.528 Y118.420 E40.86393
G1 X154.782 Y118.420 E40.92832
G1 X156.589 Y116.613 E41.14906
G1 X155.843 Y116.613 E41.21345
G1 X154.037 Y118.420 E41.43419
G1 X153.292 Y118.420 E41.49859
G1 X155.098 Y116.613 E41.71932
G1 X154.353 Y116.613 E41.78372
G1 X152.547 Y118.420 E42.00445
G1 X151.802 Y118.420 E42.06885
G1 X153.608 Y116.613 E42.28958
G1 X152.863 Y116.613 E42.35398
G1 X149.097 Y120.379 E42.81420
G1 X149.097 Y119.634 E42.87859
G1 X152.118 Y116.613 E43.24775
G1 X151.372 Y116.613 E43.31214
G1 X149.097 Y118.889 E43.59023
G1 X149.097 Y118.144 E43.65462
G1 X150.627 Y116.613 E43.84165
G1 X149.882 Y116.613 E43.90604
G1 X149.097 Y117.399 E44.00200
G1 X149.097 Y116.653 E44.06639
G1 X149.137 Y116.613 E44.07128
G1 X150.903 Y119.318 F7800.000
G1 X149.097 Y121.124 E44.29201 F3600.000
G1 X149.097 Y121.870 E44.35641
G1 X150.903 Y120.063 E44.57714
G1 X150.903 Y120.809 E44.64154
G1 X149.097 Y122.615 E44.86228
G1 X149.097 Y123.360 E44.92667
G1 X150.903 Y121.554 E45.14741
G1 X150.903 Y122.299 E45.21180
G1 X149.097 Y124.105 E45.43254
G1 X149.097 Y124.850 E45.49693
G1 X150.903 Y123.044 E45.71767
G1 X150.903 Y123.789 E45.78206
G1 X149.097 Y125.595 E46.00280
G1 X149.097 Y126.341 E46.06719
G1 X150.903 Y124.534 E46.28793
G1 X150.903 Y125.280 E46.35232
G1 X149.097 Y127.086 E46.57306
G1 X149.097 Y127.831 E46.63745
G1 X150.903 Y126.025 E46.85819
G1 X150.903 Y126.770 E46.92258
G1 X149.097 Y128.576 E47.14332
G1 X149.097 Y129.321 E47.20771
G1 X150.903 Y127.515 E47.42845
G1 X150.903 Y128.260 E47.49284
G1 X149.097 Y130.066 E47.71358
G1 X149.097 Y130.812 E47.77797
G1 X150.903 Y129.005 E47.99871
G1 X150.903 Y129.751 E48.06311
G1 X149.097 Y131.557 E48.28384
G1 X149.097 Y132.302 E48.34824
G1 X150.903 Y130.496 E48.56897
G1 X150.903 Y131.241 E48.63337
G1 X149.097 Y133.047 E48.85410
G1 X149.469 Y133.420 E48.89964
G1 X151.276 Y131.613 E49.12037
G1 X152.021 Y131.613 E49.18477
G1 X150.215 Y133.420 E49.40550
G1 X150.960 Y133.420 E49.46990
G1 X152.766 Y131.613 E49.69063
G1 X153.511 Y131.613 E49.75503
G1 X151.705 Y133.420 E49.97577
G1 X152.450 Y133.420 E50.04016
G1 X154.256 Y131.613 E50.26090
G1 X155.002 Y131.613 E50.32529
G1 X153.195 Y133.420 E50.54603
G1 X153.940 Y133.420 E50.61042
G1 X155.747 Y131.613 E50.83116
G1 X156.492 Y131.613 E50.89555
G1 X154.686 Y133.420 E51.11629
G1 X155.431 Y133.420 E51.18068
G1 X157.237 Y131.613 E51.40142
G1 X157.982 Y131.613 E51.46581
G1 X156.176 Y133.420 E51.68655
G1 X156.921 Y133.420 E51.75094
G1 X158.727 Y131.613 E51.97168
G1 X159.472 Y131.613 E52.03607
G1 X157.666 Y133.420 E52.25681
G1 X158.411 Y133.420 E52.32120
G1 X160.218 Y131.613 E52.54194
G1 X160.963 Y131.613 E52.60633
G1 X159.157 Y133.420 E52.82707
G1 X159.902 Y133.420 E52.89146
G1 X161.708 Y131.613 E53.11220
G1 X162.453 Y131.613 E53.17659
G1 X160.647 Y133.420 E53.39733
G1 X161.392 Y133.420 E53.46173
G1 X163.198 Y131.613 E53.68246
G1 F1800.000 E52.68246
G92 E0
G1 X133.750 Y131.233 F7800.000
G1 E1.00000 F1800.000
G1 X121.250 Y131.233 E2.03938 F1800.000
G1 X121.250 Y118.733 E3.07876
G1 X133.750 Y118.733 E4.11814
G1 X133.750 Y131.158 E5.15128
G1 X133.250 Y130.733 F7800.000
G1 X121.750 Y130.733 E6.10751 F1800.000
G1 X121.750 Y119.233 E7.06374
G1 X133.250 Y119.233 E8.01997
G1 X133.250 Y130.658 E8.96996
G1 X132.750 Y130.233 F7800.000
G1 X122.250 Y130.233 E9.84304 F1260.000
G1 X122.250 Y119.733 E10.71612
G1 X132.750 Y119.733 E11.58920
G1 X132.750 Y130.158 E12.45604
G1 X132.750 Y130.733 F7800.000
G1 X136.250 Y133.733 F7800.000
G1 X118.750 Y133.733 E13.91117 F1800.000
G1 X118.750 Y116.233 E15.36630
G1 X136.250 Y116.233 E16.82143
G1 X136.250 Y133.658 E18.27033
G1 X136.750 Y134.233 F7800.000
G1 X118.250 Y134.233 E19.80861 F1800.000
G1 X118.250 Y115.733 E21.34689
G1 X136.750 Y115.733 E22.88517
G1 X136.750 Y134.158 E24.41721
G1 X137.250 Y134.733 F7800.000
G1 X117.750 Y134.733 E26.03865 F1260.000
G1 X117.750 Y115.233 E27.66008
G1 X137.250 Y115.233 E29.28151
G1 X137.250 Y134.658 E30.89670
G1 X136.817 Y134.483 F7800.000
G1 X135.903 Y133.347 F7800.000
G1 X135.863 Y133.387 E30.90159 F3600.000
G1 X135.118 Y133.387 E30.96599
G1 X135.903 Y132.601 E31.06194
G1 X135.903 Y131.856 E31.12634
G1 X134.373 Y133.387 E31.31336
G1 X133.628 Y133.387 E31.37775
G1 X135.903 Y131.111 E31.65584
G1 X135.903 Y130.366 E31.72023
G1 X132.882 Y133.387 E32.08939
G1 X132.137 Y133.387 E32.15378
G1 X135.903 Y129.621 E32.61401
G1 X135.903 Y128.876 E32.67840
G1 X134.097 Y130.682 E32.89914
G1 X134.097 Y129.937 E32.96353
G1 X135.903 Y128.130 E33.18427
G1 X135.903 Y127.385 E33.24866
G1 X134.097 Y129.191 E33.46940
G1 X134.097 Y128.446 E33.53379
G1 X135.903 Y126.640 E33.75453
G1 X135.903 Y125.895 E33.81892
G1 X134.097 Y127.701 E34.03966
G1 X134.097 Y126.956 E34.10405
G1 X135.903 Y125.150 E34.32479
G1 X135.903 Y124.405 E34.38918
G1 X134.097 Y126.211 E34.60992
G1 X134.097 Y125.466 E34.67431
G1 X135.903 Y123.659 E34.89505
G1 X135.903 Y122.914 E34.95944
G1 X134.097 Y124.720 E35.18018
G1 X134.097 Y123.975 E35.24458
G1 X135.903 Y122.169 E35.46531
G1 X135.903 Y121.424 E35.52971
