; generated by Slic3r 1.1.7 on 2016-10-28 at 14:01:14

; perimeters extrusion width = 0.50mm
; infill extrusion width = 0.52mm
; solid infill extrusion width = 0.52mm
; top infill extrusion width = 0.52mm

G21 ; set units to millimeters
M107
M190 S50 ; wait for bed temperature to be reached
M104 S210 ; set temperature
G28 X0 Y0; home all axes
M109 S210 ; wait for temperature to be reached
G90 ; use absolute coordinates
G92 E0
M82 ; use absolute distances for extrusion
G1 F1800.000 E-1.00000
G92 E0
G1 Z0.500 F7800.000
G1 X145.914 Y116.478 F7800.000
G1 E1.00000 F1800.000
G1 X147.314 Y114.846 E1.39890 F962.219
G1 X148.941 Y113.441 E1.79781
G1 X150.759 Y112.295 E2.19673
G1 X152.728 Y111.432 E2.59564
G1 X154.804 Y110.872 E2.99454
G1 X156.940 Y110.628 E3.39345
G1 X159.088 Y110.705 E3.79236
G1 X161.201 Y111.102 E4.19126 F962.219
G1 X163.231 Y111.808 E4.59017
G1 X165.133 Y112.810 E4.98908
G1 X166.864 Y114.084 E5.38799
G1 X168.387 Y115.601 E5.78689
G1 X169.666 Y117.329 E6.18582
G1 X170.673 Y119.228 E6.58471
G1 X171.387 Y121.256 E6.98364
G1 X171.790 Y123.367 E7.38253
G1 X171.873 Y125.515 E7.78145
G1 X171.636 Y127.652 E8.18034
G1 X171.083 Y129.729 E8.57927
G1 X170.227 Y131.700 E8.97816
G1 X169.086 Y133.522 E9.37709
G1 X167.686 Y135.154 E9.77598
G1 X166.059 Y136.559 E10.17490
G1 X164.241 Y137.705 E10.57382
G1 X162.272 Y138.568 E10.97272
G1 X160.196 Y139.128 E11.37162
G1 X158.060 Y139.372 E11.77054
G1 X155.912 Y139.295 E12.16944
G1 X153.799 Y138.898 E12.56835
G1 X151.769 Y138.192 E12.96724
G1 X149.867 Y137.190 E13.36617
G1 X148.136 Y135.916 E13.76509
G1 X146.613 Y134.399 E14.16397
G1 X145.334 Y132.671 E14.56291
G1 X144.327 Y130.772 E14.96180
G1 X143.613 Y128.744 E15.36072
G1 X143.210 Y126.633 E15.75961
G1 X143.127 Y124.485 E16.15854
G1 X143.364 Y122.348 E16.55743
G1 X143.917 Y120.271 E16.95635
G1 X144.773 Y118.300 E17.35525
G1 X145.874 Y116.541 E17.74025
G1 F1800.000 E16.74025
G92 E0
G1 X160.831 Y123.198 F7800.000
G1 E1.00000 F1800.000
G1 X159.745 Y122.156 E1.27930 F600.000
G1 X159.158 Y121.778 E1.40880
G1 X158.510 Y121.520 E1.53830
G1 X157.824 Y121.391 E1.66780
G1 X157.126 Y121.396 E1.79730
G1 X156.442 Y121.534 E1.92679
G1 X155.798 Y121.801 E2.05629
G1 X155.216 Y122.187 E2.18579
G1 X154.315 Y123.076 E2.42074
G1 X153.819 Y122.532 E2.55732
G1 X153.687 Y122.288 E2.60881
G1 X153.618 Y122.019 E2.66029
G1 X153.616 Y121.742 E2.71178
G1 X153.682 Y121.472 E2.76327
G1 X153.810 Y121.226 E2.81475
G1 X153.988 Y121.026 E2.86449
G1 X154.720 Y120.485 E3.03327
G1 X155.523 Y120.080 E3.20031
G1 X156.384 Y119.816 E3.36734
G1 X157.277 Y119.702 E3.53437
G1 X158.176 Y119.741 E3.70141
G1 X159.056 Y119.931 E3.86844
G1 X159.891 Y120.267 E4.03547
G1 X160.664 Y120.744 E4.20403
G1 X160.902 Y120.968 E4.26468
G1 X161.086 Y121.248 E4.32685
G1 X161.199 Y121.563 E4.38902
G1 X161.236 Y121.896 E4.45119
G1 X161.195 Y122.229 E4.51336
G1 X160.858 Y123.128 E4.69150
G1 X160.537 Y123.602 F7800.000
G1 F1800.000 E3.69150
G92 E0
G1 X157.334 Y129.281 F7800.000
G1 E1.00000 F1800.000
G1 X157.926 Y130.053 E1.18061 F600.000
G1 X159.057 Y130.920 E1.44509
G1 X157.956 Y131.086 E1.65167
G1 X157.044 Y131.086 E1.82094
G1 X155.665 Y130.879 E2.07970
G1 X156.741 Y130.053 E2.33140
G1 X157.288 Y129.340 E2.49810
G1 X157.334 Y124.567 F7800.000
G1 X156.186 Y123.686 E2.76666 F600.000
G1 X156.640 Y123.385 E2.86793
G1 X156.966 Y123.250 E2.93332
G1 X157.311 Y123.180 E2.99872
G1 X157.664 Y123.177 E3.06411
G1 X158.010 Y123.243 E3.12951
G1 X158.701 Y123.518 E3.26756
G1 X157.393 Y124.522 E3.57353
G1 X157.334 Y126.010 F7800.000
G1 X156.741 Y125.238 E3.75414 F600.000
G1 X156.036 Y124.697 E3.91908
G1 X155.215 Y124.357 E4.08401
G1 X154.396 Y124.249 E4.23722
G1 X155.781 Y122.883 E4.59818
G1 X156.219 Y122.593 E4.69563
G1 X156.704 Y122.392 E4.79307
G1 X157.219 Y122.288 E4.89052
G1 X157.744 Y122.284 E4.98796
G1 X158.260 Y122.381 E5.08541
G1 X158.748 Y122.576 E5.18286
G1 X159.189 Y122.860 E5.28031
G1 X160.593 Y124.206 E5.64128
G1 X159.452 Y124.357 E5.85478
G1 X158.631 Y124.697 E6.01972
G1 X157.926 Y125.238 E6.18465
G1 X157.379 Y125.950 E6.35135
G1 X161.332 Y124.405 F7800.000
G1 X162.068 Y122.444 E6.74008 F600.000
G1 X162.143 Y121.842 E6.85252
G1 X162.646 Y121.741 E6.94783
G1 X162.999 Y122.352 E7.07881
G1 X163.332 Y123.201 E7.24809
G1 X163.535 Y124.090 E7.41737
G1 X163.603 Y125.000 E7.58665
G1 X163.510 Y126.240 E7.81747
G1 X162.741 Y125.238 E8.05197
G1 X162.036 Y124.697 E8.21690
G1 X161.401 Y124.434 E8.34446
G1 X154.186 Y124.260 F7800.000
G1 X153.452 Y124.357 E8.48181 F600.000
G1 X152.631 Y124.697 E8.64675
G1 X151.345 Y125.683 E8.94754
G1 X151.465 Y124.090 E9.24400
G1 X151.668 Y123.201 E9.41329
G1 X152.001 Y122.352 E9.58257
G1 X152.542 Y121.415 E9.78329
G1 X152.849 Y122.615 E10.01322
G1 X153.085 Y123.052 E10.10539
G1 X154.136 Y124.205 E10.39473
G1 F1800.000 E9.39473
G92 E0
G1 X151.887 Y128.083 F7800.000
G1 E1.00000 F1800.000
G1 X151.275 Y128.241 E1.11732 F600.000
G1 X150.812 Y127.063 E1.35225
G1 X150.580 Y126.043 E1.54635
G1 X150.501 Y125.000 E1.74046
G1 X150.580 Y123.957 E1.93457
G1 X150.812 Y122.937 E2.12868
G1 X151.194 Y121.963 E2.32279
G1 X151.717 Y121.058 E2.51690
G1 X152.370 Y120.240 E2.71101
G1 X153.136 Y119.528 E2.90512
G1 X154.001 Y118.939 E3.09923
G1 X154.943 Y118.485 E3.29334
G1 X155.943 Y118.177 E3.48745
G1 X156.977 Y118.021 E3.68156
G1 X158.023 Y118.021 E3.87566
G1 X159.057 Y118.177 E4.06977
G1 X160.057 Y118.485 E4.26388
G1 X160.999 Y118.939 E4.45799
G1 X161.864 Y119.528 E4.65210
G1 X162.630 Y120.240 E4.84621
G1 X163.283 Y121.058 E5.04032
G1 X163.806 Y121.963 E5.23442
G1 X164.188 Y122.937 E5.42853
G1 X164.420 Y123.957 E5.62264
G1 X164.499 Y125.000 E5.81675
G1 X164.420 Y126.043 E6.01086
G1 X164.188 Y127.063 E6.20497
G1 X163.806 Y128.037 E6.39908
G1 X163.283 Y128.942 E6.59319
G1 X163.004 Y129.291 E6.67602
G1 X162.470 Y128.976 E6.79115
G1 X162.753 Y128.293 E6.92830
G1 X162.838 Y127.645 E7.04961
G1 X162.753 Y126.997 E7.17093
G1 X162.502 Y126.393 E7.29225
G1 X162.104 Y125.874 E7.41357
G1 X161.586 Y125.476 E7.53489
G1 X160.982 Y125.226 E7.65620
G1 X160.334 Y125.141 E7.77752
G1 X159.686 Y125.226 E7.89884
G1 X159.082 Y125.476 E8.02016
G1 X158.563 Y125.874 E8.14148
G1 X158.165 Y126.393 E8.26279
G1 X157.915 Y126.997 E8.38411
G1 X157.829 Y127.645 E8.50543
G1 X157.915 Y128.293 E8.62675
G1 X158.165 Y128.897 E8.74807
G1 X158.563 Y129.416 E8.86939
G1 X159.082 Y129.814 E8.99070
G1 X159.686 Y130.064 E9.11202
G1 X160.334 Y130.150 E9.23334
G1 X160.982 Y130.064 E9.35466
G1 X161.806 Y129.723 E9.52027
G1 X162.129 Y130.226 E9.63112
G1 X161.864 Y130.472 E9.69828
G1 X160.999 Y131.061 E9.89239
G1 X160.057 Y131.515 E10.08650
G1 X159.057 Y131.823 E10.28061
G1 X158.023 Y131.979 E10.47472
G1 X156.977 Y131.979 E10.66882
G1 X155.943 Y131.823 E10.86293
G1 X154.943 Y131.515 E11.05704
G1 X154.001 Y131.061 E11.25115
G1 X153.270 Y130.563 E11.41516
G1 X153.472 Y130.036 E11.51983
G1 X154.334 Y130.150 E11.68118
G1 X154.982 Y130.064 E11.80250
G1 X155.586 Y129.814 E11.92382
G1 X156.104 Y129.416 E12.04513
G1 X156.502 Y128.897 E12.16645
G1 X156.753 Y128.293 E12.28777
G1 X156.838 Y127.645 E12.40909
G1 X156.753 Y126.997 E12.53041
G1 X156.502 Y126.393 E12.65173
G1 X156.104 Y125.874 E12.77304
G1 X155.586 Y125.476 E12.89436
G1 X154.982 Y125.226 E13.01568
G1 X154.334 Y125.141 E13.13700
G1 X153.686 Y125.226 E13.25831
G1 X153.082 Y125.476 E13.37963
G1 X152.563 Y125.874 E13.50095
G1 X152.165 Y126.393 E13.62227
G1 X151.915 Y126.997 E13.74359
G1 X151.829 Y127.645 E13.86490
G1 X151.877 Y128.009 E13.93299
G1 X151.411 Y127.930 F7800.000
G1 X153.012 Y121.452 F7800.000
G1 X153.215 Y120.616 E14.02247 F600.000
G1 X153.452 Y120.379 E14.05728
G1 X153.671 Y120.198 E14.08676
G1 X154.306 Y119.750 E14.16761
G1 X155.239 Y119.282 E14.27610
G1 X156.132 Y119.006 E14.37320
G1 X157.041 Y118.873 E14.46867
G1 X157.275 Y118.861 E14.49303
G1 X157.959 Y118.876 E14.56414
G1 X158.316 Y118.913 E14.60147
G1 X158.866 Y119.014 E14.65960
G1 X159.334 Y119.139 E14.70991
G1 X159.743 Y119.285 E14.75506
G1 X160.299 Y119.533 E14.81836
G1 X160.571 Y119.682 E14.85052
G1 X161.143 Y120.053 E14.92149
G1 X161.526 Y120.382 E14.97392
G1 X161.944 Y120.876 E15.04123
G1 X162.221 Y121.371 E15.10015
M106 S255
G1 F1800.000 E14.10015
G92 E0
G1 Z0.900 F7800.000
G1 X154.305 Y123.436 F7800.000
G1 E1.00000 F1800.000
G1 X153.613 Y122.678 E1.08536 F622.503
G1 X153.452 Y122.380 E1.11354
G1 X153.368 Y122.051 E1.14171
G1 X153.366 Y121.712 E1.16989
G1 X153.446 Y121.383 E1.19806
G1 X153.603 Y121.083 E1.22624
G1 X153.819 Y120.840 E1.25324
G1 X154.588 Y120.271 E1.33280
G1 X155.430 Y119.847 E1.41118
G1 X156.331 Y119.571 E1.48957
G1 X157.266 Y119.452 E1.56796
G1 X158.208 Y119.492 E1.64634
G1 X159.130 Y119.691 E1.72473
G1 X160.004 Y120.043 E1.80311
G1 X160.817 Y120.545 E1.88252
G1 X161.095 Y120.806 E1.91426
G1 X161.311 Y121.136 E1.94703
G1 X161.444 Y121.506 E1.97979
G1 X161.488 Y121.898 E2.01255
G1 X161.439 Y122.289 E2.04531
G1 X160.932 Y123.641 E2.16538
G1 X159.590 Y122.353 E2.32007
G1 X159.043 Y122.001 E2.37407
G1 X158.440 Y121.761 E2.42807
G1 X157.802 Y121.641 E2.48208
G1 X157.152 Y121.646 E2.53608
G1 X156.516 Y121.774 E2.59009
G1 X155.916 Y122.023 E2.64409
G1 X155.374 Y122.382 E2.69809
G1 X154.358 Y123.384 E2.81674
G1 X154.324 Y122.715 F7800.000
G1 X154.024 Y122.386 E2.85376 F600.000
G1 X153.921 Y122.196 E2.87173
G1 X153.868 Y121.987 E2.88970
G1 X153.866 Y121.771 E2.90766
G1 X153.917 Y121.561 E2.92563
G1 X154.018 Y121.369 E2.94359
G1 X154.158 Y121.211 E2.96117
G1 X154.851 Y120.699 E3.03286
G1 X155.617 Y120.313 E3.10416
G1 X156.437 Y120.062 E3.17547
G1 X157.287 Y119.953 E3.24677
G1 X158.144 Y119.990 E3.31807
G1 X158.982 Y120.171 E3.38938
G1 X159.778 Y120.491 E3.46068
G1 X160.511 Y120.943 E3.53232
G1 X160.709 Y121.130 E3.55493
G1 X160.861 Y121.361 E3.57789
G1 X160.954 Y121.620 E3.60084
G1 X160.985 Y121.895 E3.62379
G1 X160.950 Y122.169 E3.64674
G1 X160.731 Y122.755 E3.69879
G1 X159.901 Y121.959 E3.79440
G1 X159.273 Y121.555 E3.85645
G1 X158.580 Y121.279 E3.91850
G1 X157.847 Y121.141 E3.98054
G1 X157.100 Y121.146 E4.04259
G1 X156.369 Y121.294 E4.10464
G1 X155.680 Y121.579 E4.16669
G1 X155.058 Y121.992 E4.22873
G1 X154.378 Y122.663 E4.30817
G1 X153.999 Y123.020 F7800.000
G1 X154.334 Y125.393 F7800.000
G1 X154.703 Y125.442 E4.33913 F600.000
G1 X154.917 Y125.470 E4.35706 F600.000
G1 X155.460 Y125.695 E4.40594
G1 X155.926 Y126.053 E4.45483
G1 X156.284 Y126.519 E4.50372
G1 X156.509 Y127.062 E4.55260
G1 X156.586 Y127.645 E4.60149
G1 X156.509 Y128.228 E4.65038
G1 X156.284 Y128.771 E4.69926
G1 X155.926 Y129.238 E4.74815
G1 X155.460 Y129.596 E4.79704
G1 X154.917 Y129.821 E4.84592
G1 X154.334 Y129.897 E4.89481
G1 X153.751 Y129.821 E4.94370
G1 X153.208 Y129.596 E4.99258
G1 X152.741 Y129.238 E5.04147
G1 X152.383 Y128.771 E5.09036
G1 X152.158 Y128.228 E5.13924
G1 X152.082 Y127.645 E5.18813
G1 X152.158 Y127.062 E5.23702
G1 X152.383 Y126.519 E5.28590
G1 X152.741 Y126.053 E5.33479
G1 X153.208 Y125.695 E5.38368
G1 X153.751 Y125.470 E5.43256
G1 X154.259 Y125.403 E5.47521
G1 X154.825 Y125.264 F7800.000
G1 X158.188 Y126.990 F7800.000
G1 X158.383 Y126.519 E5.51757 F600.000
G1 X158.741 Y126.053 E5.56646
G1 X159.208 Y125.695 E5.61534
G1 X159.751 Y125.470 E5.66423
G1 X160.334 Y125.393 E5.71312
G1 X160.703 Y125.442 E5.74407
G1 X160.917 Y125.470 E5.76200 F600.000
G1 X161.460 Y125.695 E5.81089
G1 X161.926 Y126.053 E5.85978
G1 X162.284 Y126.519 E5.90866
G1 X162.509 Y127.062 E5.95755
G1 X162.586 Y127.645 E6.00644
G1 X162.509 Y128.228 E6.05532
G1 X162.284 Y128.771 E6.10421
G1 X162.057 Y129.067 E6.13517
G1 X161.926 Y129.238 E6.15310
G1 X161.460 Y129.596 E6.20198
G1 X160.917 Y129.821 E6.25087
G1 X160.334 Y129.897 E6.29976
G1 X159.751 Y129.821 E6.34864
G1 X159.208 Y129.596 E6.39753
G1 X158.741 Y129.238 E6.44642
G1 X158.383 Y128.771 E6.49530
G1 X158.158 Y128.228 E6.54419
G1 X158.082 Y127.645 E6.59308
G1 X158.160 Y127.059 E6.64225
G1 F1800.000 E5.64225
G92 E0
G1 X160.782 Y125.241 F7800.000
G1 X157.334 Y128.851 F7800.000
G1 E1.00000 F1800.000
G1 X157.510 Y129.276 E1.03826 F622.503
G1 X158.028 Y129.951 E1.10904
G1 X158.703 Y130.469 E1.17982
G1 X159.642 Y130.858 E1.26429
G1 X158.890 Y131.090 E1.32971
G1 X157.967 Y131.229 E1.40734
G1 X157.033 Y131.229 E1.48497
G1 X156.110 Y131.090 E1.56260
G1 X155.168 Y130.799 E1.64461
G1 X155.964 Y130.469 E1.71630
G1 X156.639 Y129.951 E1.78708
G1 X157.158 Y129.276 E1.85786
G1 X157.305 Y128.920 E1.88988
G1 F1800.000 E0.88988
G92 E0
G1 X155.847 Y131.270 F7800.000
G1 X158.973 Y134.364 F7800.000
G1 X166.366 Y128.355 F7800.000
G1 X164.804 Y118.956 F7800.000
G1 X163.948 Y125.663 F7800.000
G1 X156.604 Y122.012 F7800.000
G1 X154.286 Y124.157 F7800.000
G1 E1.00000 F1800.000
G1 X155.691 Y122.772 E1.16409 F622.503
G1 X156.152 Y122.466 E1.21005
G1 X156.662 Y122.255 E1.25601
G1 X157.204 Y122.145 E1.30196
G1 X157.757 Y122.141 E1.34792
G1 X158.300 Y122.244 E1.39388
G1 X158.813 Y122.448 E1.43984
G1 X159.278 Y122.747 E1.48580
G1 X160.753 Y124.162 E1.65573
G1 X160.627 Y124.423 E1.67982
G1 X160.334 Y124.385 E1.70446
G1 X159.490 Y124.496 E1.77524
G1 X158.703 Y124.821 E1.84602
G1 X158.028 Y125.340 E1.91680
G1 X157.510 Y126.015 E1.98758
G1 X157.334 Y126.440 E2.02584
G1 X157.158 Y126.015 E2.06410
G1 X156.639 Y125.340 E2.13488
G1 X155.964 Y124.821 E2.20566
G1 X155.178 Y124.496 E2.27644
G1 X154.334 Y124.385 E2.34722
G1 X153.490 Y124.496 E2.41800
G1 X152.703 Y124.821 E2.48878
G1 X152.028 Y125.340 E2.55956
G1 X151.346 Y126.229 E2.65276
G1 X151.254 Y125.000 E2.75523
G1 X151.323 Y124.069 E2.83286
G1 X151.531 Y123.159 E2.91049
G1 X151.872 Y122.290 E2.98811
G1 X152.339 Y121.481 E3.06574
G1 X152.692 Y121.038 E3.11290
G1 X152.981 Y121.179 E3.13961
G1 X152.866 Y121.654 E3.18025
G1 X152.869 Y122.116 E3.21864
G1 X152.983 Y122.563 E3.25702
G1 X153.202 Y122.969 E3.29540
G1 X154.235 Y124.102 E3.42287
G1 X161.150 Y124.484 F7800.000
G1 X161.928 Y122.409 E3.60712 F622.503
G1 X161.992 Y121.901 E3.64970
G1 X161.935 Y121.392 E3.69227
G1 X161.748 Y120.873 E3.73819
G1 X162.044 Y120.707 E3.76640
G1 X162.661 Y121.481 E3.84871
G1 X163.128 Y122.290 E3.92633
G1 X163.469 Y123.159 E4.00396
G1 X163.677 Y124.069 E4.08159
G1 X163.746 Y125.000 E4.15922
G1 X163.677 Y125.931 E4.23685
G1 X163.587 Y126.324 E4.27036
G1 X163.296 Y126.348 E4.29467
G1 X163.158 Y126.015 E4.32469
G1 X162.639 Y125.340 E4.39547
G1 X161.964 Y124.821 E4.46625
G1 X161.219 Y124.513 E4.53331
G1 X163.007 Y128.275 F7800.000
G1 X163.090 Y127.645 E4.58616 F622.503
G1 X162.996 Y126.932 E4.64600
G1 X162.721 Y126.267 E4.70583
G1 X162.283 Y125.696 E4.76566
G1 X161.712 Y125.258 E4.82550
G1 X161.047 Y124.983 E4.88533
G1 X160.334 Y124.889 E4.94516
G1 X159.620 Y124.983 E5.00500
G1 X158.955 Y125.258 E5.06483
G1 X158.385 Y125.696 E5.12466
G1 X157.946 Y126.267 E5.18450
G1 X157.671 Y126.932 E5.24433
G1 X157.577 Y127.645 E5.30416
G1 X157.671 Y128.359 E5.36400
G1 X157.946 Y129.024 E5.42383
G1 X158.385 Y129.594 E5.48367
G1 X158.955 Y130.032 E5.54350
G1 X159.620 Y130.308 E5.60333
G1 X160.334 Y130.402 E5.66317
G1 X161.131 Y130.297 E5.73001
G1 X161.243 Y130.592 E5.75628
G1 X160.874 Y130.844 E5.79345
G1 X159.965 Y131.281 E5.87732
G1 X159.002 Y131.579 E5.96118
G1 X158.004 Y131.729 E6.04504
G1 X156.996 Y131.729 E6.12890
G1 X155.998 Y131.579 E6.21276
G1 X155.035 Y131.281 E6.29662
G1 X154.126 Y130.844 E6.38048
G1 X153.836 Y130.646 E6.40964
G1 X153.949 Y130.351 E6.43591
G1 X154.334 Y130.402 E6.46818
G1 X155.047 Y130.308 E6.52801
G1 X155.712 Y130.032 E6.58785
G1 X156.283 Y129.594 E6.64768
G1 X156.721 Y129.024 E6.70751
G1 X156.996 Y128.359 E6.76735
G1 X157.090 Y127.645 E6.82718
G1 X156.996 Y126.932 E6.88701
G1 X156.721 Y126.267 E6.94685
G1 X156.283 Y125.696 E7.00668
G1 X155.712 Y125.258 E7.06652
